maximpopov11/Real-Steel/ros_ws/demo2-csvs/angles.csv
timestamp,left_shoulder_pitch_joint,left_shoulder_roll_joint,left_shoulder_yaw_joint,left_elbow_joint,right_shoulder_pitch_joint,right_shoulder_roll_joint,right_shoulder_yaw_joint,right_elbow_joint
0.000,1.464822769165039,0.8018386363983154,0.6443345546722412,0.11481156945228577,0.0,1.4021711349487305,-0.7037369608879089,-0.8983466029167175,0.4521523714065552,0.0
0.100,1.4701955318450928,0.8128196597099304,0.6405150294303894,0.07703232020139694,0.0,1.4014312028884888,-0.7149206399917603,-0.9042488932609558,0.4736590087413788,0.0
0.200,1.4625754356384277,0.8212858239809672,0.6435448527336121,0.09619529048601785,0.0,1.4075984557469685,-0.7121302485466003,-0.8931752244631449,0.39898181955019635,0.0
0.300,1.4549553394317627,0.829751988252004,0.6465746760368347,0.11535826077063878,0.0,1.4137657086054485,-0.7093398571014404,-0.8821015556653341,0.3243046303590139,0.0
0.400,1.4473352432250977,0.8382181525230408,0.6496044993400574,0.1345212310552597,0.0,1.4199329614639282,-0.7065494656562805,-0.8710278868675232,0.24962744116783142,0.0
0.500,1.4500603675842285,0.8342620730400085,0.6520033478736877,0.13884710520505905,0.0,1.4570059180259705,-0.7920439839363098,-0.8376794755458832,0.16273128613829613,0.0
0.600,1.4527854919433594,0.8303059935569763,0.6544021964073181,0.1431729793548584,0.0,1.4940788745880127,-0.8775385022163391,-0.8043310642242432,0.07583513110876083,0.0
0.700,1.4498904049396515,0.8168857991695404,0.6534782201051712,0.166108388453722,0.0,1.398653894662857,-0.8841960430145264,-0.8843154907226562,0.045973741449415684,0.0
0.800,1.4469953179359436,0.8034656047821045,0.6525542438030243,0.1890437975525856,0.0,1.3032289147377014,-0.8908535838127136,-0.9642999172210693,0.016112351790070534,0.0
0.900,1.4441002309322357,0.7900454103946686,0.6516302675008774,0.2119792066514492,0.0,1.2078039348125458,-0.8975111246109009,-1.0442843437194824,-0.013749037869274616,0.0
1.000,1.4412051439285278,0.7766252160072327,0.6507062911987305,0.2349146157503128,0.0,1.1123789548873901,-0.9041686654090881,-1.1242687702178955,-0.043610427528619766,0.0
1.100,1.3798634608586628,0.8224112391471863,0.6412820617357889,0.16357911999026936,0.0,1.1916563908259075,-0.9367093642552694,-1.1359101136525471,-0.04569707935055097,0.0
1.200,1.318521777788798,0.8681972622871399,0.6318578322728475,0.09224362423022589,0.0,1.2709338267644246,-0.9692500631014506,-1.147551457087199,-0.04778373117248217,0.0
1.300,1.257180094718933,0.9139832854270935,0.622433602809906,0.02090812847018242,0.0,1.350211262702942,-1.0017907619476318,-1.1591928005218506,-0.049870382994413376,0.0
1.400,1.2524194320042927,0.8971622586250305,0.6112554868062338,0.029487159103155136,0.0,1.393126408259074,-0.9835984706878662,-1.235347072283427,-0.06831300755341847,0.0
1.500,1.2476587692896526,0.8803412318229675,0.6000773708025614,0.03806618973612785,0.0,1.4360415538152058,-0.9654061794281006,-1.3115013440450032,-0.08675563211242357,0.0
1.600,1.2428981065750122,0.8635202050209045,0.5888992547988892,0.04664522036910057,0.0,1.478956699371338,-0.947213888168335,-1.3876556158065796,-0.10519825667142868,0.0
1.700,1.1944677829742432,0.886102706193924,0.5509870052337646,0.04645688086748123,0.0,1.5014140605926514,-1.0438538789749146,-1.4742175340652466,-0.1326233111321926,0.0
1.800,1.1460374593734741,0.9086852073669434,0.5130747556686401,0.04626854136586189,0.0,1.5238714218139648,-1.1404938697814941,-1.5607794523239136,-0.16004836559295654,0.0
1.900,1.0509293026157789,0.8675892906529563,0.5866179636546544,0.03179837789918695,0.0,1.4528501800128393,-1.168010413646698,-1.5314562491008215,-0.1452857359711613,0.0
2.000,0.9558211458580834,0.8264933739389693,0.6601611716406686,0.017328214432512014,0.0,1.3818289382117135,-1.1955269575119019,-1.5021330458777291,-0.13052310634936606,0.0
2.100,0.8607129891003882,0.7853974572249821,0.7337043796266828,0.002858050965837071,0.0,1.310807696410588,-1.2230435013771057,-1.472809842654637,-0.11576047672757081,0.0
2.200,0.7656048323426928,0.7443015405109951,0.807247587612697,-0.011612112500837865,0.0,1.2397864546094621,-1.2505600452423096,-1.4434866394315446,-0.10099784710577556,0.0
2.300,0.6704966755849975,0.7032056237970079,0.8807907955987113,-0.026082275967512808,0.0,1.1687652128083366,-1.2780765891075134,-1.4141634362084525,-0.08623521748398032,0.0
2.400,0.5753885188273021,0.6621097070830209,0.9543340035847254,-0.04055243943418775,0.0,1.097743971007211,-1.3055931329727173,-1.3848402329853604,-0.07147258786218508,0.0
2.500,0.4802803620696068,0.6210137903690338,1.0278772115707397,-0.055022602900862694,0.0,1.0267227292060852,-1.3331096768379211,-1.355517029762268,-0.056709958240389824,0.0
2.600,0.38517220531191154,0.5799178736550468,1.1014204195567538,-0.06949276636753762,0.0,0.9557014874049595,-1.360626220703125,-1.326193826539176,-0.041947328618594584,0.0
2.700,0.2900640485542161,0.5388219569410596,1.1749636275427684,-0.08396292983421258,0.0,0.8846802456038338,-1.3881427645683289,-1.2968706233160836,-0.027184698996799317,0.0
2.800,0.19495589179652073,0.49772604022707256,1.2485068355287825,-0.09843309330088751,0.0,0.8136590038027082,-1.4156593084335327,-1.2675474200929915,-0.012422069375004091,0.0
2.900,0.09984773503882538,0.4566301235130855,1.3220500435147966,-0.11290325676756247,0.0,0.7426377620015826,-1.4431758522987366,-1.2382242168698991,0.0023405602467911624,0.0
3.000,0.004739578281130141,0.41553420679909847,1.3955932515008107,-0.1273734202342374,0.0,0.6716165202004569,-1.4706923961639404,-1.208901013646807,0.017103189868586388,0.0
3.100,-0.09036857847656532,0.3744382900851113,1.4691364594868253,-0.14184358370091235,0.0,0.6005952783993312,-1.4982089400291443,-1.1795778104237147,0.03186581949038167,0.0
3.200,-0.18547673523426056,0.33334237337112427,1.5426796674728394,-0.15631374716758728,0.0,0.5295740365982056,-1.5257254838943481,-1.1502546072006226,0.046628449112176895,0.0
3.300,-0.10650982369076122,0.35302659598263825,1.4888806288892573,-0.14883690191940827,0.0,0.4394876550544392,-1.5415683551268144,-1.0540637529709123,0.06463675268671729,0.0
3.400,-0.027542912147261872,0.3727108185941523,1.435081590305675,-0.14136005667122928,0.0,0.34940127351067285,-1.5574112263592808,-0.957872898741202,0.08264505626125769,0.0
3.500,0.05142399939623743,0.39239504120566626,1.381282551722093,-0.13388321142305026,0.0,0.2593148919669065,-1.5732540975917468,-0.8616820445114917,0.1006533598357981,0.0
3.600,0.13039091093973681,0.4120792638171803,1.327483513138511,-0.12640636617487128,0.0,0.16922851042314008,-1.5890969688242131,-0.7654911902817813,0.11866166341033849,0.0
3.700,0.20935782248323614,0.4317634864286943,1.273684474554929,-0.11892952092669226,0.0,0.07914212887937372,-1.6049398400566794,-0.669300336052071,0.13666996698487888,0.0
3.800,0.2883247340267354,0.45144770904020826,1.2198854359713467,-0.11145267567851327,0.0,-0.010944252664392584,-1.6207827112891457,-0.5731094818223607,0.1546782705594193,0.0
3.900,0.36729164557023486,0.4711319316517223,1.1660863973877647,-0.10397583043033426,0.0,-0.10103063420815905,-1.636625582521612,-0.47691862759265036,0.17268657413395969,0.0
4.000,0.4462585571137342,0.4908161542632363,1.1122873588041826,-0.09649898518215526,0.0,-0.1911170157519254,-1.6524684537540781,-0.38072777336293995,0.19069487770850008,0.0
4.100,0.5252254686572335,0.5105003768747504,1.0584883202206004,-0.08902213993397626,0.0,-0.28120339729569177,-1.6683113249865444,-0.28453691913322965,0.2087031812830405,0.0
4.200,0.6041923802007328,0.5301845994862643,1.0046892816370185,-0.08154529468579726,0.0,-0.37128977883945813,-1.6841541962190107,-0.18834606490351935,0.22671148485758089,0.0
4.300,0.6831592917442322,0.5498688220977783,0.9508902430534363,-0.07406844943761826,0.0,-0.4613761603832245,-1.699997067451477,-0.09215521067380905,0.24471978843212128,0.0
4.400,0.5890931685765585,0.5283738440937467,1.0194885465833876,-0.0810098151365916,0.0,-0.5134844779968262,-1.654695404900445,-0.10833341379960378,0.24337968726952872,0.0
4.500,0.4950270454088847,0.5068788660897149,1.088086850113339,-0.08795118083556493,0.0,-0.5655927956104279,-1.6093937423494127,-0.1245116169253985,0.24203958610693613,0.0
4.600,0.40096092224121094,0.4853838880856832,1.1566851536432903,-0.09489254653453827,0.0,-0.6177011132240295,-1.5640920797983806,-0.14068982005119324,0.24069948494434357,0.0
4.700,0.30689479907353723,0.46388891008165145,1.2252834571732416,-0.1018339122335116,0.0,-0.6698094308376312,-1.5187904172473483,-0.15686802317698795,0.239359383781751,0.0
4.800,0.2128286759058634,0.4423939320776198,1.2938817607031927,-0.10877527793248495,0.0,-0.7219177484512329,-1.4734887546963162,-0.1730462263027827,0.23801928261915842,0.0
4.900,0.1187625527381897,0.42089895407358807,1.362480064233144,-0.11571664363145828,0.0,-0.7740260660648346,-1.4281870921452842,-0.18922442942857742,0.23667918145656586,0.0
5.000,0.024696429570515988,0.39940397606955635,1.4310783677630954,-0.12265800933043161,0.0,-0.8261343836784363,-1.3828854295942519,-0.20540263255437213,0.2353390802939733,0.0
5.100,-0.06936969359715772,0.37790899806552464,1.4996766712930467,-0.12959937502940494,0.0,-0.878242701292038,-1.3375837670432196,-0.22158083568016687,0.2339989791313807,0.0
5.200,-0.16343581676483154,0.3564140200614929,1.568274974822998,-0.1365407407283783,0.0,-0.9303510189056396,-1.2922821044921875,-0.2377590388059616,0.23265887796878815,0.0
5.300,-0.16320331320166587,0.357391694188118,1.5685187041759492,-0.135786771774292,0.0,-0.8324105322360993,-1.298303884267807,-0.3200016863644123,0.20921940356492996,0.0
5.400,-0.16297080963850022,0.35836936831474303,1.5687624335289,-0.1350328028202057,0.0,-0.7344700455665588,-1.3043256640434264,-0.402244333922863,0.18577992916107178,0.0
5.500,-0.16273830607533454,0.3593470424413681,1.5690061628818512,-0.13427883386611938,0.0,-0.6365295588970185,-1.310347443819046,-0.4844869814813137,0.1623404547572136,0.0
5.600,-0.1625058025121689,0.36032471656799314,1.5692498922348022,-0.13352486491203308,0.0,-0.538589072227478,-1.3163692235946656,-0.5667296290397644,0.1389009803533554,0.0
5.700,-0.16227329894900322,0.3613023906946182,1.5694936215877533,-0.13277089595794678,0.0,-0.4406485855579376,-1.322391003370285,-0.6489722765982151,0.11546150594949722,0.0
5.800,-0.16204079538583754,0.3622800648212433,1.5697373509407044,-0.13201692700386047,0.0,-0.34270809888839726,-1.3284127831459045,-0.7312149241566658,0.09202203154563904,0.0
5.900,-0.1618082918226719,0.36325773894786834,1.5699810802936554,-0.13126295804977417,0.0,-0.2447676122188569,-1.334434562921524,-0.8134575717151165,0.06858255714178085,0.0
6.000,-0.16157578825950622,0.3642354130744934,1.5702248096466065,-0.13050898909568787,0.0,-0.14682712554931632,-1.3404563426971436,-0.8957002192735672,0.04514308273792267,0.0
6.100,-0.16134328469634057,0.36521308720111845,1.5704685389995574,-0.12975502014160156,0.0,-0.04888663887977596,-1.346478122472763,-0.9779428668320179,0.021703608334064484,0.0
6.200,-0.1611107811331749,0.36619076132774353,1.5707122683525085,-0.12900105118751526,0.0,0.049053847789764404,-1.3524999022483826,-1.0601855143904686,-0.0017358660697937012,0.0
6.300,-0.16087827757000922,0.3671684354543686,1.5709559977054597,-0.12824708223342896,0.0,0.146994334459305,-1.358521682024002,-1.1424281619489194,-0.025175340473651886,0.0
6.400,-0.16064577400684357,0.36814610958099364,1.5711997270584106,-0.12749311327934265,0.0,0.24493482112884513,-1.3645434617996215,-1.22467080950737,-0.04861481487751007,0.0
6.500,-0.1604132704436779,0.3691237837076187,1.5714434564113617,-0.12673914432525635,0.0,0.3428753077983857,-1.3705652415752412,-1.3069134570658207,-0.07205428928136826,0.0
6.600,-0.16018076688051225,0.37010145783424375,1.5716871857643127,-0.12598517537117004,0.0,0.44081579446792585,-1.3765870213508606,-1.3891561046242713,-0.09549376368522644,0.0
6.700,-0.15994826331734657,0.37107913196086884,1.5719309151172638,-0.12523120641708374,0.0,0.5387562811374664,-1.38260880112648,-1.471398752182722,-0.11893323808908463,0.0
6.800,-0.1597157597541809,0.3720568060874939,1.572174644470215,-0.12447723746299744,0.0,0.636696767807007,-1.3886305809020996,-1.5536413997411729,-0.1423727124929428,0.0
6.900,-0.15948325619101525,0.37303448021411895,1.5724183738231658,-0.12372326850891113,0.0,0.7346372544765472,-1.394652360677719,-1.6358840472996234,-0.165812186896801,0.0
7.000,-0.15925075262784957,0.37401215434074403,1.572662103176117,-0.12296929955482483,0.0,0.8325777411460877,-1.4006741404533387,-1.7181266948580742,-0.18925166130065918,0.0
7.100,-0.15901824906468393,0.37498982846736906,1.572905832529068,-0.12221533060073853,0.0,0.9305182278156279,-1.4066959202289582,-1.8003693424165248,-0.21269113570451736,0.0
7.200,-0.15878574550151825,0.37596750259399414,1.573149561882019,-0.12146136164665222,0.0,1.0284587144851685,-1.4127177000045776,-1.8826119899749756,-0.23613061010837555,0.0
7.300,-0.09020302640764337,0.4030981503034893,1.5180052424732007,-0.10973625316431648,0.0,0.9321259228806746,-1.40720628437243,-1.823026572403155,-0.22900868128789098,0.0
7.400,-0.02162030731376849,0.4302287980129844,1.4628609230643825,-0.09801114468198074,0.0,0.8357931312761808,-1.4016948687402826,-1.7634411548313342,-0.2218867524674064,0.0
7.500,0.04696241178010638,0.45735944572247955,1.4077166036555642,-0.08628603619964499,0.0,0.7394603396716871,-1.396183453108135,-1.7038557372595136,-0.21476482364692187,0.0
7.600,0.11554513087398127,0.4844900934319747,1.3525722842467458,-0.07456092771730925,0.0,0.6431275480671933,-1.3906720374759876,-1.6442703196876927,-0.2076428948264373,0.0
7.700,0.18412784996785614,0.5116207411414698,1.2974279648379277,-0.0628358192349735,0.0,0.5467947564626996,-1.38516062184384,-1.584684902115872,-0.20052096600595273,0.0
7.800,0.252710569061731,0.538751388850965,1.2422836454291093,-0.05111071075263776,0.0,0.4504619648582058,-1.3796492062116925,-1.5250994845440513,-0.19339903718546816,0.0
7.900,0.32129328815560587,0.5658820365604601,1.187139326020291,-0.03938560227030202,0.0,0.35412917325371196,-1.3741377905795449,-1.4655140669722306,-0.18627710836498362,0.0
8.000,0.3898760072494808,0.5930126842699552,1.1319950066114728,-0.027660493787966284,0.0,0.25779638164921814,-1.3686263749473973,-1.40592864940041,-0.17915517954449905,0.0
8.100,0.4584587263433556,0.6201433319794504,1.0768506872026544,-0.015935385305630545,0.0,0.16146359004472433,-1.3631149593152498,-1.3463432318285893,-0.17203325072401449,0.0
8.200,0.5270414454372305,0.6472739796889455,1.0217063677938363,-0.004210276823294792,0.0,0.06513079844023062,-1.3576035436831022,-1.2867578142567684,-0.16491132190352992,0.0
8.300,0.5956241645311054,0.6744046273984408,0.9665620483850178,0.00751483165904096,0.0,-0.03120199316426331,-1.3520921280509548,-1.2271723966849477,-0.15778939308304535,0.0
8.400,0.6642068836249803,0.7015352751079358,0.9114177289761995,0.0192399401413767,0.0,-0.1275347847687569,-1.3465807124188072,-1.167586979113127,-0.15066746426256078,0.0
8.500,0.7327896027188552,0.728665922817431,0.8562734095673812,0.030965048623712438,0.0,-0.22386757637325094,-1.3410692967866595,-1.1080015615413064,-0.1435455354420762,0.0
8.600,0.80137232181273,0.7557965705269261,0.8011290901585629,0.04269015710604818,0.0,-0.32020036797774454,-1.3355578811545121,-1.0484161439694857,-0.13642360662159167,0.0
8.700,0.869955040906605,0.7829272182364213,0.7459847707497446,0.054415265588383915,0.0,-0.4165331595822386,-1.3300464655223645,-0.9888307263976649,-0.1293016778011071,0.0
8.800,0.9385377600004798,0.8100578659459163,0.6908404513409264,0.06614037407071965,0.0,-0.5128659511867322,-1.324535049890217,-0.9292453088258442,-0.12217974898062255,0.0
8.900,1.0071204790943546,0.8371885136554116,0.635696131932108,0.07786548255305542,0.0,-0.609198742791226,-1.3190236342580695,-0.8696598912540234,-0.11505782016013798,0.0
9.000,1.0757031981882295,0.8643191613649066,0.5805518125232898,0.08959059103539113,0.0,-0.7055315343957198,-1.313512218625922,-0.8100744736822028,-0.10793589133965342,0.0
9.100,1.1442859172821045,0.8914498090744019,0.5254074931144714,0.1013156995177269,0.0,-0.8018643260002136,-1.3080008029937744,-0.7504890561103821,-0.10081396251916885,0.0
9.200,1.1438433496575606,0.8914989923176012,0.52522978970879,0.101906561145657,0.0,-0.7047632493470845,-1.3155349681251927,-0.811363370794999,-0.10802525360333293,0.0
9.300,1.1434007820330168,0.8915481755608007,0.5250520863031086,0.10249742277358707,0.0,-0.6076621726939553,-1.3230691332566111,-0.8722376854796159,-0.11523654468749699,0.0
9.400,1.142958214408473,0.891597358804,0.5248743828974272,0.10308828440151717,0.0,-0.5105610960408261,-1.3306032983880294,-0.9331120001642328,-0.12244783577166106,0.0
9.500,1.142515646783929,0.8916465420471994,0.5246966794917458,0.10367914602944725,0.0,-0.41346001938769694,-1.3381374635194476,-0.9939863148488497,-0.12965912685582512,0.0
9.600,1.1420730791593854,0.8916957252903989,0.5245189760860643,0.10427000765737734,0.0,-0.31635894273456777,-1.345671628650866,-1.0548606295334666,-0.1368704179399892,0.0
9.700,1.1416305115348415,0.8917449085335982,0.524341272680383,0.10486086928530743,0.0,-0.2192578660814386,-1.3532057937822843,-1.1157349442180835,-0.14408170902415326,0.0
9.800,1.1411879439102977,0.8917940917767977,0.5241635692747015,0.10545173091323752,0.0,-0.12215678942830943,-1.3607399589137028,-1.1766092589027002,-0.1512930001083173,0.0
9.900,1.1407453762857538,0.891843275019997,0.5239858658690202,0.10604259254116762,0.0,-0.02505571277518026,-1.368274124045121,-1.2374835735873173,-0.15850429119248138,0.0
10.000,1.14030280866121,0.8918924582631964,0.5238081624633387,0.1066334541690977,0.0,0.07204536387794891,-1.3758082891765393,-1.298357888271934,-0.16571558227664546,0.0
10.100,1.139860241036666,0.8919416415063959,0.5236304590576574,0.10722431579702779,0.0,0.16914644053107808,-1.3833424543079578,-1.3592322029565511,-0.17292687336080953,0.0
10.200,1.1394176734121222,0.8919908247495952,0.5234527556519759,0.10781517742495787,0.0,0.26624751718420736,-1.390876619439376,-1.4201065176411678,-0.1801381644449736,0.0
10.300,1.1389751057875783,0.8920400079927946,0.5232750522462946,0.10840603905288797,0.0,0.3633485938373364,-1.3984107845707943,-1.4809808323257847,-0.18734945552913768,0.0
10.400,1.1385325381630345,0.8920891912359941,0.5230973488406131,0.10899690068081806,0.0,0.4604496704904657,-1.4059449497022127,-1.5418551470104016,-0.19456074661330175,0.0
10.500,1.1380899705384906,0.8921383744791934,0.5229196454349317,0.10958776230874814,0.0,0.5575507471435948,-1.413479114833631,-1.6027294616950185,-0.2017720376974658,0.0
10.600,1.137647402913947,0.8921875577223929,0.5227419420292503,0.11017862393667824,0.0,0.654651823796724,-1.4210132799650494,-1.6636037763796354,-0.20898332878162987,0.0
10.700,1.137204835289403,0.8922367409655922,0.5225642386235689,0.11076948556460832,0.0,0.7517529004498531,-1.4285474450964677,-1.7244780910642523,-0.2161946198657939,0.0
10.800,1.1367622676648592,0.8922859242087916,0.5223865352178875,0.11136034719253841,0.0,0.8488539771029824,-1.436081610227886,-1.7853524057488692,-0.223405910949958,0.0
10.900,1.1363197000403154,0.8923351074519911,0.5222088318122061,0.1119512088204685,0.0,0.9459550537561114,-1.4436157753593044,-1.8462267204334861,-0.23061720203412206,0.0
11.000,1.1358771324157715,0.8923842906951904,0.5220311284065247,0.11254207044839859,0.0,1.0430561304092407,-1.4511499404907227,-1.907101035118103,-0.23782849311828613,0.0
11.100,1.0477293252944946,0.8312821865081788,0.6158178687095642,0.09032103633508086,0.0,1.0315523505210877,-1.4553648948669433,-1.8961991786956787,-0.23353770971298218,0.0
11.200,0.9595815181732178,0.770180082321167,0.7096046090126038,0.06810000222176313,0.0,1.0200485706329345,-1.459579849243164,-1.8852973222732543,-0.22924692630767823,0.0
11.300,0.871433711051941,0.7090779781341553,0.8033913493156433,0.04587896810844541,0.0,1.0085447907447815,-1.4637948036193849,-1.8743954658508302,-0.22495614290237426,0.0
11.400,0.7832859039306641,0.6479758739471435,0.897178089618683,0.023657933995127667,0.0,0.9970410108566284,-1.4680097579956055,-1.8634936094284058,-0.2206653594970703,0.0
11.500,0.6951380968093872,0.5868737697601318,0.9909648299217224,0.0014368998818099499,0.0,0.9855372309684753,-1.4722247123718262,-1.8525917530059814,-0.21637457609176636,0.0
11.600,0.783239503701528,0.6324554284413656,0.9268214801947275,0.025731137876088418,0.0,0.9707362850507101,-1.4320094386736553,-1.9071507056554158,-0.2195235639810562,0.0
11.700,0.8713409105936686,0.6780370871225992,0.8626781304677328,0.05002537587036689,0.0,0.9559353391329447,-1.3917941649754841,-1.9617096583048503,-0.22267255187034607,0.0
11.800,0.9594423174858093,0.723618745803833,0.7985347807407379,0.07431961386464536,0.0,0.9411343932151794,-1.3515788912773132,-2.0162686109542847,-0.22582153975963593,0.0
11.900,1.04754372437795,0.7692004044850667,0.7343914310137432,0.09861385185892382,0.0,0.9263334472974142,-1.3113636175791423,-2.0708275636037192,-0.22897052764892578,0.0
12.000,1.1356451312700908,0.8147820631663005,0.6702480812867482,0.12290808985320231,0.0,0.9115325013796488,-1.2711483438809712,-2.1253865162531533,-0.23211951553821564,0.0
12.100,1.2237465381622314,0.8603637218475342,0.6061047315597534,0.14720232784748077,0.0,0.8967315554618835,-1.2309330701828003,-2.179945468902588,-0.2352685034275055,0.0
12.200,1.2317167009626115,0.858382591179439,0.6125018681798663,0.1469255526150976,0.0,0.7968175368649619,-1.237570243222373,-2.095675357750484,-0.23030455623354232,0.0
12.300,1.2396868637629919,0.8564014605113438,0.6188990047999791,0.1466487773827144,0.0,0.6969035182680403,-1.2442074162619454,-2.01140524659838,-0.22534060903957912,0.0
12.400,1.247657026563372,0.8544203298432487,0.6252961414200919,0.14637200215033122,0.0,0.5969894996711187,-1.250844589301518,-1.927135135446276,-0.22037666184561594,0.0
12.500,1.255627189363752,0.8524391991751534,0.6316932780402047,0.14609522691794805,0.0,0.49707548107419697,-1.2574817623410905,-1.842865024294172,-0.21541271465165274,0.0
12.600,1.2635973521641322,0.8504580685070583,0.6380904146603176,0.14581845168556487,0.0,0.3971614624772753,-1.2641189353806632,-1.7585949131420682,-0.21044876745768956,0.0
12.700,1.2715675149645125,0.848476937838963,0.6444875512804303,0.14554167645318167,0.0,0.29724744388035373,-1.2707561084202357,-1.6743248019899641,-0.2054848202637264,0.0
12.800,1.2795376777648926,0.8464958071708679,0.6508846879005432,0.1452649012207985,0.0,0.197333425283432,-1.2773932814598083,-1.59005469083786,-0.20052087306976318,0.0
12.900,1.2875078405652727,0.8445146765027728,0.6572818245206561,0.14498812598841532,0.0,0.09741940668651039,-1.284030454499381,-1.505784579685756,-0.1955569258758,0.0
13.000,1.295478003365653,0.8425335458346775,0.6636789611407689,0.14471135075603211,0.0,-0.0024946119104113373,-1.2906676275389535,-1.421514468533652,-0.1905929786818368,0.0
13.100,1.303448166166033,0.8405524151665824,0.6700760977608817,0.14443457552364894,0.0,-0.10240863050733295,-1.2973048005785262,-1.3372443573815482,-0.18562903148787363,0.0
13.200,1.3114183289664132,0.8385712844984872,0.6764732343809945,0.14415780029126576,0.0,-0.20232264910425446,-1.3039419736180986,-1.2529742462294442,-0.18066508429391043,0.0
13.300,1.3193884917667933,0.836590153830392,0.6828703710011074,0.1438810250588826,0.0,-0.3022366677011761,-1.3105791466576713,-1.1687041350773404,-0.17570113709994725,0.0
13.400,1.3273586545671736,0.8346090231622968,0.6892675076212202,0.14360424982649939,0.0,-0.4021506862980979,-1.3172163196972437,-1.0844340239252364,-0.17073718990598408,0.0
13.500,1.3353288173675537,0.8326278924942017,0.695664644241333,0.1433274745941162,0.0,-0.5020647048950195,-1.3238534927368164,-1.0001639127731323,-0.16577324271202087,0.0
13.600,1.404157280921936,0.8616894483566284,0.6966418325901031,0.14161788672208786,0.0,-0.4311513900756836,-1.3086930513381958,-0.9781613945960999,-0.14756250381469727,0.0
13.700,1.4729857444763184,0.8907510042190552,0.6976190209388733,0.1399082988500595,0.0,-0.36023807525634766,-1.2935326099395752,-0.9561588764190674,-0.12935176491737366,0.0
13.800,1.4432789620600248,0.8828940140573602,0.7641304982335944,0.13683213724901802,0.0,-0.2643110187430131,-1.2687004428160817,-0.9750226359618338,-0.12762632809187235,0.0
13.900,1.4135721796437313,0.8750370238956652,0.8306419755283154,0.13375597564797653,0.0,-0.16838396222967852,-1.2438682756925885,-0.9938863955046001,-0.12590089126637108,0.0
14.000,1.383865397227438,0.8671800337339702,0.8971534528230366,0.13067981404693504,0.0,-0.07245690571634394,-1.219036108569095,-1.0127501550473665,-0.12417545444086979,0.0
14.100,1.3541586148111444,0.8593230435722753,0.9636649301177577,0.12760365244589353,0.0,0.023470150796990608,-1.1942039414456016,-1.0316139145901329,-0.12245001761536849,0.0
14.200,1.3244518323948509,0.8514660534105802,1.0301764074124788,0.12452749084485204,0.0,0.11939720731032522,-1.1693717743221081,-1.0504776741328992,-0.1207245807898672,0.0
14.300,1.2947450499785573,0.8436090632488853,1.0966878847072,0.12145132924381055,0.0,0.21532426382365977,-1.144539607198615,-1.0693414336756657,-0.11899914396436591,0.0
14.400,1.265038267562264,0.8357520730871904,1.163199362001921,0.11837516764276906,0.0,0.3112513203369943,-1.1197074400751215,-1.088205193218432,-0.11727370713886462,0.0
14.500,1.2353314851459705,0.8278950829254954,1.229710839296642,0.11529900604172758,0.0,0.40717837685032887,-1.094875272951628,-1.1070689527611983,-0.11554827031336333,0.0
14.600,1.205624702729677,0.8200380927638004,1.296222316591363,0.11222284444068607,0.0,0.5031054333636634,-1.0700431058281346,-1.1259327123039646,-0.11382283348786204,0.0
14.700,1.1759179203133834,0.8121811026021054,1.3627337938860844,0.10914668283964458,0.0,0.5990324898769981,-1.0452109387046413,-1.1447964718467312,-0.11209739666236074,0.0
14.800,1.1462111378970898,0.8043241124404104,1.4292452711808055,0.10607052123860308,0.0,0.6949595463903326,-1.0203787715811479,-1.1636602313894975,-0.11037195983685945,0.0
14.900,1.1165043554807963,0.7964671222787154,1.4957567484755265,0.1029943596375616,0.0,0.7908866029036672,-0.9955466044576544,-1.1825239909322638,-0.10864652301135816,0.0
15.000,1.086797573064503,0.7886101321170205,1.5622682257702476,0.0999181980365201,0.0,0.886813659417002,-0.9707144373341611,-1.20138775047503,-0.10692108618585687,0.0
15.100,1.0570907906482094,0.7807531419553255,1.6287797030649687,0.09684203643547862,0.0,0.9827407159303363,-0.9458822702106677,-1.2202515100177966,-0.10519564936035558,0.0
15.200,1.027384008231916,0.7728961517936305,1.69529118035969,0.09376587483443712,0.0,1.078667772443671,-0.9210501030871743,-1.239115269560563,-0.10347021253485428,0.0
15.300,0.9976772258156225,0.7650391616319355,1.7618026576544108,0.09068971323339563,0.0,1.1745948289570054,-0.8962179359636808,-1.2579790291033293,-0.101744775709353,0.0
15.400,0.9679704433993289,0.7571821714702405,1.828314134949132,0.08761355163235413,0.0,1.2705218854703402,-0.8713857688401875,-1.2768427886460958,-0.1000193388838517,0.0
15.500,0.9382636609830355,0.7493251813085455,1.8948256122438532,0.08453739003131264,0.0,1.3664489419836745,-0.8465536017166941,-1.295706548188862,-0.09829390205835041,0.0
15.600,0.9085568785667419,0.7414681911468506,1.9613370895385742,0.08146122843027115,0.0,1.4623759984970093,-0.8217214345932007,-1.3145703077316284,-0.09656846523284912,0.0
15.700,0.90972039103508,0.7714958488941193,1.994146704673767,0.0234502162784338,0.0,1.4165486693382263,-0.8598901033401489,-1.2379520535469055,-0.0816204622387886,0.0
15.800,0.910883903503418,0.8015235066413879,2.02695631980896,-0.03456079587340355,0.0,1.3707213401794434,-0.8980587720870972,-1.1613337993621826,-0.06667245924472809,0.0
15.900,1.0106034146414862,0.778742876317766,1.9566808806525335,-0.021102964878082275,0.0,1.3518503109614055,-0.8809108667903476,-1.1578225162294176,-0.060814809881978564,0.0
16.000,1.1103229257795546,0.755962245994144,1.8864054414961073,-0.007645133882761002,0.0,1.3329792817433674,-0.8637629614935981,-1.1543112330966525,-0.05495716051922904,0.0
16.100,1.2100424369176228,0.7331816156705221,1.816130002339681,0.005812697112560272,0.0,1.3141082525253296,-0.8466150561968485,-1.1507999499638875,-0.04909951115647952,0.0
16.200,1.3097619480556912,0.7104009853469001,1.7458545631832547,0.019270528107881546,0.0,1.2952372233072917,-0.829467150900099,-1.1472886668311224,-0.04324186179372999,0.0
16.300,1.4094814591937594,0.6876203550232781,1.6755791240268283,0.03272835910320282,0.0,1.2763661940892537,-0.8123192456033494,-1.1437773836983576,-0.037384212430980474,0.0
16.400,1.5092009703318277,0.6648397246996562,1.605303684870402,0.046186190098524094,0.0,1.2574951648712158,-0.7951713403066,-1.1402661005655925,-0.03152656306823095,0.0
16.500,1.608920481469896,0.6420590943760343,1.5350282457139757,0.05964402109384537,0.0,1.238624135653178,-0.7780234350098504,-1.1367548174328275,-0.025668913705481425,0.0
16.600,1.7086399926079645,0.6192784640524123,1.4647528065575495,0.07310185208916664,0.0,1.21975310643514,-0.7608755297131009,-1.1332435343000624,-0.0198112643427319,0.0
16.700,1.8083595037460327,0.5964978337287903,1.394477367401123,0.08655968308448792,0.0,1.200882077217102,-0.7437276244163513,-1.1297322511672974,-0.013953614979982376,0.0
16.800,1.8175782561302185,0.5878842175006866,1.402484878897667,0.07380862184800208,0.0,1.1015195101499557,-0.7165559232234955,-1.2058470696210861,-0.02481275098398328,0.0
16.900,1.8267970085144043,0.579270601272583,1.4104923903942108,0.06105756061151624,0.0,1.0021569430828094,-0.6893842220306396,-1.2819618880748749,-0.03567188698798418,0.0
17.000,1.83601576089859,0.5706569850444794,1.4184999018907547,0.0483064993750304,0.0,0.9027943760156631,-0.6622125208377838,-1.3580767065286636,-0.04653102299198508,0.0
17.100,1.8452345132827759,0.5620433688163757,1.4265074133872986,0.03555543813854456,0.0,0.8034318089485168,-0.635040819644928,-1.4341915249824524,-0.057390158995985985,0.0
17.200,1.8544532656669617,0.5534297525882721,1.4345149248838425,0.02280437690205872,0.0,0.7040692418813705,-0.6078691184520721,-1.5103063434362411,-0.06824929499998689,0.0
17.300,1.8636720180511475,0.5448161363601685,1.4425224363803864,0.010053315665572882,0.0,0.6047066748142242,-0.5806974172592163,-1.58642116189003,-0.07910843100398779,0.0
17.400,1.8728907704353333,0.5362025201320648,1.4505299478769302,-0.002697745570912957,0.0,0.5053441077470779,-0.5535257160663605,-1.6625359803438187,-0.08996756700798869,0.0
17.500,1.882109522819519,0.5275889039039612,1.4585374593734741,-0.015448806807398796,0.0,0.40598154067993164,-0.5263540148735046,-1.7386507987976074,-0.1008267030119896,0.0
17.600,1.888005256652832,0.5065011829137802,1.5256935954093933,-0.08168493863195181,0.0,0.3816525489091873,-0.46726250648498535,-1.7134147882461548,-0.09137103706598282,0.0
17.700,1.893900990486145,0.48541346192359924,1.5928497314453125,-0.14792107045650482,0.0,0.357323557138443,-0.40817099809646606,-1.6881787776947021,-0.08191537111997604,0.0
17.800,1.8793071849005563,0.5236900619098118,1.6123641899653844,-0.16703317420823233,0.0,0.4528770021029881,-0.41359688554491314,-1.6097878217697144,-0.052079428519521444,0.0
17.900,1.8647133793149675,0.5619666618960244,1.6318786484854562,-0.18614527795995983,0.0,0.5484304470675332,-0.41902277299336027,-1.5313968658447266,-0.022243485919066844,0.0
18.000,1.8501195737293787,0.600243261882237,1.651393107005528,-0.20525738171168736,0.0,0.6439838920320784,-0.42444866044180735,-1.4530059099197388,0.007592456681387763,0.0
18.100,1.8355257681437902,0.6385198618684496,1.6709075655255998,-0.22436948546341487,0.0,0.7395373369966234,-0.4298745478902544,-1.374614953994751,0.037428399281842356,0.0
18.200,1.8209319625582014,0.6767964618546622,1.6904220240456718,-0.2434815892151424,0.0,0.8350907819611686,-0.4353004353387015,-1.2962239980697632,0.06726434188229696,0.0
18.300,1.8063381569726127,0.7150730618408748,1.7099364825657435,-0.2625936929668699,0.0,0.9306442269257137,-0.4407263227871486,-1.2178330421447754,0.09710028448275157,0.0
18.400,1.791744351387024,0.7533496618270874,1.7294509410858154,-0.2817057967185974,0.0,1.0261976718902588,-0.4461522102355957,-1.1394420862197876,0.12693622708320618,0.0
18.500,1.8060918649037678,0.7209002375602722,1.6537991762161255,-0.22962554295857748,0.0,1.077297290166219,-0.5361770788828532,-1.1247609853744507,0.08051671056697766,0.0
18.600,1.820439378420512,0.688450813293457,1.5781474113464355,-0.17754528919855755,0.0,1.1283969084421794,-0.6262019475301106,-1.1100798845291138,0.03409719405074915,0.0
18.700,1.8347868919372559,0.6560013890266418,1.5024956464767456,-0.1254650354385376,0.0,1.1794965267181396,-0.7162268161773682,-1.0953987836837769,-0.012322322465479374,0.0
18.800,1.7797550360361736,0.7197964191436768,1.4684682687123616,-0.12919463217258453,0.0,1.2575226227442424,-0.748184859752655,-1.1365774869918823,-0.016185760498046875,0.0
18.900,1.724723180135091,0.7835914492607117,1.4344408909479778,-0.13292422890663147,0.0,1.335548718770345,-0.7801429033279419,-1.1777561902999878,-0.020049198530614376,0.0
19.000,1.6696913242340088,0.8473864793777466,1.4004135131835938,-0.1366538256406784,0.0,1.4135748147964478,-0.8121009469032288,-1.2189348936080933,-0.023912636563181877,0.0
19.100,1.6393251021703084,0.858075221379598,1.3324141105016072,-0.11809864391883215,0.0,1.428736964861552,-0.7956814368565878,-1.2920990784962971,-0.04468049481511116,0.0
19.200,1.6089588801066081,0.8687639633814493,1.2644147078196208,-0.09954346219698589,0.0,1.443899114926656,-0.7792619268099467,-1.3652632633845012,-0.06544835306704044,0.0
19.300,1.5785926580429077,0.8794527053833008,1.1964153051376343,-0.08098828047513962,0.0,1.4590612649917603,-0.7628424167633057,-1.438427448272705,-0.08621621131896973,0.0
19.400,1.4832900760366636,0.8597457373843473,1.2192691354190601,-0.08782639748909894,0.0,1.4227012045243208,-0.7799243856878841,-1.4775606183444752,-0.09426504285896525,0.0
19.500,1.3879874940304195,0.8400387693853939,1.2421229657004862,-0.09466451450305827,0.0,1.3863411440568811,-0.7970063546124626,-1.5166937884162455,-0.10231387439896078,0.0
19.600,1.2926849120241755,0.8203318013864405,1.264976795981912,-0.10150263151701759,0.0,1.3499810835894417,-0.8140883235370412,-1.5558269584880156,-0.11036270593895632,0.0
19.700,1.1973823300179314,0.800624833387487,1.2878306262633379,-0.10834074853097692,0.0,1.313621023122002,-0.8311702924616197,-1.5949601285597856,-0.11841153747895185,0.0
19.800,1.1020797480116873,0.7809178653885336,1.310684456544764,-0.11517886554493624,0.0,1.2772609626545626,-0.8482522613861981,-1.634093298631556,-0.1264603690189474,0.0
19.900,1.0067771660054432,0.7612108973895803,1.3335382868261898,-0.12201698255889556,0.0,1.2409009021871231,-0.8653342303107767,-1.673226468703326,-0.13450920055894292,0.0
20.000,0.911474583999199,0.7415039293906268,1.3563921171076156,-0.12885509957285488,0.0,1.2045408417196835,-0.8824161992353552,-1.7123596387750961,-0.14255803209893844,0.0
20.100,0.8161720019929549,0.7217969613916734,1.3792459473890417,-0.1356932165868142,0.0,1.168180781252244,-0.8994981681599337,-1.7514928088468664,-0.15060686363893397,0.0
20.200,0.7208694199867108,0.7020899933927199,1.4020997776704676,-0.14253133360077352,0.0,1.1318207207848043,-0.9165801370845121,-1.7906259789186365,-0.1586556951789295,0.0
20.300,0.6255668379804668,0.6823830253937665,1.4249536079518936,-0.14936945061473286,0.0,1.0954606603173649,-0.9336621060090906,-1.8297591489904068,-0.16670452671892505,0.0
20.400,0.5302642559742226,0.6626760573948131,1.4478074382333195,-0.1562075676286922,0.0,1.0591005998499252,-0.9507440749336692,-1.868892319062177,-0.17475335825892058,0.0
20.500,0.43496167396797847,0.6429690893958596,1.4706612685147453,-0.1630456846426515,0.0,1.0227405393824858,-0.9678260438582477,-1.908025489133947,-0.1828021897989161,0.0
20.600,0.3396590919617346,0.6232621213969063,1.4935150987961712,-0.16988380165661082,0.0,0.9863804789150463,-0.9849080127828261,-1.947158659205717,-0.19085102133891163,0.0
20.700,0.2443565099554903,0.6035551533979528,1.5163689290775972,-0.17672191867057013,0.0,0.9500204184476068,-1.0019899817074047,-1.9862918292774874,-0.19889985287890716,0.0
20.800,0.1490539279492462,0.5838481853989994,1.539222759359023,-0.18356003568452947,0.0,0.9136603579801672,-1.0190719506319832,-2.0254249993492577,-0.20694868441890268,0.0
20.900,0.05375134594300213,0.564141217400046,1.5620765896404492,-0.1903981526984888,0.0,0.8773002975127276,-1.0361539195565617,-2.0645581694210278,-0.2149975159588982,0.0
21.000,-0.04155123606324196,0.5444342494010925,1.584930419921875,-0.19723626971244812,0.0,0.8409402370452881,-1.0532358884811401,-2.103691339492798,-0.22304634749889374,0.0
21.100,-0.04175747372210026,0.5312397897243499,1.5859144568443297,-0.19456574320793152,0.0,0.7410674139857292,-1.086078441143036,-2.039376997947693,-0.21973848789930345,0.0
21.200,-0.04196371138095856,0.5180453300476074,1.5868984937667847,-0.19189521670341492,0.0,0.6411945909261704,-1.1189209938049316,-1.975062656402588,-0.21643062829971313,0.0
21.300,-0.042169949039816856,0.5048508703708648,1.5878825306892395,-0.18922469019889832,0.0,0.5413217678666116,-1.1517635464668274,-1.9107483148574829,-0.21312276870012284,0.0
21.400,-0.042376186698675156,0.4916564106941223,1.5888665676116944,-0.1865541636943817,0.0,0.4414489448070526,-1.184606099128723,-1.846433973312378,-0.20981490910053252,0.0
21.500,-0.042582424357533455,0.47846195101737976,1.5898506045341492,-0.1838836371898651,0.0,0.34157612174749374,-1.217448651790619,-1.782119631767273,-0.20650704950094223,0.0
21.600,-0.042788662016391754,0.4652674913406372,1.590834641456604,-0.1812131106853485,0.0,0.24170329868793494,-1.2502912044525147,-1.7178052902221679,-0.20319918990135194,0.0
21.700,-0.04299489967525005,0.4520730316638947,1.5918186783790589,-0.1785425841808319,0.0,0.14183047562837603,-1.2831337571144104,-1.653490948677063,-0.19989133030176162,0.0
21.800,-0.04320113733410835,0.4388785719871521,1.5928027153015136,-0.1758720576763153,0.0,0.041957652568817116,-1.3159763097763062,-1.589176607131958,-0.19658347070217133,0.0
21.900,-0.04340737499296665,0.42568411231040953,1.5937867522239686,-0.1732015311717987,0.0,-0.057915170490741796,-1.3488188624382018,-1.5248622655868531,-0.193275611102581,0.0
22.000,-0.04361361265182495,0.412489652633667,1.5947707891464233,-0.1705310046672821,0.0,-0.1577879935503006,-1.3816614151000977,-1.460547924041748,-0.18996775150299072,0.0
22.100,0.007056896503155052,0.42514151334762573,1.541924068560967,-0.1611352964089467,0.0,-0.0614591332582327,-1.3494973136828496,-1.5479148718026967,-0.18770783451887277,0.0
22.200,0.057727405658135056,0.4377933740615845,1.4890773479755108,-0.15173958815061128,0.0,0.0348697270338352,-1.3173332122656016,-1.6352818195636456,-0.1854479175347548,0.0
22.300,0.10839791481311506,0.4504452347755432,1.4362306273900545,-0.14234387989227587,0.0,0.13119858732590312,-1.2851691108483534,-1.7226487673245945,-0.1831880005506369,0.0
22.400,0.15906842396809506,0.46309709548950195,1.3833839068045983,-0.13294817163394046,0.0,0.227527447617971,-1.2530050094311054,-1.8100157150855432,-0.18092808356651893,0.0
22.500,0.20973893312307507,0.4757489562034607,1.330537186219142,-0.12355246337560508,0.0,0.3238563079100389,-1.2208409080138574,-1.8973826628464918,-0.17866816658240098,0.0
22.600,0.26040944227805507,0.48840081691741943,1.2776904656336858,-0.11415675511726966,0.0,0.42018516820210683,-1.1886768065966093,-1.9847496106074407,-0.17640824959828302,0.0
22.700,0.311079951433035,0.5010526776313782,1.2248437450482295,-0.10476104685893425,0.0,0.5165140284941746,-1.1565127051793611,-2.072116558368389,-0.1741483326141651,0.0
22.800,0.3617504605880151,0.5137045383453369,1.1719970244627733,-0.09536533860059884,0.0,0.6128428887862426,-1.124348603762113,-2.1594835061293383,-0.17188841563004714,0.0
22.900,0.412420969742995,0.5263563990592957,1.119150303877317,-0.08596963034226345,0.0,0.7091717490783104,-1.092184502344865,-2.246850453890287,-0.1696284986459292,0.0
23.000,0.4630914788979751,0.5390082597732544,1.0663035832918606,-0.07657392208392803,0.0,0.8055006093703784,-1.060020400927617,-2.3342174016512356,-0.16736858166181123,0.0
23.100,0.513761988052955,0.5516601204872131,1.0134568627064044,-0.06717821382559262,0.0,0.9018294696624463,-1.0278562995103688,-2.4215843494121847,-0.1651086646776933,0.0
23.200,0.5644324972079351,0.5643119812011719,0.9606101421209482,-0.05778250556725721,0.0,0.9981583299545143,-0.9956921980931208,-2.5089512971731334,-0.16284874769357535,0.0
23.300,0.615103006362915,0.5769638419151306,0.9077634215354919,-0.048386797308921814,0.0,1.094487190246582,-0.9635280966758728,-2.596318244934082,-0.1605888307094574,0.0
23.400,0.522394198924303,0.5564226545393467,0.9911235198378563,-0.059424564242362976,0.0,1.1006750464439392,-0.9545938223600388,-2.5962511003017426,-0.1585512887686491,0.0
23.500,0.42968539148569107,0.5358814671635628,1.0744836181402206,-0.07046233117580414,0.0,1.1068629026412964,-0.9456595480442047,-2.596183955669403,-0.1565137468278408,0.0
23.600,0.3369765840470791,0.5153402797877789,1.157843716442585,-0.0815000981092453,0.0,1.1130507588386536,-0.9367252737283707,-2.5961168110370636,-0.1544762048870325,0.0
23.700,0.2442677766084671,0.49479909241199493,1.2412038147449493,-0.09253786504268646,0.0,1.1192386150360107,-0.9277909994125366,-2.596049666404724,-0.1524386629462242,0.0
23.800,0.15155896916985512,0.474257905036211,1.3245639130473137,-0.10357563197612762,0.0,1.125426471233368,-0.9188567250967026,-2.5959825217723846,-0.15040112100541592,0.0
23.900,0.058850161731243134,0.4537167176604271,1.407924011349678,-0.11461339890956879,0.0,1.131614327430725,-0.9099224507808685,-2.595915377140045,-0.14836357906460762,0.0
24.000,-0.03385864570736885,0.4331755302846432,1.4912841096520424,-0.12565116584300995,0.0,1.1378021836280823,-0.9009881764650345,-2.5958482325077057,-0.14632603712379932,0.0
24.100,-0.12656745314598083,0.41263434290885925,1.5746442079544067,-0.1366889327764511,0.0,1.1439900398254395,-0.8920539021492004,-2.595781087875366,-0.14428849518299103,0.0
24.200,-0.0326356848080953,0.44815385341644287,1.5267712235450746,-0.12689900894959769,0.0,1.064067861934503,-0.9173384507497152,-2.517969353993734,-0.15160240332285563,0.0
24.300,0.06129608352979024,0.4836733639240265,1.4788982391357421,-0.11710908512274425,0.0,0.9841456840435664,-0.9426229993502299,-2.4401576201121014,-0.15891631146272023,0.0
24.400,0.1552278518676758,0.5191928744316101,1.43102525472641,-0.10731916129589081,0.0,0.9042235061526298,-0.9679075479507446,-2.362345886230469,-0.16623021960258483,0.0
24.500,0.24915962020556132,0.5547123849391937,1.3831522703170775,-0.09752923746903738,0.0,0.8243013282616933,-0.9931920965512594,-2.2845341523488365,-0.17354412774244943,0.0
24.600,0.34309138854344684,0.5902318954467773,1.3352792859077454,-0.08773931364218394,0.0,0.7443791503707569,-1.0184766451517742,-2.2067224184672036,-0.18085803588231403,0.0
24.700,0.4370231568813324,0.625751405954361,1.2874063014984132,-0.0779493898153305,0.0,0.6644569724798202,-1.0437611937522888,-2.128910684585571,-0.18817194402217866,0.0
24.800,0.5309549252192179,0.6612709164619446,1.2395333170890808,-0.06815946598847707,0.0,0.5845347945888837,-1.0690457423528035,-2.0510989507039388,-0.19548585216204326,0.0
24.900,0.6248866935571035,0.6967904269695282,1.1916603326797486,-0.05836954216162364,0.0,0.5046126166979472,-1.0943302909533184,-1.9732872168223063,-0.20279976030190786,0.0
25.000,0.718818461894989,0.7323099374771118,1.1437873482704162,-0.0485796183347702,0.0,0.42469043880701063,-1.119614839553833,-1.895475482940674,-0.21011366844177246,0.0
25.100,0.8127502302328745,0.7678294479846954,1.095914363861084,-0.03878969450791678,0.0,0.34476826091607415,-1.1448993881543477,-1.8176637490590415,-0.21742757658163706,0.0
25.200,0.9066819985707599,0.803348958492279,1.0480413794517518,-0.02899977068106334,0.0,0.2648460830251377,-1.1701839367548623,-1.739852015177409,-0.22474148472150168,0.0
25.300,1.0006137669086457,0.8388684689998627,1.0001683950424194,-0.0192098468542099,0.0,0.18492390513420098,-1.1954684853553772,-1.6620402812957762,-0.23205539286136628,0.0
25.400,1.0945455352465312,0.8743879795074463,0.9522954106330871,-0.009419923027356475,0.0,0.1050017272432644,-1.220753033955892,-1.5842285474141438,-0.23936930100123088,0.0
25.500,1.1884773035844167,0.9099074900150299,0.9044224262237549,0.00037000079949697784,0.0,0.025079549352327923,-1.2460375825564067,-1.5064168135325113,-0.24668320914109548,0.0
25.600,1.2824090719223022,0.9454270005226135,0.8565494418144226,0.010159924626350403,0.0,-0.05484262853860855,-1.2713221311569214,-1.428605079650879,-0.2539971172809601,0.0
25.700,1.301960177719593,0.9474573992192745,0.8821322582662106,0.0029578092508018017,0.0,0.04247144842520356,-1.2465617842972279,-1.4276174381375313,-0.24857623130083084,0.0
25.800,1.3215112835168839,0.9494877979159355,0.9077150747179985,-0.0042443061247467995,0.0,0.13978552538901567,-1.2218014374375343,-1.4266297966241837,-0.2431553453207016,0.0
25.900,1.3410623893141747,0.9515181966125965,0.9332978911697865,-0.0114464215002954,0.0,0.2370996023528278,-1.1970410905778408,-1.425642155110836,-0.23773445934057236,0.0
26.000,1.3606134951114655,0.9535485953092575,0.9588807076215744,-0.018648536875844002,0.0,0.3344136793166399,-1.1722807437181473,-1.4246545135974884,-0.23231357336044312,0.0
26.100,1.3801646009087563,0.9555789940059185,0.9844635240733624,-0.025850652251392603,0.0,0.431727756280452,-1.1475203968584538,-1.4236668720841408,-0.22689268738031387,0.0
26.200,1.399715706706047,0.9576093927025795,1.0100463405251503,-0.033052767626941204,0.0,0.5290418332442641,-1.1227600499987602,-1.4226792305707932,-0.22147180140018463,0.0
26.300,1.4192668125033379,0.9596397913992405,1.0356291569769382,-0.040254883002489805,0.0,0.6263559102080762,-1.0979997031390667,-1.4216915890574455,-0.2160509154200554,0.0
26.400,1.4388179183006287,0.9616701900959015,1.0612119734287262,-0.047456998378038406,0.0,0.7236699871718884,-1.0732393562793732,-1.420703947544098,-0.21063002943992615,0.0
26.500,1.4583690240979195,0.9637005887925625,1.0867947898805141,-0.05465911375358701,0.0,0.8209840641357005,-1.0484790094196796,-1.4197163060307503,-0.2052091434597969,0.0
26.600,1.4779201298952103,0.9657309874892235,1.112377606332302,-0.06186122912913561,0.0,0.9182981410995126,-1.0237186625599861,-1.4187286645174026,-0.19978825747966766,0.0
26.700,1.497471235692501,0.9677613861858845,1.13796042278409,-0.06906334450468421,0.0,1.0156122180633247,-0.9989583157002926,-1.417741023004055,-0.19436737149953842,0.0
26.800,1.5170223414897919,0.9697917848825455,1.163543239235878,-0.07626545988023281,0.0,1.1129262950271368,-0.9741979688405991,-1.4167533814907074,-0.18894648551940918,0.0
26.900,1.5365734472870827,0.9718221835792065,1.189126055687666,-0.08346757525578141,0.0,1.210240371990949,-0.9494376219809055,-1.4157657399773598,-0.18352559953927994,0.0
27.000,1.5561245530843735,0.9738525822758675,1.2147088721394539,-0.09066969063133001,0.0,1.307554448954761,-0.924677275121212,-1.4147780984640121,-0.1781047135591507,0.0
27.100,1.5756756588816643,0.9758829809725285,1.2402916885912418,-0.09787180600687861,0.0,1.4048685259185731,-0.8999169282615185,-1.4137904569506645,-0.17268382757902145,0.0
27.200,1.595226764678955,0.9779133796691895,1.2658745050430298,-0.10507392138242722,0.0,1.5021826028823853,-0.875156581401825,-1.412802815437317,-0.1672629415988922,0.0
27.300,1.6341842810312908,0.9196351567904154,1.33254341284434,-0.11983664333820343,0.0,1.4740131696065266,-0.8565264741579691,-1.3510143359502156,-0.13093912601470947,0.0
27.400,1.6731417973836262,0.8613569339116415,1.3992123206456502,-0.13459936529397964,0.0,1.4458437363306682,-0.8378963669141134,-1.2892258564631145,-0.09461531043052673,0.0
27.500,1.712099313735962,0.8030787110328674,1.4658812284469604,-0.14936208724975586,0.0,1.4176743030548096,-0.8192662596702576,-1.2274373769760132,-0.058291494846343994,0.0
27.600,1.7656534512837727,0.7255043387413025,1.4887868960698445,-0.1430343141158422,0.0,1.3363011280695598,-0.810962438583374,-1.19430677096049,-0.05654077480236689,0.0
27.700,1.8192075888315837,0.6479299664497375,1.5116925636927288,-0.1367065409819285,0.0,1.2549279530843098,-0.8026586174964905,-1.1611761649449666,-0.05479005475838979,0.0
27.800,1.8727617263793945,0.5703555941581726,1.5345982313156128,-0.13037876784801483,0.0,1.17355477809906,-0.7943547964096069,-1.1280455589294434,-0.05303933471441269,0.0
27.900,1.8799012452363968,0.5543854087591171,1.527144879102707,-0.10978537797927856,0.0,1.0749706737697124,-0.7588488534092903,-1.2016675919294357,-0.05902876332402229,0.0
28.000,1.887040764093399,0.5384152233600616,1.519691526889801,-0.0891919881105423,0.0,0.9763865694403648,-0.7233429104089737,-1.275289624929428,-0.0650181919336319,0.0
28.100,1.8941802829504013,0.5224450379610062,1.5122381746768951,-0.06859859824180603,0.0,0.8778024651110172,-0.6878369674086571,-1.3489116579294205,-0.0710076205432415,0.0
28.200,1.9013198018074036,0.5064748525619507,1.5047848224639893,-0.04800520837306976,0.0,0.7792183607816696,-0.6523310244083405,-1.4225336909294128,-0.0769970491528511,0.0
28.300,1.9084593206644058,0.4905046671628952,1.4973314702510834,-0.027411818504333496,0.0,0.680634256452322,-0.6168250814080238,-1.4961557239294052,-0.08298647776246071,0.0
28.400,1.915598839521408,0.4745344817638397,1.4898781180381775,-0.006818428635597229,0.0,0.5820501521229744,-0.5813191384077072,-1.5697777569293976,-0.08897590637207031,0.0
28.500,1.9227383583784103,0.45856429636478424,1.4824247658252716,0.013774961233139038,0.0,0.4834660477936268,-0.5458131954073906,-1.64339978992939,-0.09496533498167992,0.0
28.600,1.9298778772354126,0.44259411096572876,1.4749714136123657,0.034368351101875305,0.0,0.3848819434642792,-0.510307252407074,-1.7170218229293823,-0.10095476359128952,0.0
28.700,1.9464215636253357,0.40838752686977386,1.4978788495063782,0.04224591702222824,0.0,0.3829062879085541,-0.45266595482826233,-1.7008710503578186,-0.0830312930047512,0.0
28.800,1.9629652500152588,0.37418094277381897,1.5207862854003906,0.05012348294258118,0.0,0.380930632352829,-0.3950246572494507,-1.6847202777862549,-0.06510782241821289,0.0
28.900,1.9433144330978394,0.3914952278137207,1.5437999963760376,-0.019322745501995087,0.0,0.46504727005958557,-0.3564181327819824,-1.6539726257324219,0.0018903695745393634,0.0
29.000,1.9001442790031433,0.4298216998577118,1.6167991757392883,-0.11057040467858315,0.0,0.4882666617631912,-0.3673087805509567,-1.6570967435836792,0.012077122402843088,0.0
29.100,1.8569741249084473,0.4681481719017029,1.689798355102539,-0.2018180638551712,0.0,0.5114860534667969,-0.37819942831993103,-1.6602208614349365,0.022263875231146812,0.0
29.200,1.8752835194269817,0.46295151114463806,1.6136521498362224,-0.12221138427654903,0.0,0.4499935507774353,-0.39074280858039856,-1.6600925127665203,-0.026009511202573776,0.0
29.300,1.8935929139455159,0.45775485038757324,1.5375059445699055,-0.04260470469792685,0.0,0.38850104808807373,-0.4032861888408661,-1.6599641640981038,-0.07428289763629436,0.0
29.400,1.9119023084640503,0.4525581896305084,1.4613597393035889,0.03700197488069534,0.0,0.32700854539871216,-0.4158295691013336,-1.6598358154296875,-0.12255628407001495,0.0
29.500,1.900839626789093,0.4754929952323437,1.46537546813488,0.011618702672421932,0.0,0.40764907002449036,-0.45316870883107185,-1.5625453889369965,-0.112244154792279,0.0
29.600,1.8897769451141357,0.4984278008341789,1.4693911969661713,-0.013764569535851479,0.0,0.48828959465026855,-0.4905078485608101,-1.4652549624443054,-0.10193202551454306,0.0
29.700,1.8787142634391785,0.5213626064360142,1.4734069257974625,-0.03914784174412489,0.0,0.5689301192760468,-0.5278469882905483,-1.3679645359516144,-0.09161989623680711,0.0
29.800,1.8676515817642212,0.5442974120378494,1.4774226546287537,-0.0645311139523983,0.0,0.649570643901825,-0.5651861280202866,-1.2706741094589233,-0.08130776695907116,0.0
29.900,1.856588900089264,0.5672322176396847,1.4814383834600449,-0.08991438616067171,0.0,0.7302111685276031,-0.6025252677500248,-1.1733836829662323,-0.07099563768133521,0.0
30.000,1.8455262184143066,0.5901670232415199,1.485454112291336,-0.11529765836894512,0.0,0.8108516931533813,-0.639864407479763,-1.0760932564735413,-0.06068350840359926,0.0
30.100,1.8344635367393494,0.6131018288433552,1.4894698411226273,-0.14068093057721853,0.0,0.8914922177791595,-0.6772035472095013,-0.9788028299808502,-0.050371379125863314,0.0
30.200,1.823400855064392,0.6360366344451904,1.4934855699539185,-0.16606420278549194,0.0,0.9721327424049377,-0.7145426869392395,-0.8815124034881592,-0.040059249848127365,0.0
30.300,1.7733120520909627,0.724074145158132,1.4643536408742268,-0.16365264852841696,0.0,0.9547327955563863,-0.735556979974111,-0.8740039865175883,-0.0369944137831529,0.0
30.400,1.7232232491175334,0.8121116558710734,1.4352217117945354,-0.16124109427134195,0.0,0.9373328487078348,-0.7565712730089823,-0.8664955695470175,-0.03392957771817843,0.0
30.500,1.673134446144104,0.9001491665840149,1.4060897827148438,-0.15882954001426697,0.0,0.9199329018592834,-0.7775855660438538,-0.8589871525764465,-0.030864741653203964,0.0
30.600,1.576310727854862,0.8982573817758,1.4127101196962244,-0.1692043437677271,0.0,0.8516501863213146,-0.7582400598946739,-0.8926849575603709,-0.03695925894905539,0.0
30.700,1.4794870095656198,0.896365596967585,1.419330456677605,-0.17957914752118728,0.0,0.7833674707833458,-0.7388945537454942,-0.9263827625442954,-0.04305377624490682,0.0
30.800,1.3826632912763777,0.8944738121593699,1.425950793658986,-0.18995395127464743,0.0,0.715084755245377,-0.7195490475963143,-0.9600805675282198,-0.049148293540758246,0.0
30.900,1.2858395729871357,0.892582027351155,1.4325711306403666,-0.2003287550281076,0.0,0.6468020397074082,-0.7002035414471346,-0.9937783725121442,-0.055242810836609674,0.0
31.000,1.1890158546978937,0.89069024254294,1.4391914676217472,-0.21070355878156774,0.0,0.5785193241694394,-0.6808580352979547,-1.0274761774960686,-0.0613373281324611,0.0
31.100,1.0921921364086515,0.8887984577347251,1.4458118046031279,-0.22107836253502788,0.0,0.5102366086314706,-0.661512529148775,-1.061173982479993,-0.06743184542831253,0.0
31.200,0.9953684181194096,0.88690667292651,1.4524321415845085,-0.23145316628848805,0.0,0.44195389309350186,-0.6421670229995952,-1.0948717874639176,-0.07352636272416395,0.0
31.300,0.8985446998301675,0.8850148881182951,1.4590524785658892,-0.24182797004194823,0.0,0.37367117755553303,-0.6228215168504154,-1.1285695924478418,-0.07962088002001538,0.0
31.400,0.8017209815409253,0.8831231033100801,1.46567281554727,-0.25220277379540834,0.0,0.3053884620175642,-0.6034760107012356,-1.1622673974317663,-0.0857153973158668,0.0
31.500,0.7048972632516832,0.8812313185018652,1.4722931525286507,-0.2625775775488685,0.0,0.23710574647959537,-0.5841305045520558,-1.1959652024156906,-0.09180991461171824,0.0
31.600,0.6080735449624413,0.8793395336936501,1.4789134895100313,-0.2729523813023287,0.0,0.16882303094162654,-0.564784998402876,-1.229663007399615,-0.09790443190756966,0.0
31.700,0.5112498266731991,0.8774477488854352,1.485533826491412,-0.2833271850557888,0.0,0.10054031540365771,-0.5454394922536963,-1.2633608123835396,-0.10399894920342109,0.0
31.800,0.4144261083839571,0.8755559640772203,1.4921541634727926,-0.29370198880924897,0.0,0.0322575998656891,-0.5260939861045164,-1.2970586173674639,-0.11009346649927251,0.0
31.900,0.31760239009471514,0.8736641792690053,1.4987745004541733,-0.30407679256270914,0.0,-0.03602511567227973,-0.5067484799553366,-1.3307564223513884,-0.11618798379512393,0.0
32.000,0.22077867180547295,0.8717723944607902,1.5053948374355541,-0.31445159631616926,0.0,-0.10430783121024856,-0.4874029738061568,-1.3644542273353126,-0.12228250109097537,0.0
32.100,0.12395495351623098,0.8698806096525753,1.5120151744169348,-0.3248264000696295,0.0,-0.1725905467482174,-0.46805746765697703,-1.3981520323192371,-0.1283770183868268,0.0
32.200,0.027131235226988792,0.8679888248443604,1.5186355113983154,-0.3352012038230896,0.0,-0.24087326228618622,-0.44871196150779724,-1.4318498373031616,-0.13447153568267822,0.0
32.300,-0.022419638372957712,0.8595151007175446,1.4374355792999267,-0.28077891618013384,0.0,-0.14944392293691633,-0.510596153140068,-1.341848236322403,-0.12178598307073116,0.0
32.400,-0.07197051197290422,0.8510413765907288,1.356235647201538,-0.22635662853717803,0.0,-0.05801458358764647,-0.5724803447723389,-1.2518466353416442,-0.1091004304587841,0.0
32.500,-0.1215213855728507,0.842567652463913,1.2750357151031495,-0.17193434089422227,0.0,0.033414755761623394,-0.6343645364046097,-1.1618450343608857,-0.09641487784683705,0.0
32.600,-0.17107225917279723,0.8340939283370972,1.1938357830047608,-0.11751205325126646,0.0,0.12484409511089328,-0.6962487280368805,-1.071843433380127,-0.08372932523488999,0.0
32.700,-0.2206231327727437,0.8256202042102814,1.112635850906372,-0.0630897656083107,0.0,0.21627343446016312,-0.7581329196691513,-0.9818418323993683,-0.07104377262294292,0.0
32.800,-0.2701740063726902,0.8171464800834656,1.0314359188079834,-0.008667477965354942,0.0,0.307702773809433,-0.8200171113014221,-0.8918402314186097,-0.05835822001099587,0.0
32.900,-0.31972487997263666,0.8086727559566498,0.9502359867095947,0.045754809677600816,0.0,0.3991321131587028,-0.8819013029336928,-0.801838630437851,-0.04567266739904881,0.0
33.000,-0.36927575357258324,0.800199031829834,0.869036054611206,0.10017709732055669,0.0,0.4905614525079728,-0.9437854945659638,-0.7118370294570923,-0.03298711478710174,0.0
33.100,-0.4188266271725297,0.7917253077030182,0.7878361225128173,0.15459938496351244,0.0,0.5819907918572426,-1.0056696861982346,-0.6218354284763336,-0.020301562175154678,0.0
33.200,-0.4683775007724762,0.7832515835762024,0.7066361904144287,0.2090216726064682,0.0,0.6734201312065125,-1.0675538778305054,-0.531833827495575,-0.007616009563207626,0.0
33.300,-0.526687944928805,0.7635002533594767,0.6696385244528452,0.29979703575372696,0.0,0.5745724799732367,-1.0675567587216694,-0.4718499307831128,0.00958268903195858,0.0
33.400,-0.5849983890851339,0.7437489231427511,0.6326408584912618,0.3905723989009857,0.0,0.475724828739961,-1.0675596396128337,-0.41186603407065075,0.026781387627124786,0.0
33.500,-0.6433088332414627,0.7239975929260254,0.5956431925296783,0.4813477620482445,0.0,0.37687717750668526,-1.0675625205039978,-0.35188213735818863,0.04398008622229099,0.0
33.600,-0.7016192773977915,0.7042462627092997,0.558645526568095,0.5721231251955032,0.0,0.27802952627340954,-1.0675654013951619,-0.29189824064572656,0.0611787848174572,0.0
33.700,-0.7599297215541204,0.6844949324925741,0.5216478606065114,0.662898488342762,0.0,0.17918187504013378,-1.0675682822863262,-0.23191434393326438,0.0783774834126234,0.0
33.800,-0.8182401657104492,0.6647436022758484,0.484650194644928,0.7536738514900208,0.0,0.08033422380685806,-1.0675711631774902,-0.1719304472208023,0.09557618200778961,0.0
33.900,-0.8031745751698812,0.5979556143283844,0.46359919508298236,0.6791847546895345,0.0,-0.015160878499348954,-1.029445966084798,-0.11808861636867127,0.10572574536005656,0.0
34.000,-0.7881089846293131,0.5311676263809204,0.4425481955210368,0.6046956578890483,0.0,-0.11065598080555597,-0.9913207689921061,-0.06424678551654021,0.1158753087123235,0.0
34.100,-0.7730433940887451,0.4643796384334564,0.4214971959590912,0.530206561088562,0.0,-0.206151083111763,-0.9531955718994141,-0.01040495466440916,0.12602487206459045,0.0
34.200,-0.7628146559000015,0.45340292900800705,0.3817025423049927,0.4951995462179184,0.0,-0.3027881346642971,-0.9079006761312485,0.039207391208037734,0.19848953932523727,0.0
34.300,-0.7525859177112579,0.4424262195825577,0.34190788865089417,0.4601925313472748,0.0,-0.3994251862168312,-0.8626057803630829,0.08881973708048463,0.2709542065858841,0.0
34.400,-0.7423571795225143,0.4314495101571083,0.30211323499679565,0.42518551647663116,0.0,-0.4960622377693653,-0.8173108845949173,0.13843208295293152,0.3434188738465309,0.0
34.500,-0.7321284413337708,0.42047280073165894,0.26231858134269714,0.39017850160598755,0.0,-0.5926992893218994,-0.7720159888267517,0.18804442882537842,0.41588354110717773,0.0
34.600,-0.7635670304298401,0.3933204114437103,0.24488210678100586,0.40246590971946716,0.0,-0.6696284214655558,-0.7324505647023519,0.2111783822377523,0.47570786873499554,0.0
34.700,-0.7950056195259094,0.3661680221557617,0.22744563221931458,0.4147533178329468,0.0,-0.7465575536092122,-0.692885140577952,0.23431233565012613,0.5355321963628134,0.0
34.800,-0.8264442086219788,0.3390156328678131,0.2100091576576233,0.4270407259464264,0.0,-0.8234866857528687,-0.6533197164535522,0.2574462890625,0.5953565239906311,0.0
34.900,-0.8330169359842936,0.3573514382044474,0.1151585578918457,0.42247788111368817,0.0,-0.889028255144755,-0.6775615056355794,0.2882835268974304,0.5719392647345861,0.0
35.000,-0.8395896633466085,0.37568724354108174,0.020307958126068115,0.4179150362809499,0.0,-0.9545698245366414,-0.7018032948176066,0.31912076473236084,0.548522005478541,0.0
35.100,-0.8461623907089233,0.39402304887771605,-0.07454264163970947,0.41335219144821167,0.0,-1.0201113939285278,-0.7260450839996337,0.34995800256729126,0.525104746222496,0.0
35.200,-0.8527351180712383,0.41235885421435037,-0.16939324140548706,0.40878934661547345,0.0,-1.0856529633204142,-0.750286873181661,0.3807952404022217,0.501687486966451,0.0
35.300,-0.8593078454335531,0.4306946595509847,-0.26424384117126465,0.40422650178273517,0.0,-1.1511945327123005,-0.7745286623636881,0.4116324782371521,0.478270227710406,0.0
35.400,-0.8658805727958679,0.449030464887619,-0.35909444093704224,0.39966365694999695,0.0,-1.216736102104187,-0.7987704515457154,0.4424697160720825,0.45485296845436096,0.0
35.500,-0.8724533001581828,0.46736627022425337,-0.4539450407028198,0.3951008121172587,0.0,-1.2822776714960735,-0.8230122407277425,0.47330695390701294,0.431435709198316,0.0
35.600,-0.8790260275204976,0.4857020755608876,-0.5487956404685974,0.39053796728452045,0.0,-1.3478192408879597,-0.8472540299097697,0.5041441917419434,0.4080184499422709,0.0
35.700,-0.8855987548828125,0.504037880897522,-0.643646240234375,0.3859751224517822,0.0,-1.4133608102798463,-0.8714958190917969,0.5349814295768738,0.3846011906862259,0.0
35.800,-0.8921714822451273,0.5223736862341563,-0.7384968400001526,0.381412277619044,0.0,-1.4789023796717324,-0.895737608273824,0.5658186674118042,0.3611839314301809,0.0
35.900,-0.8987442096074422,0.5407094915707906,-0.8333474397659302,0.3768494327863057,0.0,-1.544443949063619,-0.9199793974558512,0.5966559052467346,0.33776667217413586,0.0
36.000,-0.9053169369697571,0.5590452969074249,-0.9281980395317078,0.3722865879535675,0.0,-1.6099855184555054,-0.9442211866378785,0.627493143081665,0.3143494129180908,0.0
36.100,-0.911889664332072,0.5773811022440593,-1.0230486392974854,0.3677237431208293,0.0,-1.6755270878473918,-0.9684629758199056,0.6583303809165955,0.2909321536620458,0.0
36.200,-0.9184623916943868,0.5957169075806936,-1.117899239063263,0.363160898288091,0.0,-1.7410686572392782,-0.9927047650019327,0.6891676187515259,0.2675148944060008,0.0
36.300,-0.9250351190567017,0.6140527129173279,-1.2127498388290405,0.3585980534553528,0.0,-1.8066102266311646,-1.01694655418396,0.7200048565864563,0.24409763514995575,0.0
36.400,-0.9174285531044006,0.635676920413971,-1.2177160382270813,0.3102407902479172,0.0,-1.8196038603782654,-0.9751421809196472,0.7593818306922913,0.33507340401411057,0.0
36.500,-0.9098219871520996,0.657301127910614,-1.222682237625122,0.26188352704048157,0.0,-1.8325974941253662,-0.9333378076553345,0.7987588047981262,0.4260491728782654,0.0
36.600,-0.9199053049087524,0.6517149806022644,-1.217726707458496,0.27793970704078674,0.0,-1.8154283165931702,-0.9661369919776917,0.7706231474876404,0.3578002452850342,0.0
36.700,-0.9299886226654053,0.6461288332939148,-1.2127711772918701,0.2939958870410919,0.0,-1.7982591390609741,-0.9989361763000488,0.7424874901771545,0.289551317691803,0.0
36.800,-0.9486767768859863,0.6057740211486816,-1.2003773212432862,0.39316539764404296,0.0,-1.804859471321106,-0.9871131658554078,0.7537936568260193,0.31692203879356384,0.0
36.900,-0.9673649311065674,0.5654192090034484,-1.187983465194702,0.492334908246994,0.0,-1.8114598035812377,-0.9752901554107666,0.765099823474884,0.3442927598953247,0.0
37.000,-0.9860530853271484,0.5250643968582154,-1.1755896091461182,0.591504418849945,0.0,-1.8180601358413697,-0.9634671449661255,0.7764059901237488,0.37166348099708557,0.0
37.100,-1.0047412395477295,0.4847095847129822,-1.163195753097534,0.6906739294528961,0.0,-1.8246604681015015,-0.9516441345214843,0.7877121567726135,0.39903420209884644,0.0
37.200,-1.0234293937683105,0.444354772567749,-1.1508018970489502,0.7898434400558472,0.0,-1.8312608003616333,-0.9398211240768433,0.7990183234214783,0.4264049232006073,0.0
37.300,-0.9815162916978201,0.4369158248106639,-1.0646449625492096,0.7355872790018717,0.0,-1.8262868324915569,-0.9424825608730316,0.7970992724100748,0.41835634410381317,0.0
37.400,-0.9396031896273295,0.4294768770535787,-0.978488028049469,0.6813311179478964,0.0,-1.8213128646214802,-0.94514399766922,0.7951802213986715,0.41030776500701904,0.0
37.500,-0.897690087556839,0.42203792929649353,-0.8923310935497284,0.6270749568939209,0.0,-1.8163388967514038,-0.9478054344654083,0.7932611703872681,0.4022591859102249,0.0
37.600,-0.8557769854863485,0.4145989815394084,-0.8061741590499878,0.5728187958399455,0.0,-1.8113649288813274,-0.9504668712615967,0.7913421193758646,0.3942106068134308,0.0
37.700,-0.8138638834158579,0.4071600337823232,-0.7200172245502472,0.51856263478597,0.0,-1.8063909610112507,-0.953128308057785,0.7894230683644613,0.38616202771663666,0.0
37.800,-0.7719507813453674,0.39972108602523804,-0.6338602900505066,0.46430647373199463,0.0,-1.8014169931411743,-0.9557897448539734,0.7875040173530579,0.37811344861984253,0.0
37.900,-0.7967070043087006,0.4544601837793986,-0.7304348448912302,0.41514605035384494,0.0,-1.809181531270345,-0.9423063596089681,0.7989749014377594,0.41232813398043316,0.0
38.000,-0.8214632272720337,0.5091992815335592,-0.8270093997319539,0.3659856269756953,0.0,-1.8169460693995159,-0.9288229743639628,0.8104457855224609,0.44654281934102374,0.0
38.100,-0.8462194502353668,0.5639383792877197,-0.9235839545726776,0.3168252035975456,0.0,-1.8247106075286865,-0.9153395891189575,0.8219166696071625,0.4807575047016144,0.0
38.200,-0.8709756731987,0.6186774770418803,-1.0201585094134011,0.267664780219396,0.0,-1.8324751456578572,-0.9018562038739523,0.833387553691864,0.514972190062205,0.0
38.300,-0.8957318961620331,0.6734165747960409,-1.116733064254125,0.21850435684124628,0.0,-1.840239683787028,-0.8883728186289469,0.8448584377765656,0.5491868754227957,0.0
38.400,-0.9204881191253662,0.7281556725502014,-1.2133076190948486,0.16934393346309662,0.0,-1.8480042219161987,-0.8748894333839417,0.8563293218612671,0.5834015607833862,0.0
38.500,-0.8917994328907558,0.6958111524581909,-1.1266028795923506,0.1931317150592804,0.0,-1.8530356884002686,-0.8692992755344936,0.8647325124059405,0.6149427805628095,0.0
38.600,-0.8631107466561454,0.6634666323661804,-1.0398981400898526,0.21691949665546417,0.0,-1.8580671548843384,-0.8637091176850455,0.8731357029506138,0.6464840003422329,0.0
38.700,-0.834422060421535,0.6311221122741699,-0.9531934005873544,0.24070727825164795,0.0,-1.8630986213684082,-0.8581189598355975,0.8815388934952872,0.6780252201216561,0.0
38.800,-0.8057333741869246,0.5987775921821594,-0.8664886610848563,0.2644950598478317,0.0,-1.868130087852478,-0.8525288019861493,0.8899420840399606,0.7095664399010795,0.0
38.900,-0.7770446879523141,0.5664330720901489,-0.7797839215823582,0.2882828414440155,0.0,-1.8731615543365479,-0.8469386441367013,0.898345274584634,0.7411076596805027,0.0
39.000,-0.7483560017177037,0.5340885519981384,-0.6930791820798602,0.3120706230401993,0.0,-1.8781930208206177,-0.8413484862872532,0.9067484651293073,0.772648879459926,0.0
39.100,-0.7196673154830933,0.5017440319061279,-0.6063744425773621,0.33585840463638306,0.0,-1.8832244873046875,-0.8357583284378052,0.9151516556739807,0.8041900992393494,0.0
39.200,-0.727397233247757,0.5321521610021591,-0.6430927664041519,0.3791310638189316,0.0,-1.830380807320277,-0.855648914972941,0.8194312080740929,0.7418707224229971,0.0
39.300,-0.7351271510124207,0.5625602900981903,-0.6798110902309418,0.4224037230014801,0.0,-1.7775371273358662,-0.875539501508077,0.723710760474205,0.679551345606645,0.0
39.400,-0.7428570687770844,0.5929684191942215,-0.7165294140577316,0.4656763821840286,0.0,-1.7246934473514557,-0.8954300880432129,0.6279903128743172,0.6172319687902927,0.0
39.500,-0.750586986541748,0.6233765482902527,-0.7532477378845215,0.5089490413665771,0.0,-1.6718497673670452,-0.9153206745783488,0.5322698652744293,0.5549125919739406,0.0
39.600,-0.7583169043064117,0.6537846773862839,-0.7899660617113113,0.5522217005491257,0.0,-1.6190060873826344,-0.9352112611134847,0.4365494176745415,0.4925932151575883,0.0
39.700,-0.7660468220710754,0.6841928064823151,-0.8266843855381012,0.5954943597316742,0.0,-1.5661624073982239,-0.9551018476486206,0.3408289700746536,0.4302738383412361,0.0
39.800,-0.7737767398357391,0.7146009355783463,-0.863402709364891,0.6387670189142227,0.0,-1.5133187274138131,-0.9749924341837566,0.24510852247476578,0.36795446152488387,0.0
39.900,-0.7815066576004028,0.7450090646743774,-0.9001210331916809,0.6820396780967712,0.0,-1.4604750474294028,-0.9948830207188923,0.14938807487487793,0.30563508470853173,0.0
40.000,-0.7892365753650665,0.7754171937704086,-0.9368393570184708,0.7253123372793198,0.0,-1.407631367444992,-1.0147736072540283,0.05366762727499008,0.2433157078921795,0.0
40.100,-0.7969664931297302,0.8058253228664398,-0.9735576808452606,0.7685849964618683,0.0,-1.3547876874605813,-1.0346641937891643,-0.042052820324897766,0.18099633107582724,0.0
40.200,-0.8046964108943939,0.836233451962471,-1.0102760046720505,0.8118576556444168,0.0,-1.301944007476171,-1.0545547803243,-0.13777326792478561,0.11867695425947511,0.0
40.300,-0.8124263286590576,0.8666415810585022,-1.0469943284988403,0.8551303148269653,0.0,-1.2491003274917603,-1.074445366859436,-0.23349371552467346,0.056357577443122864,0.0
40.400,-0.7881020605564117,0.8849164247512817,-1.0295201539993286,0.8966496586799622,0.0,-1.2087316513061523,-1.121836006641388,-0.1732407957315445,0.1337163895368576,0.0
40.500,-0.7637777924537659,0.9031912684440613,-1.012045979499817,0.938169002532959,0.0,-1.1683629751205444,-1.1692266464233398,-0.11298787593841553,0.21107520163059235,0.0
40.600,-0.776203087397984,0.8838968532426017,-1.0082308224269323,0.9886970349720546,0.0,-1.0954559530530656,-1.1928452253341675,-0.2006402952330453,0.16806800557034357,0.0
40.700,-0.7886283823422023,0.864602438041142,-1.0044156653540475,1.0392250674111503,0.0,-1.022548930985587,-1.2164638042449951,-0.2882927145276751,0.1250608095100948,0.0
40.800,-0.8010536772864205,0.8453080228396824,-1.0006005082811629,1.0897530998502458,0.0,-0.9496419089181083,-1.2400823831558228,-0.3759451338223048,0.08205361344984599,0.0
40.900,-0.8134789722306388,0.8260136076382228,-0.9967853512082782,1.1402811322893416,0.0,-0.8767348868506295,-1.2637009620666504,-0.4635975531169346,0.039046417389597216,0.0
41.000,-0.825904267174857,0.8067191924367632,-0.9929701941353934,1.1908091647284371,0.0,-0.8038278647831508,-1.287319540977478,-0.5512499724115645,-0.003960778670651588,0.0
41.100,-0.8383295621190752,0.7874247772353036,-0.9891550370625087,1.2413371971675327,0.0,-0.7309208427156721,-1.3109381198883057,-0.6389023917061941,-0.046967974730900364,0.0
41.200,-0.8507548570632935,0.768130362033844,-0.985339879989624,1.2918652296066284,0.0,-0.6580138206481934,-1.3345566987991333,-0.726554811000824,-0.08997517079114914,0.0
41.300,-0.8068442089217049,0.8209554297583443,-0.9892182690756661,1.2007215193339758,0.0,-0.6572001831872123,-1.3341024092265539,-0.7086597255298069,-0.07750164311645287,0.0
41.400,-0.7629335607801165,0.8737804974828447,-0.9930966581617083,1.1095778090613229,0.0,-0.6563865457262311,-1.3336481196539742,-0.6907646400587899,-0.06502811544175659,0.0
41.500,-0.719022912638528,0.9266055652073452,-0.9969750472477504,1.0184340987886702,0.0,-0.65557290826525,-1.3331938300813948,-0.6728695545877729,-0.05255458776706032,0.0
41.600,-0.6751122644969395,0.9794306329318455,-1.0008534363337926,0.9272903885160174,0.0,-0.654759270804269,-1.3327395405088152,-0.6549744691167559,-0.04008106009236404,0.0
41.700,-0.6312016163553511,1.032255700656346,-1.0047318254198347,0.8361466782433646,0.0,-0.6539456333432879,-1.3322852509362357,-0.6370793836457389,-0.027607532417667766,0.0
41.800,-0.5872909682137626,1.0850807683808463,-1.0086102145058768,0.7450029679707119,0.0,-0.6531319958823067,-1.331830961363656,-0.6191842981747219,-0.015134004742971496,0.0
41.900,-0.5433803200721741,1.1379058361053467,-1.012488603591919,0.6538592576980591,0.0,-0.6523183584213257,-1.3313766717910767,-0.6012892127037048,-0.0026604770682752132,0.0
42.000,-0.5799276009202003,1.0918019190430641,-1.0068849995732307,0.7414768636226654,0.0,-0.6797296106815338,-1.3271791487932205,-0.559857252985239,0.026003498292993754,0.0
42.100,-0.6164748817682266,1.0456980019807816,-1.0012813955545425,0.8290944695472717,0.0,-0.7071408629417419,-1.3229816257953644,-0.5184252932667732,0.05466747365426272,0.0
42.200,-0.6530221626162529,0.999594084918499,-0.9956777915358543,0.916712075471878,0.0,-0.7345521152019501,-1.3187841027975082,-0.4769933335483074,0.08333144901553169,0.0
42.300,-0.6895694434642792,0.9534901678562164,-0.9900741875171661,1.0043296813964844,0.0,-0.7619633674621582,-1.314586579799652,-0.4355613738298416,0.11199542437680066,0.0
42.400,-0.7261167243123055,0.9073862507939339,-0.9844705834984779,1.0919472873210907,0.0,-0.7893746197223663,-1.310389056801796,-0.3941294141113758,0.14065939973806962,0.0
42.500,-0.7626640051603317,0.8612823337316513,-0.9788669794797897,1.179564893245697,0.0,-0.8167858719825745,-1.3061915338039398,-0.35269745439291,0.1693233750993386,0.0
42.600,-0.799211286008358,0.8151784166693687,-0.9732633754611015,1.2671824991703033,0.0,-0.8441971242427826,-1.3019940108060837,-0.3112654946744442,0.19798735046060756,0.0
42.700,-0.8357585668563843,0.7690744996070862,-0.9676597714424133,1.3548001050949097,0.0,-0.8716083765029907,-1.2977964878082275,-0.2698335349559784,0.22665132582187653,0.0
42.800,-0.7989941239356995,0.8145577907562256,-0.9710302472114563,1.2569466590881349,0.0,-0.8476987719535828,-1.301506805419922,-0.2957872569561005,0.20753020346164702,0.0
42.900,-0.7622296810150146,0.860041081905365,-0.9744007229804993,1.1590932130813598,0.0,-0.8237891674041748,-1.3052171230316163,-0.32174097895622256,0.18840908110141755,0.0
43.000,-0.7254652380943298,0.9055243730545044,-0.9777711987495422,1.061239767074585,0.0,-0.7998795628547668,-1.3089274406433105,-0.3476947009563446,0.16928795874118804,0.0
43.100,-0.688700795173645,0.9510076642036438,-0.9811416745185852,0.96338632106781,0.0,-0.7759699583053589,-1.3126377582550048,-0.37364842295646666,0.15016683638095857,0.0
43.200,-0.6519363522529602,0.9964909553527832,-0.9845121502876282,0.8655328750610352,0.0,-0.7520603537559509,-1.3163480758666992,-0.39960214495658875,0.13104571402072906,0.0
43.300,-0.6284985840320587,1.0271124243736267,-0.999098151922226,0.8009661138057709,0.0,-0.8138636648654938,-1.3007272481918335,-0.3331933915615082,0.1733916625380516,0.0
43.400,-0.6050608158111572,1.0577338933944702,-1.0136841535568237,0.7363993525505066,0.0,-0.8756669759750366,-1.2851064205169678,-0.2667846381664276,0.21573761105537415,0.0
43.500,-0.6427821218967438,1.0087973475456238,-1.0013207495212555,0.8246380686759949,0.0,-0.8376629650592804,-1.2947729229927063,-0.31021347641944885,0.18423081189393997,0.0
43.600,-0.6805034279823303,0.9598608016967773,-0.9889573454856873,0.9128767848014832,0.0,-0.7996589541435242,-1.3044394254684448,-0.3536423146724701,0.1527240127325058,0.0
43.700,-0.7361174672842026,0.9020684063434601,-0.994349792599678,1.0004635006189346,0.0,-0.7872838526964188,-1.2905007898807526,-0.41955379396677017,0.08735226094722748,0.0
43.800,-0.7917315065860748,0.8442760109901428,-0.9997422397136688,1.088050216436386,0.0,-0.7749087512493134,-1.2765621542930603,-0.48546527326107025,0.021980509161949158,0.0
43.900,-0.8473455458879471,0.7864836156368256,-1.0051346868276596,1.1756369322538376,0.0,-0.762533649802208,-1.262623518705368,-0.5513767525553703,-0.04339124262332916,0.0
44.000,-0.9029595851898193,0.7286912202835083,-1.0105271339416504,1.263223648071289,0.0,-0.7501585483551025,-1.2486848831176758,-0.6172882318496704,-0.10876299440860748,0.0
44.100,-0.8970097942011697,0.7053450324705669,-0.9807797925812858,1.2228291886193412,0.0,-0.8148080706596375,-1.241298062460763,-0.5184666556971413,-0.08090316717113767,0.0
44.200,-0.8910600032125201,0.6819988446576255,-0.9510324512209211,1.1824347291673933,0.0,-0.8794575929641724,-1.2339112418038505,-0.4196450795446124,-0.05304333993366787,0.0
44.300,-0.8851102122238704,0.6586526568446841,-0.9212851098605565,1.1420402697154455,0.0,-0.9441071152687073,-1.2265244211469377,-0.3208235033920833,-0.025183512696198063,0.0
44.400,-0.8791604212352208,0.6353064690317427,-0.8915377685001918,1.1016458102634976,0.0,-1.0087566375732422,-1.2191376004900252,-0.2220019272395543,0.0026763145412717487,0.0
44.500,-0.8732106302465711,0.6119602812188012,-0.8617904271398271,1.0612513508115495,0.0,-1.073406159877777,-1.2117507798331124,-0.12318035108702524,0.03053614177874156,0.0
44.600,-0.8672608392579215,0.5886140934058598,-0.8320430857794625,1.0208568913596017,0.0,-1.138055682182312,-1.2043639591761999,-0.02435877493449623,0.05839596901621136,0.0
44.700,-0.8613110482692719,0.5652679055929184,-0.8022957444190979,0.9804624319076538,0.0,-1.202705204486847,-1.196977138519287,0.07446280121803284,0.08625579625368118,0.0
44.800,-0.8553612572806222,0.541921717779977,-0.7725484030587333,0.940067972455706,0.0,-1.2673547267913818,-1.1895903178623743,0.1732843773705618,0.11411562349115098,0.0
44.900,-0.8494114662919726,0.5185755299670356,-0.7428010616983687,0.899673513003758,0.0,-1.3320042490959167,-1.1822034972054618,0.27210595352309097,0.14197545072862083,0.0
45.000,-0.8434616753033229,0.49522934215409414,-0.713053720338004,0.8592790535518101,0.0,-1.3966537714004517,-1.174816676548549,0.3709275296756199,0.1698352779660906,0.0
45.100,-0.8375118843146733,0.47188315434115274,-0.6833063789776394,0.8188845940998623,0.0,-1.4613032937049866,-1.1674298558916365,0.4697491058281489,0.19769510520356043,0.0
45.200,-0.8315620933260237,0.44853696652821134,-0.6535590376172746,0.7784901346479144,0.0,-1.5259528160095215,-1.1600430352347237,0.568570681980678,0.2255549324410302,0.0
45.300,-0.825612302337374,0.4251907787152699,-0.62381169625691,0.7380956751959664,0.0,-1.5906023383140564,-1.1526562145778112,0.667392258133207,0.2534147596785001,0.0
45.400,-0.8196625113487244,0.4018445909023285,-0.5940643548965454,0.6977012157440186,0.0,-1.6552518606185913,-1.1452693939208984,0.7662138342857361,0.28127458691596985,0.0
45.500,-0.8318100656781878,0.4503890872001648,-0.6828594037464687,0.6213932484388351,0.0,-1.6590667281832014,-1.1383795567921229,0.7710126127515521,0.2927190363407135,0.0
45.600,-0.8439576200076512,0.4989335834980011,-0.771654452596392,0.5450852811336517,0.0,-1.6628815957478114,-1.1314897196633475,0.775811391217368,0.30416348576545715,0.0
45.700,-0.8561051743371146,0.5474780797958374,-0.8604495014463152,0.4687773138284683,0.0,-1.6666964633124215,-1.124599882534572,0.780610169683184,0.3156079351902008,0.0
45.800,-0.868252728666578,0.5960225760936737,-0.9492445502962386,0.3924693465232849,0.0,-1.6705113308770316,-1.1177100454057967,0.7854089481489999,0.32705238461494446,0.0
45.900,-0.8804002829960415,0.64456707239151,-1.0380395991461617,0.3161613792181015,0.0,-1.6743261984416418,-1.110820208277021,0.7902077266148159,0.3384968340396881,0.0
46.000,-0.8925478373255048,0.6931115686893463,-1.126834647996085,0.2398534119129181,0.0,-1.6781410660062517,-1.1039303711482458,0.7950065050806318,0.34994128346443176,0.0
46.100,-0.9046953916549683,0.7416560649871826,-1.2156296968460083,0.16354544460773468,0.0,-1.6819559335708618,-1.0970405340194702,0.7998052835464478,0.3613857328891754,0.0
46.200,-0.8882083977971759,0.7033621328217643,-1.1275953224727087,0.20005963955606731,0.0,-1.681444423539298,-1.0836400815418787,0.8090454595429557,0.3863780328205654,0.0
46.300,-0.8717214039393834,0.665068200656346,-1.0395609480994088,0.23657383450439998,0.0,-1.680932913507734,-1.0702396290642875,0.8182856355394635,0.4113703327519553,0.0
46.400,-0.855234410081591,0.6267742684909275,-0.9515265737261092,0.27308802945273264,0.0,-1.6804214034761702,-1.056839176586696,0.8275258115359715,0.43636263268334524,0.0
46.500,-0.8387474162237984,0.5884803363255092,-0.8634921993528093,0.3096022244010653,0.0,-1.6799098934446062,-1.0434387241091048,0.8367659875324794,0.4613549326147352,0.0
46.600,-0.822260422366006,0.5501864041600908,-0.7754578249795097,0.34611641934939796,0.0,-1.6793983834130424,-1.0300382716315133,0.8460061635289874,0.4863472325461251,0.0
46.700,-0.8057734285082137,0.5118924719946725,-0.6874234506062099,0.3826306142977306,0.0,-1.6788868733814784,-1.016637819153922,0.8552463395254952,0.5113395324775151,0.0
46.800,-0.7892864346504211,0.47359853982925415,-0.5993890762329102,0.41914480924606323,0.0,-1.6783753633499146,-1.0032373666763306,0.8644865155220032,0.536331832408905,0.0
46.900,-0.8405632422520564,0.46031486758818996,-0.5335937921817486,0.44672136123363787,0.0,-1.6220636367797852,-0.9387448808321586,0.7691349524718064,0.5761352777481079,0.0
47.000,-0.8918400498536917,0.4470311953471257,-0.4677985081305871,0.4742979132212125,0.0,-1.5657519102096558,-0.8742523949879866,0.6737833894216098,0.6159387230873108,0.0
47.100,-0.943116857455327,0.4337475231060615,-0.4020032240794255,0.5018744652087872,0.0,-1.5094401836395264,-0.8097599091438147,0.578431826371413,0.6557421684265137,0.0
47.200,-0.9943936650569623,0.42046385086499727,-0.336207940028264,0.5294510171963618,0.0,-1.453128457069397,-0.7452674232996427,0.4830802633212163,0.6955456137657166,0.0
47.300,-1.0456704726585975,0.4071801786239331,-0.2704126559771024,0.5570275691839365,0.0,-1.3968167304992676,-0.6807749374554708,0.3877287002710195,0.7353490591049194,0.0
47.400,-1.096947280260233,0.3938965063828688,-0.20461737192594087,0.5846041211715112,0.0,-1.3405050039291382,-0.6162824516112988,0.2923771372208228,0.7751525044441223,0.0
47.500,-1.148224087861868,0.38061283414180463,-0.13882208787477934,0.6121806731590858,0.0,-1.2841932773590088,-0.5517899657671268,0.19702557417062616,0.8149559497833252,0.0
47.600,-1.1995008954635034,0.3673291619007404,-0.07302680382361781,0.6397572251466604,0.0,-1.2278815507888794,-0.4872974799229548,0.1016740111204294,0.8547593951225281,0.0
47.700,-1.2507777030651386,0.3540454896596762,-0.007231519772456285,0.6673337771342351,0.0,-1.17156982421875,-0.4228049940787829,0.006322448070232745,0.894562840461731,0.0
47.800,-1.3020545106667738,0.340761817418612,0.058563764278705355,0.6949103291218097,0.0,-1.1152580976486206,-0.3583125082346109,-0.08902911497996413,0.9343662858009338,0.0
47.900,-1.3533313182684092,0.32747814517754775,0.12435904832986688,0.7224868811093843,0.0,-1.0589463710784912,-0.2938200223904389,-0.18438067803016067,0.9741697311401367,0.0
48.000,-1.4046081258700445,0.3141944729364835,0.1901543323810284,0.7500634330969591,0.0,-1.0026346445083618,-0.22932753654626692,-0.27973224108035755,1.0139731764793396,0.0
48.100,-1.4558849334716797,0.3009108006954193,0.25594961643218994,0.7776399850845337,0.0,-0.9463229179382324,-0.16483505070209503,-0.3750838041305542,1.0537766218185425,0.0
48.200,-1.4441369275252025,0.3975072627266248,0.21242894728978476,0.723973615715901,0.0,-0.8467565563817819,-0.1890521558622519,-0.3356903853515784,0.9791060648858547,0.0
48.300,-1.432388921578725,0.49410372475783026,0.16890827814737958,0.6703072463472685,0.0,-0.7471901948253314,-0.21326926102240878,-0.2962969665726026,0.904435507953167,0.0
48.400,-1.420640915632248,0.5907001867890358,0.12538760900497437,0.6166408769786358,0.0,-0.6476238332688808,-0.2374863661825657,-0.2569035477936268,0.8297649510204792,0.0
48.500,-1.4088929096857707,0.6872966488202412,0.08186693986256918,0.5629745076100032,0.0,-0.5480574717124304,-0.26170347134272254,-0.217510129014651,0.7550943940877914,0.0
48.600,-1.3971449037392933,0.7838931108514469,0.03834627072016397,0.5093081382413704,0.0,-0.44849111015597976,-0.2859205765028795,-0.17811671023567516,0.6804238371551037,0.0
48.700,-1.3853968977928162,0.8804895728826523,-0.005174398422241211,0.4556417688727379,0.0,-0.34892474859952927,-0.31013768166303635,-0.13872329145669937,0.6057532802224159,0.0
48.800,-1.373648891846339,0.9770860349138578,-0.04869506756464642,0.4019753995041052,0.0,-0.24935838704307867,-0.33435478682319325,-0.09932987267772353,0.5310827232897282,0.0
48.900,-1.3619008858998616,1.0736824969450631,-0.09221573670705158,0.34830903013547265,0.0,-0.1497920254866283,-0.3585718919833501,-0.0599364538987478,0.4564121663570404,0.0
49.000,-1.3501528799533844,1.1702789589762688,-0.1357364058494568,0.29464266076684,0.0,-0.05022566393017769,-0.382788997143507,-0.020543035119771957,0.38174160942435265,0.0
49.100,-1.3384048740069072,1.2668754210074744,-0.179257074991862,0.2409762913982073,0.0,0.04934069762627291,-0.4070061023036639,0.018850383659203884,0.3070710524916649,0.0
49.200,-1.3266568680604298,1.3634718830386796,-0.22277774413426715,0.18730992202957475,0.0,0.1489070591827233,-0.43122320746382076,0.058243802438179615,0.23240049555897713,0.0
49.300,-1.3149088621139526,1.4600683450698853,-0.26629841327667236,0.13364355266094208,0.0,0.2484734207391739,-0.45544031262397766,0.09763722121715546,0.15772993862628937,0.0
49.400,-1.3162473499774934,1.4129207998514175,-0.3195053040981293,0.16027938202023506,0.0,0.26907958313822744,-0.4916927978396416,-0.0013809435069561116,0.1368909187614918,0.0
49.500,-1.317585837841034,1.3657732546329497,-0.3727121949195862,0.18691521137952805,0.0,0.28968574553728105,-0.5279452830553055,-0.10039910823106768,0.11605189889669418,0.0
49.600,-1.3189243257045746,1.3186257094144822,-0.4259190857410431,0.21355104073882103,0.0,0.3102919079363346,-0.5641977682709693,-0.1994172729551792,0.0952128790318966,0.0
49.700,-1.3202628135681151,1.2714781641960144,-0.4791259765625,0.240186870098114,0.0,0.3308980703353882,-0.6004502534866333,-0.2984354376792908,0.07437385916709899,0.0
49.800,-1.3216013014316559,1.2243306189775467,-0.5323328673839569,0.266822699457407,0.0,0.35150423273444176,-0.6367027387022972,-0.39745360240340233,0.05353483930230141,0.0
49.900,-1.3229397892951966,1.177183073759079,-0.5855397582054138,0.2934585288167,0.0,0.3721103951334953,-0.6729552239179611,-0.49647176712751384,0.032695819437503826,0.0
50.000,-1.3242782771587371,1.1300355285406112,-0.6387466490268707,0.32009435817599297,0.0,0.39271655753254886,-0.7092077091336251,-0.5954899318516254,0.011856799572706245,0.0
50.100,-1.3256167650222779,1.0828879833221436,-0.6919535398483276,0.34673018753528595,0.0,0.4133227199316025,-0.7454601943492889,-0.6945080965757371,-0.008982220292091392,0.0
50.200,-1.3269552528858184,1.0357404381036759,-0.7451604306697845,0.37336601689457893,0.0,0.4339288823306561,-0.7817126795649529,-0.7935262612998486,-0.029821240156888973,0.0
50.300,-1.3282937407493591,0.9885928928852081,-0.7983673214912415,0.4000018462538719,0.0,0.4545350447297096,-0.8179651647806168,-0.8925444260239601,-0.050660260021686554,0.0
50.400,-1.3296322286128999,0.9414453476667404,-0.8515742123126984,0.4266376756131649,0.0,0.4751412071287632,-0.8542176499962807,-0.9915625907480718,-0.07149927988648416,0.0
50.500,-1.3309707164764404,0.8942978024482727,-0.9047811031341553,0.4532735049724579,0.0,0.49574736952781673,-0.8904701352119446,-1.0905807554721831,-0.09233829975128172,0.0
50.600,-1.3323092043399811,0.847150257229805,-0.9579879939556122,0.47990933433175087,0.0,0.5163535319268704,-0.9267226204276084,-1.1895989201962949,-0.11317731961607935,0.0
50.700,-1.3336476922035216,0.8000027120113373,-1.011194884777069,0.5065451636910439,0.0,0.5369596943259238,-0.9629751056432724,-1.2886170849204062,-0.13401633948087688,0.0
50.800,-1.3349861800670624,0.7528551667928696,-1.064401775598526,0.5331809930503368,0.0,0.5575658567249775,-0.9992275908589363,-1.387635249644518,-0.15485535934567451,0.0
50.900,-1.3363246679306031,0.7057076215744018,-1.117608666419983,0.5598168224096298,0.0,0.5781720191240312,-1.0354800760746001,-1.4866534143686296,-0.17569437921047215,0.0
51.000,-1.3376631557941436,0.6585600763559342,-1.1708155572414398,0.5864526517689228,0.0,0.5987781815230846,-1.071732561290264,-1.585671579092741,-0.19653339907526968,0.0
51.100,-1.3390016436576844,0.6114125311374664,-1.2240224480628967,0.6130884811282158,0.0,0.6193843439221383,-1.1079850465059282,-1.6846897438168527,-0.2173724189400673,0.0
51.200,-1.3403401315212249,0.5642649859189988,-1.2772293388843536,0.6397243104875088,0.0,0.6399905063211917,-1.144237531721592,-1.783707908540964,-0.23821143880486484,0.0
51.300,-1.3416786193847656,0.517117440700531,-1.3304362297058105,0.6663601398468018,0.0,0.6605966687202454,-1.1804900169372559,-1.8827260732650757,-0.2590504586696625,0.0
51.400,-1.3189687530199687,0.5369952475583112,-1.2474826839235094,0.6341960744725333,0.0,0.5652019580205282,-1.16993408953702,-1.784039576848348,-0.23258445881031178,0.0
51.500,-1.2962588866551716,0.5568730544160914,-1.1645291381412082,0.6020320090982649,0.0,0.469807247320811,-1.1593781621367842,-1.6853530804316204,-0.2061184589509611,0.0
51.600,-1.2735490202903748,0.5767508612738715,-1.081575592358907,0.5698679437239965,0.0,0.37441253662109375,-1.1488222347365484,-1.5866665840148926,-0.17965245909161037,0.0
51.700,-1.2508391539255779,0.5966286681316517,-0.9986220465766059,0.5377038783497281,0.0,0.2790178259213766,-1.1382663073363128,-1.487980087598165,-0.15318645923225968,0.0
51.800,-1.2281292875607808,0.6165064749894319,-0.9156685007943048,0.5055398129754596,0.0,0.18362311522165936,-1.127710379936077,-1.3892935911814372,-0.126720459372909,0.0
51.900,-1.2054194211959839,0.6363842818472121,-0.8327149550120037,0.4733757476011912,0.0,0.08822840452194214,-1.1171544525358412,-1.2906070947647095,-0.1002544595135583,0.0
52.000,-1.182709554831187,0.6562620887049923,-0.7497614092297025,0.44121168222692275,0.0,-0.007166306177775028,-1.1065985251356054,-1.191920598347982,-0.0737884596542076,0.0
52.100,-1.15999968846639,0.6761398955627724,-0.6668078634474013,0.40904761685265434,0.0,-0.1025610168774922,-1.0960425977353696,-1.0932341019312541,-0.047322459794856886,0.0
52.200,-1.137289822101593,0.6960177024205525,-0.5838543176651001,0.3768835514783859,0.0,-0.19795572757720947,-1.0854866703351338,-0.9945476055145264,-0.020856459935506194,0.0
52.300,-1.1145799557367961,0.7158955092783328,-0.500900771882799,0.3447194861041175,0.0,-0.29335043827692664,-1.0749307429348982,-0.8958611090977987,0.005609539923844498,0.0
52.400,-1.091870089371999,0.7357733161361129,-0.41794722610049784,0.3125554207298491,0.0,-0.3887451489766438,-1.0643748155346624,-0.797174612681071,0.03207553978319522,0.0
52.500,-1.0691602230072021,0.7556511229938931,-0.33499368031819665,0.2803913553555807,0.0,-0.4841398596763611,-1.0538188881344266,-0.6984881162643433,0.05854153964254588,0.0
52.600,-1.0464503566424053,0.7755289298516732,-0.2520401345358956,0.24822728998131227,0.0,-0.5795345703760781,-1.0432629607341908,-0.5998016198476157,0.0850075395018966,0.0
52.700,-1.0237404902776084,0.7954067367094535,-0.1690865887535944,0.2160632246070438,0.0,-0.6749292810757954,-1.032707033333955,-0.5011151234308879,0.11147353936124726,0.0
52.800,-1.0010306239128113,0.8152845435672336,-0.08613304297129298,0.18389915923277533,0.0,-0.7703239917755127,-1.0221511059337192,-0.40242862701416016,0.13793953922059804,0.0
52.900,-0.9783207575480144,0.8351623504250137,-0.00317949718899202,0.15173509385850692,0.0,-0.8657187024752298,-1.0115951785334834,-0.3037421305974326,0.1644055390799487,0.0
53.000,-0.9556108911832173,0.8550401572827939,0.07977404859330917,0.1195710284842385,0.0,-0.9611134131749473,-1.0010392511332475,-0.2050556341807046,0.19087153893929942,0.0
53.100,-0.9329010248184204,0.8749179641405741,0.16272759437561035,0.08740696310997009,0.0,-1.0565081238746643,-0.990483323733012,-0.10636913776397705,0.2173375387986501,0.0
53.200,-0.9101911584536234,0.8947957709983543,0.24568114015791154,0.05524289773570168,0.0,-1.1519028345743816,-0.9799273963327761,-0.007682641347249275,0.24380353865800086,0.0
53.300,-0.8874812920888265,0.9146735778561345,0.3286346859402125,0.023078832361433266,0.0,-1.2472975452740986,-0.9693714689325403,0.09100385506947828,0.27026953851735147,0.0
53.400,-0.8647714257240295,0.9345513847139146,0.4115882317225139,-0.009085233012835148,0.0,-1.342692255973816,-0.9588155415323045,0.18969035148620605,0.2967355383767022,0.0
53.500,-0.8420615593592327,0.9544291915716948,0.4945417775048149,-0.04124929838710356,0.0,-1.438086966673533,-0.9482596141320688,0.2883768479029336,0.3232015382360529,0.0
53.600,-0.8193516929944357,0.974306998429475,0.5774953232871163,-0.07341336376137209,0.0,-1.5334816773732505,-0.937703686731833,0.3870633443196616,0.34966753809540363,0.0
53.700,-0.7966418266296387,0.9941848052872552,0.6604488690694172,-0.10557742913564039,0.0,-1.6288763880729675,-0.9271477593315972,0.48574984073638916,0.37613353795475424,0.0
53.800,-0.7739319602648417,1.0140626121450353,0.7434024148517184,-0.1377414945099089,0.0,-1.7242710987726846,-0.9165918319313615,0.5844363371531167,0.40259953781410496,0.0
53.900,-0.7512220939000448,1.0339404190028154,0.8263559606340194,-0.16990555988417722,0.0,-1.8196658094724016,-0.9060359045311257,0.6831228335698443,0.4290655376734557,0.0
54.000,-0.7285122275352478,1.0538182258605957,0.9093095064163208,-0.20206962525844574,0.0,-1.9150605201721191,-0.8954799771308899,0.7818093299865723,0.4555315375328064,0.0
54.100,-0.6297069120407104,1.0651180744171143,0.9506310653686524,-0.2011904788017273,0.0,-1.9208893585205078,-0.8823065066337585,0.7902079772949219,0.4858205604553223,0.0
54.200,-0.5309015965461731,1.0764179229736328,0.9919526243209839,-0.20031133234500886,0.0,-1.9267181968688964,-0.8691330361366272,0.7986066246032715,0.5161095833778382,0.0
54.300,-0.4320962810516358,1.0877177715301514,1.0332741832733154,-0.1994321858882904,0.0,-1.932547035217285,-0.8559595656394958,0.8070052719116211,0.546398606300354,0.0
54.400,-0.33329096555709836,1.09901762008667,1.074595742225647,-0.19855303943157196,0.0,-1.9383758735656738,-0.8427860951423645,0.8154039192199707,0.5766876292228699,0.0
54.500,-0.234485650062561,1.1103174686431885,1.1159173011779786,-0.19767389297485352,0.0,-1.9442047119140624,-0.8296126246452331,0.8238025665283203,0.6069766521453858,0.0
54.600,-0.13568033456802375,1.121617317199707,1.15723886013031,-0.19679474651813508,0.0,-1.950033550262451,-0.8164391541481018,0.8322012138366699,0.6372656750679015,0.0
54.700,-0.036875019073486226,1.1329171657562256,1.1985604190826415,-0.19591560006141662,0.0,-1.95586238861084,-0.8032656836509704,0.8405998611450195,0.6675546979904174,0.0
54.800,0.06193029642105108,1.1442170143127441,1.239881978034973,-0.19503645360469818,0.0,-1.9616912269592286,-0.7900922131538392,0.8489985084533691,0.6978437209129333,0.0
54.900,0.16073561191558838,1.1555168628692627,1.2812035369873047,-0.19415730714797974,0.0,-1.9675200653076172,-0.7769187426567078,0.8573971557617187,0.7281327438354492,0.0
55.000,0.2595409274101258,1.1668167114257812,1.3225250959396362,-0.1932781606912613,0.0,-1.973348903656006,-0.7637452721595764,0.8657958030700683,0.7584217667579651,0.0
55.100,0.3583462429046631,1.1781165599822998,1.3638466548919679,-0.19239901423454284,0.0,-1.9791777420043946,-0.7505718016624451,0.874194450378418,0.788710789680481,0.0
55.200,0.4571515583992003,1.1894164085388184,1.4051682138442994,-0.1915198677778244,0.0,-1.9850065803527832,-0.7373983311653137,0.8825930976867675,0.8189998126029968,0.0
55.300,0.5559568738937379,1.200716257095337,1.4464897727966308,-0.19064072132110596,0.0,-1.9908354187011719,-0.7242248606681824,0.8909917449951172,0.8492888355255127,0.0
55.400,0.6547621893882754,1.2120161056518555,1.4878113317489623,-0.18976157486438752,0.0,-1.9966642570495605,-0.711051390171051,0.8993903923034668,0.8795778584480286,0.0
55.500,0.7535675048828125,1.223315954208374,1.5291328907012938,-0.18888242840766906,0.0,-2.0024930953979494,-0.6978779196739197,0.9077890396118165,0.9098668813705444,0.0
55.600,0.85237282037735,1.2346158027648926,1.5704544496536255,-0.18800328195095062,0.0,-2.008321933746338,-0.6847044491767883,0.9161876869201661,0.9401559042930603,0.0
55.700,0.9511781358718874,1.2459156513214111,1.6117760086059572,-0.18712413549423218,0.0,-2.0141507720947267,-0.6715309786796569,0.9245863342285157,0.9704449272155762,0.0
55.800,1.0499834513664246,1.2572154998779297,1.6530975675582886,-0.18624498903751374,0.0,-2.0199796104431154,-0.6583575081825257,0.9329849815368653,1.000733950138092,0.0
55.900,1.148788766860962,1.2685153484344482,1.69441912651062,-0.18536584258079528,0.0,-2.025808448791504,-0.6451840376853943,0.9413836288452149,1.031022973060608,0.0
56.000,1.2475940823554994,1.2798151969909668,1.7357406854629516,-0.18448669612407684,0.0,-2.0316372871398927,-0.632010567188263,0.9497822761535645,1.0613119959831239,0.0
56.100,1.3463993978500364,1.2911150455474854,1.777062244415283,-0.1836075496673584,0.0,-2.0374661254882813,-0.6188370966911316,0.9581809234619141,1.0916010189056395,0.0
56.200,1.445204713344574,1.302414894104004,1.8183838033676147,-0.18272840321063996,0.0,-2.04329496383667,-0.6056636261940003,0.9665795707702637,1.1218900418281557,0.0
56.300,1.5440100288391116,1.3137147426605225,1.8597053623199464,-0.1818492567539215,0.0,-2.0491238021850586,-0.5924901556968689,0.9749782180786133,1.1521790647506713,0.0
56.400,1.6428153443336484,1.325014591217041,1.901026921272278,-0.18097011029720306,0.0,-2.0549526405334473,-0.5793166851997376,0.9833768653869629,1.1824680876731872,0.0
56.500,1.741620659828186,1.3363144397735596,1.9423484802246094,-0.18009096384048462,0.0,-2.060781478881836,-0.5661432147026062,0.9917755126953125,1.2127571105957031,0.0
56.600,1.6426185528437296,1.34400288661321,1.8714060996969542,-0.17387628310049574,0.0,-2.051060740152995,-0.5700749238332112,0.9904426097869873,1.2042544464270273,0.0
56.700,1.5436164458592732,1.3516913334528604,1.800463719169299,-0.16766160236050687,0.0,-2.0413400014241536,-0.5740066329638164,0.9891097068786621,1.1957517822583517,0.0
56.800,1.444614338874817,1.359379780292511,1.7295213386416435,-0.16144692162051796,0.0,-2.0316192626953127,-0.5779383420944214,0.987776803970337,1.1872491180896758,0.0
56.900,1.3456122318903605,1.3670682271321615,1.6585789581139883,-0.1552322408805291,0.0,-2.0218985239664713,-0.5818700512250264,0.9864439010620117,1.1787464539210002,0.0
57.000,1.2466101249059043,1.374756673971812,1.587636577586333,-0.1490175601405402,0.0,-2.0121777852376304,-0.5858017603556315,0.9851109981536865,1.1702437897523243,0.0
57.100,1.1476080179214478,1.3824451208114623,1.5166941970586776,-0.1428028794005513,0.0,-2.002457046508789,-0.5897334694862366,0.9837780952453613,1.1617411255836487,0.0
57.200,1.0486059109369914,1.3901335676511128,1.4457518165310224,-0.13658819866056243,0.0,-1.9927363077799478,-0.5936651786168416,0.9824451923370361,1.1532384614149729,0.0
57.300,0.949603803952535,1.3978220144907634,1.3748094360033671,-0.13037351792057356,0.0,-1.9830155690511069,-0.5975968877474467,0.981112289428711,1.1447357972462973,0.0
57.400,0.8506016969680786,1.405510461330414,1.303867055475712,-0.12415883718058468,0.0,-1.9732948303222657,-0.6015285968780517,0.9797793865203858,1.1362331330776214,0.0
57.500,0.7515995899836223,1.4131989081700642,1.2329246749480567,-0.11794415644059579,0.0,-1.9635740915934246,-0.6054603060086569,0.9784464836120605,1.1277304689089458,0.0
57.600,0.6525974829991659,1.4208873550097147,1.1619822944204015,-0.1117294757006069,0.0,-1.9538533528645834,-0.6093920151392619,0.9771135807037353,1.11922780474027,0.0
