maximpopov11/Real-Steel/ros_ws/src/kinematics/output/angles.csv
timestamp,left_shoulder_pitch_joint,left_shoulder_roll_joint,left_shoulder_yaw_joint,left_elbow_joint,right_shoulder_pitch_joint,right_shoulder_roll_joint,right_shoulder_yaw_joint,right_elbow_joint
0.000,0.8124596476554871,-0.039466213434934616,0.03344731032848358,0.5349076986312866,0.0,0.28971391916275024,-0.6217122077941895,0.3953360319137573,1.0494333505630493,0.0
0.100,0.785548523068428,0.12308370228856802,-0.150282334536314,0.4814085215330124,0.0,0.3087136745452881,-0.6298366338014603,0.4124465137720108,1.012823760509491,0.0
0.200,0.758637398481369,0.28563361801207066,-0.3340119794011116,0.42790934443473816,0.0,0.3277134299278259,-0.6379610598087311,0.4295569956302643,0.9762141704559326,0.0
0.300,0.73172627389431,0.4481835337355733,-0.5177416242659092,0.37441016733646393,0.0,0.34671318531036377,-0.6460854858160019,0.44666747748851776,0.9396045804023743,0.0
0.400,0.704815149307251,0.6107334494590759,-0.7014712691307068,0.3209109902381897,0.0,0.3657129406929016,-0.6542099118232727,0.46377795934677124,0.9029949903488159,0.0
0.500,0.634400337934494,0.6518555581569672,-0.7585109174251556,0.4436276853084564,0.0,0.38139869272708893,-0.6377080082893372,0.44130806624889374,0.9163489043712616,0.0
0.600,0.5639855265617371,0.6929776668548584,-0.8155505657196045,0.5663443803787231,0.0,0.39708444476127625,-0.6212061047554016,0.41883817315101624,0.9297028183937073,0.0
0.700,0.5679714679718018,0.602114570637544,-0.6267987390359243,0.5780861377716064,0.0,0.40990250806013745,-0.6246894001960754,0.4218501498301824,0.9140915274620056,0.0
0.800,0.5719574093818665,0.5112514744202297,-0.4380469123522441,0.5898278951644897,0.0,0.4227205713589986,-0.6281726956367493,0.42486212650934857,0.898480236530304,0.0
0.900,0.5759433507919312,0.4203883782029152,-0.24929508566856384,0.601569652557373,0.0,0.4355386346578598,-0.6316559910774231,0.4278741031885147,0.8828689455986023,0.0
1.000,0.5799292922019958,0.3295252819856008,-0.06054325898488366,0.6133114099502563,0.0,0.448356697956721,-0.6351392865180969,0.43088607986768085,0.8672576546669006,0.0
1.100,0.5839152336120605,0.23866218576828635,0.12820856769879663,0.6250531673431396,0.0,0.4611747612555822,-0.6386225819587708,0.43389805654684704,0.851646363735199,0.0
1.200,0.5879011750221252,0.14779908955097198,0.3169603943824768,0.636794924736023,0.0,0.47399282455444336,-0.6421058773994446,0.4369100332260132,0.8360350728034973,0.0
1.300,0.5005364219347636,0.1668988118569056,0.4953860441843668,0.7223095099131266,0.0,0.47635207573572796,-0.6404316822687784,0.43399013082186383,0.8369152943293253,0.0
1.400,0.413171668847402,0.18599853416283924,0.6738116939862568,0.8078240950902302,0.0,0.4787113269170125,-0.6387574871381124,0.4310702284177144,0.8377955158551534,0.0
1.500,0.3258069157600403,0.2050982564687729,0.852237343788147,0.893338680267334,0.0,0.4810705780982971,-0.6370832920074463,0.42815032601356506,0.8386757373809814,0.0
1.600,0.23422592878341675,0.30206575989723206,0.888717532157898,1.0702506303787231,0.0,0.4095073342323303,-0.621257483959198,0.35955819487571716,0.9663060307502747,0.0
1.700,0.22742722431818643,0.3183494706948598,0.8822097380956014,1.0964159965515137,0.0,0.3772062593036228,-0.5981839365429349,0.17429247167375353,0.9990865257051256,0.0
1.800,0.22062851985295615,0.3346331814924876,0.8757019440333048,1.1225813627243042,0.0,0.34490518437491524,-0.5751103891266717,-0.010973251528210104,1.0318670206599765,0.0
1.900,0.21382981538772583,0.35091689229011536,0.8691941499710083,1.1487467288970947,0.0,0.3126041094462077,-0.5520368417104086,-0.1962389747301737,1.0646475156148274,0.0
2.000,0.20703111092249551,0.3672006030877431,0.8626863559087118,1.1749120950698853,0.0,0.28030303451750016,-0.5289632942941453,-0.38150469793213737,1.0974280105696783,0.0
2.100,0.2002324064572652,0.3834843138853709,0.8561785618464152,1.2010774612426758,0.0,0.2480019595887926,-0.5058897468778822,-0.566770421134101,1.1302085055245294,0.0
2.200,0.1934337019920349,0.39976802468299866,0.8496707677841187,1.2272428274154663,0.0,0.21570088466008505,-0.4828161994616191,-0.7520361443360646,1.1629890004793804,0.0
2.300,0.1866349975268046,0.4160517354806264,0.8431629737218221,1.2534081935882568,0.0,0.18339980973137748,-0.4597426520453559,-0.9373018675380282,1.1957694954342313,0.0
2.400,0.1798362930615743,0.43233544627825415,0.8366551796595255,1.2795735597610474,0.0,0.15109873480266994,-0.43666910462909275,-1.122567590739992,1.2285499903890822,0.0
2.500,0.173037588596344,0.44861915707588196,0.830147385597229,1.305738925933838,0.0,0.1187976598739624,-0.4135955572128296,-1.3078333139419556,1.261330485343933,0.0
2.600,0.1891928996358599,0.4737773963383266,0.6498342028685978,1.2820149149213518,0.0,0.11723027271883828,-0.41216401542936054,-1.3126905305044991,1.2582074403762817,0.0
2.700,0.2053482106753758,0.4989356356007712,0.4695210201399667,1.2582909039088659,0.0,0.11566288556371417,-0.41073247364589144,-1.3175477470670427,1.2550843954086304,0.0
2.800,0.2215035217148917,0.5240938748632158,0.2892078374113356,1.2345668928963798,0.0,0.11409549840859004,-0.4093009318624224,-1.3224049636295863,1.251961350440979,0.0
2.900,0.2376588327544076,0.5492521141256604,0.10889465468270443,1.2108428818838937,0.0,0.11252811125346593,-0.40786939007895334,-1.32726218019213,1.2488383054733276,0.0
3.000,0.25381414379392353,0.5744103533881051,-0.07141852804592674,1.1871188708714075,0.0,0.1109607240983418,-0.4064378482954843,-1.3321193967546736,1.2457152605056763,0.0
3.100,0.2699694548334394,0.5995685926505497,-0.2517317107745578,1.1633948598589217,0.0,0.10939333694321769,-0.4050063065120152,-1.3369766133172172,1.242592215538025,0.0
3.200,0.2861247658729553,0.6247268319129944,-0.4320448935031891,1.1396708488464355,0.0,0.10782594978809357,-0.40357476472854614,-1.3418338298797607,1.2394691705703735,0.0
3.300,0.27387910868440357,0.5830320375306266,-0.23838749953678678,1.1471342699868339,0.0,0.10565522419554847,-0.36911443727357046,-1.3632117339542933,1.1937685694013322,0.0
3.400,0.26163345149585177,0.5413372431482588,-0.04473010557038448,1.1545976911272322,0.0,0.10348449860300336,-0.3346541098185948,-1.384589638028826,1.1480679682322912,0.0
3.500,0.24938779430730001,0.4996424487658909,0.14892728839601788,1.1620611122676305,0.0,0.10131377301045827,-0.30019378236361915,-1.4059675421033586,1.10236736706325,0.0
3.600,0.23714213711874826,0.45794765438352314,0.3425846823624201,1.1695245334080286,0.0,0.09914304741791316,-0.2657334549086434,-1.4273454461778914,1.0566667658942086,0.0
3.700,0.22489647993019649,0.4162528600011553,0.5362420763288226,1.176987954548427,0.0,0.09697232182536807,-0.23127312745366777,-1.448723350252424,1.0109661647251673,0.0
3.800,0.2126508227416447,0.3745580656187875,0.7298994702952248,1.1844513756888253,0.0,0.09480159623282297,-0.1968127999986921,-1.4701012543269565,0.9652655635561262,0.0
3.900,0.20040516555309296,0.3328632712364197,0.9235568642616272,1.1919147968292236,0.0,0.09263087064027786,-0.16235247254371643,-1.4914791584014893,0.919564962387085,0.0
4.000,0.19866004586219788,0.3313548266887665,0.9176794290542603,1.1850191354751587,0.0,0.0838828831911087,-0.190315842628479,-1.4899561405181885,0.9955826997756958,0.0
4.100,0.22371721267700195,0.30503082275390625,0.9001783132553101,1.1247767210006714,0.0,0.1000063344836235,-0.210947647690773,-1.458568811416626,1.0200313329696655,0.0
4.200,0.21656407415866852,0.32725071907043457,0.8987890481948853,1.1267540454864502,0.0,0.09986373782157898,-0.19385197758674622,-1.461836576461792,1.003011703491211,0.0
4.300,0.20213903486728668,0.3366829752922058,0.9101594686508179,1.164198875427246,0.0,0.09986409544944763,-0.1938527524471283,-1.4618339538574219,1.003013014793396,0.0
4.400,0.18413418531417847,0.3583582639694214,0.9283434152603149,1.2186846733093262,0.0,0.10092724114656448,-0.22361089289188385,-1.4472479820251465,1.052795171737671,0.0
4.500,0.17576150596141815,0.3791908323764801,0.9329291582107544,1.2739919424057007,0.0,0.10170658677816391,-0.21937347948551178,-1.4388359785079956,1.0688287019729614,0.0
4.600,0.17576150596141815,0.3791908323764801,0.9329291582107544,1.2739919424057007,0.0,0.09329831600189209,-0.14084972441196442,-1.487919807434082,0.9189205169677734,0.0
4.700,0.13932469487190247,0.4019019603729248,0.9696975946426392,1.3505817651748657,0.0,0.0838736891746521,-0.15843456983566284,-1.4929414987564087,0.9670493602752686,0.0
4.800,0.18853500485420227,0.3523155450820923,0.9351660013198853,1.224057912826538,0.0,0.09609480202198029,-0.2003779411315918,-1.4543675184249878,1.0478469133377075,0.0
4.900,0.23191198706626892,0.31340456008911133,0.9074232578277588,1.119825005531311,0.0,0.09062952548265457,-0.18248103559017181,-1.467785358428955,1.0293571949005127,0.0
5.000,0.22886089980602264,0.31236955523490906,0.8978415727615356,1.1118484735488892,0.0,0.09062937647104263,-0.1824805587530136,-1.4677866697311401,1.0293562412261963,0.0
5.100,0.22886089980602264,0.31236955523490906,0.8978415727615356,1.1118484735488892,0.0,0.09062941372394562,-0.1824808120727539,-1.4677863121032715,1.0293567180633545,0.0
5.200,0.21422632038593292,0.3271978944540024,0.9133406579494476,1.1560519337654114,0.0,0.0997052937746048,-0.2436332404613495,-1.394847333431244,1.140221655368805,0.0
5.300,0.1995917409658432,0.3420262336730957,0.9288397431373596,1.2002553939819336,0.0,0.10878117382526398,-0.30478566884994507,-1.3219083547592163,1.2510865926742554,0.0
5.400,0.16211070120334625,0.38321346044540405,0.9491245746612549,1.3013908863067627,0.0,0.10323299467563629,-0.2793218791484833,-1.4129713773727417,1.140028476715088,0.0
5.500,0.17309669852256776,0.3710245430469513,0.9422431468963623,1.2717705726623536,0.0,0.13573876023292542,-0.3113180577754974,-1.227231776714325,1.1518390417098998,0.0
5.600,0.18408269584178924,0.3588356256484985,0.9353617191314697,1.2421502590179443,0.0,0.16824452579021454,-0.3433142364025116,-1.0414921760559082,1.163649606704712,0.0
5.700,0.19506869316101075,0.3466467082500458,0.9284802913665772,1.2125299453735352,0.0,0.20075029134750366,-0.3753104150295258,-0.8557525753974915,1.1754601716995239,0.0
5.800,0.20605469048023223,0.334457790851593,0.9215988636016845,1.1829096317291259,0.0,0.23325605690479279,-0.40730659365653993,-0.6700129747390746,1.187270736694336,0.0
5.900,0.21704068779945374,0.32226887345314026,0.914717435836792,1.1532893180847168,0.0,0.2657618224620819,-0.4393027722835541,-0.48427337408065796,1.199081301689148,0.0
6.000,0.2264299914240837,0.3160059377551079,0.9103388041257858,1.1292908787727356,0.0,0.2473495788872242,-0.5712023600935936,-0.646352156996727,1.2256865501403809,0.0
6.100,0.23581929504871368,0.3097430020570755,0.9059601724147797,1.1052924394607544,0.0,0.22893733531236649,-0.7031019479036331,-0.808430939912796,1.2522917985916138,0.0
6.200,0.24520859867334366,0.3034800663590431,0.9015815407037735,1.0812940001487732,0.0,0.21052509173750877,-0.8350015357136726,-0.970509722828865,1.2788970470428467,0.0
6.300,0.25459790229797363,0.29721713066101074,0.8972029089927673,1.057295560836792,0.0,0.19211284816265106,-0.9669011235237122,-1.132588505744934,1.3055022954940796,0.0
6.400,0.26020507017771405,0.290375957886378,0.890743613243103,1.0367674231529236,0.0,0.24486670891443887,-0.9147131443023682,-1.13924241065979,1.1665321389834087,0.0
6.500,0.2658122380574544,0.2835347851117452,0.8842843174934387,1.0162392854690552,0.0,0.2976205696662267,-0.8625251650810242,-1.145896315574646,1.0275619824727378,0.0
6.600,0.2714194059371948,0.2766936123371124,0.8778250217437744,0.9957111477851868,0.0,0.3503744304180145,-0.8103371858596802,-1.152550220489502,0.8885918259620667,0.0
6.700,0.2644916772842407,0.28274911642074585,0.8876607418060303,1.0251023769378662,0.0,0.3624233901500702,-0.7816746234893799,-1.1407628059387207,0.7609390616416931,0.0
6.800,0.26527602076530454,0.28293930888175967,0.8889049530029297,1.0265361309051513,0.0,0.42774486541748047,-0.846140193939209,-0.95296351313591,0.7727504849433899,0.0
6.900,0.2660603642463684,0.2831295013427734,0.8901491641998291,1.0279698848724366,0.0,0.49306634068489075,-0.9106057643890381,-0.7651642203330993,0.7845619082450866,0.0
7.000,0.26684470772743224,0.28331969380378724,0.8913933753967285,1.0294036388397216,0.0,0.558387815952301,-0.9750713348388672,-0.5773649275302887,0.7963733315467835,0.0
7.100,0.2676290512084961,0.283509886264801,0.8926375865936279,1.030837392807007,0.0,0.6237092912197113,-1.0395369052886962,-0.38956563472747796,0.8081847548484802,0.0
7.200,0.26841339468955994,0.2837000787258148,0.8938817977905273,1.032271146774292,0.0,0.6890307664871216,-1.1040024757385254,-0.20176634192466736,0.819996178150177,0.0
7.300,0.24969147145748138,0.3142050802707672,0.8992145657539368,1.0803523063659668,0.0,0.6208069324493408,-1.1250983476638794,-0.1748884618282318,0.8662843108177185,0.0
7.400,0.2643195688724518,0.30858123302459717,0.8990973830223083,1.0596487522125244,0.0,0.6138986349105835,-1.1439945697784424,-0.16672830283641815,0.8398847579956055,0.0
7.500,0.2511031925678253,0.30642184615135193,0.8963484168052673,1.0768862962722778,0.0,0.7354264855384827,-1.1516718864440918,-0.2088458389043808,0.7013078331947327,0.0
7.600,0.25011828541755676,0.3062083423137665,0.8929399847984314,1.074357509613037,0.0,0.7829911708831787,-1.1643199920654297,-0.23586079478263855,0.6688527464866638,0.0
7.700,0.2473667711019516,0.3042774200439453,0.8989834785461426,1.070780634880066,0.0,0.9042598009109497,-1.1712007522583008,-0.281773179769516,0.5405296683311462,0.0
7.800,0.2473667711019516,0.3042774200439453,0.8989834785461426,1.070780634880066,0.0,0.9705391526222229,-1.1932295560836792,-0.300924688577652,0.42407354712486267,0.0
7.900,0.24958201994498572,0.3032579720020294,0.8986619512240092,1.066880186398824,0.0,0.8419977476199468,-1.094838261604309,-0.4934333612521489,0.3815010339021683,0.0
8.000,0.25179726878801983,0.3022385239601135,0.8983404239018759,1.0629797379175823,0.0,0.7134563426176708,-0.996446967124939,-0.6859420339266459,0.3389285206794739,0.0
8.100,0.2540125176310539,0.30121907591819763,0.8980188965797424,1.0590792894363403,0.0,0.5849149376153946,-0.8980556726455688,-0.8784507066011429,0.2963560074567795,0.0
8.200,0.256227766474088,0.30019962787628174,0.897697369257609,1.0551788409550984,0.0,0.4563735326131185,-0.7996643781661987,-1.0709593792756398,0.2537834942340851,0.0
8.300,0.25844301531712216,0.29918017983436584,0.8973758419354757,1.0512783924738567,0.0,0.32783212761084235,-0.7012730836868286,-1.263468051950137,0.21121098101139069,0.0
8.400,0.26065826416015625,0.29816073179244995,0.8970543146133423,1.0473779439926147,0.0,0.19929072260856628,-0.6028817892074585,-1.4559767246246338,0.1686384677886963,0.0
8.500,0.23774276673793793,0.3133029341697693,0.9034598469734192,1.1050337553024292,0.0,0.19598837196826935,-0.5427585244178772,-1.4451605081558228,0.015895478427410126,0.0
8.600,0.2367277294397354,0.31294411420822144,0.9003484845161438,1.1023271083831787,0.0,0.20439884066581726,-0.5206015110015869,-1.4516491889953613,-0.04850087687373161,0.0
8.700,0.2473667711019516,0.3042774200439453,0.8989834785461426,1.070780634880066,0.0,0.21823883056640625,-0.5086973905563354,-1.4664260149002075,-0.10717736184597015,0.0
8.800,0.25011828541755676,0.3062083423137665,0.8929399847984314,1.074357509613037,0.0,0.22680051624774933,-0.5202794671058655,-1.4809378385543823,-0.15770545601844788,0.0
8.900,0.25803467631340027,0.29743334650993347,0.8930045962333679,1.0424606800079346,0.0,0.2292206734418869,-0.4975140392780304,-1.4879151582717896,-0.24613912403583527,0.0
9.000,0.2916978895664215,0.258411705493927,0.8760020136833191,0.9659043550491333,0.0,0.30028411746025085,-0.4411858022212982,-1.4906672239303589,-0.37962841987609863,0.0
9.100,0.2406015247106552,0.29550638794898987,0.8957651257514954,1.0764611959457397,0.0,0.2929082214832306,-0.4474969506263733,-1.4922363758087158,-0.43172091245651245,0.0
9.200,0.24521056562662125,0.28843797743320465,0.8950764834880829,1.0699850916862488,0.0,0.15259643970057368,-0.4245586395263672,-1.5508272647857666,-0.5077317953109741,0.0
9.300,0.24981960654258728,0.28136956691741943,0.8943878412246704,1.0635089874267578,0.0,0.012284657917916775,-0.4016203284263611,-1.6094181537628174,-0.5837426781654358,0.0
9.400,0.24981960654258728,0.28136956691741943,0.8943878412246704,1.0635089874267578,0.0,-0.0008178408024832606,-0.37324464321136475,-1.5989880561828613,-0.643695056438446,0.0
9.500,0.2578158676624298,0.27417755126953125,0.8837335705757141,1.0310560464859009,0.0,-0.0033203682396560907,-0.3732270896434784,-1.5943785905838013,-0.7220664024353027,0.0
9.600,0.2287357598543167,0.3034574091434479,0.9028127789497375,1.108166217803955,0.0,0.007375967688858509,-0.3906972408294678,-1.6031421422958374,-0.769209086894989,0.0
9.700,0.24315519630908966,0.2963124215602875,0.8999715447425842,1.081477165222168,0.0,-0.0053977989591658115,-0.3875628411769867,-1.5885907411575317,-0.7932690382003784,0.0
9.800,0.20584794878959656,0.3296036720275879,0.91337651014328,1.1656590700149536,0.0,0.0004927478730678558,-0.37424784898757935,-1.5936434268951416,-0.8608914613723755,0.0
9.900,0.17576150596141815,0.3791908323764801,0.9329291582107544,1.2739919424057007,0.0,-0.0029886672273278236,-0.37906450033187866,-1.587804913520813,-0.8858868479728699,0.0
10.000,0.2320571094751358,0.31997954845428467,0.8936367630958557,1.0984430313110352,0.0,-0.024125874042510986,-0.37091198563575745,-1.558459758758545,-0.9074096083641052,0.0
10.100,0.23093444108963013,0.3129168450832367,0.9044584035873413,1.116876244544983,0.0,0.00546020083129406,-0.3580462634563446,-1.599778175354004,-0.9030513167381287,0.0
10.200,0.21498313546180725,0.32098814845085144,0.909674346446991,1.1470434665679932,0.0,-0.007174409925937653,-0.36462292075157166,-1.5821948051452637,-0.9054884910583496,0.0
10.300,0.22255177795886993,0.30965352058410645,0.8957207202911377,1.1012860536575317,0.0,-0.015857072547078133,-0.3431532382965088,-1.570755958557129,-0.9229981899261475,0.0
10.400,0.22117625176906586,0.30936890840530396,0.8935015797615051,1.0991119146347046,0.0,-0.015857072547078133,-0.3431532382965088,-1.570755958557129,-0.9229981899261475,0.0
10.500,0.21298570930957794,0.32007449865341187,0.9034181237220764,1.1413625478744507,0.0,-0.0030423991847783327,-0.34334492683410645,-1.588468074798584,-0.9226737022399902,0.0
10.600,0.21396996080875397,0.3204849362373352,0.9067210555076599,1.1441397666931152,0.0,0.0009004403837025166,-0.3514500856399536,-1.5941592454910278,-0.9014205932617188,0.0
10.700,0.23967581987380981,0.3032315671443939,0.8973127007484436,1.079184889793396,0.0,-0.0027330471202731133,-0.3856077492237091,-1.5876117944717407,-0.8875896334648132,0.0
10.800,0.24097412824630737,0.3036300241947174,0.8993903398513794,1.0816690921783447,0.0,0.0005335073219612241,-0.4091550409793854,-1.592918872833252,-0.8231200575828552,0.0
10.900,0.2519780695438385,0.29649537801742554,0.8930869102478027,1.0524191856384277,0.0,-0.01969859004020691,-0.45635533332824707,-1.5741688013076782,-0.6996983289718628,0.0
11.000,0.22984963655471802,0.312637597322464,0.9013208746910095,1.1144099235534668,0.0,-0.008595612831413746,-0.5170613527297974,-1.5886017084121704,-0.5482903122901917,0.0
11.100,0.23476272821426392,0.30793458223342896,0.8993167877197266,1.0967974066734314,0.0,0.009241665247827768,-0.5541321933269501,-1.6022992134094238,-0.44085121154785156,0.0
11.200,0.23967581987380981,0.3032315671443939,0.8973127007484436,1.079184889793396,0.0,0.027078943327069283,-0.5912030339241028,-1.6159967184066772,-0.3334121108055115,0.0
11.300,0.2540588974952698,0.2895396649837494,0.889570027589798,1.0441192984580994,0.0,0.1917150104418397,-0.6278611123561859,-1.533413052558899,-0.2095654234290123,0.0
11.400,0.26844197511672974,0.27584776282310486,0.8818273544311523,1.0090537071228027,0.0,0.3563510775566101,-0.664519190788269,-1.4508293867111206,-0.08571873605251312,0.0
11.500,0.25713789463043213,0.28157761693000793,0.88542640209198,1.0328304767608643,0.0,0.21801844239234924,-0.6998919248580933,-1.484910488128662,0.07278434187173843,0.0
11.600,0.25400671859582263,0.2851273814837138,0.8870568772157034,1.0401591459910076,0.0,0.36576279501120246,-0.793039858341217,-1.3123644888401031,0.13872787977258363,0.0
11.700,0.2508755425612132,0.2886771460374196,0.8886873523394266,1.0474878152211506,0.0,0.5135071476300557,-0.8861877918243408,-1.1398184895515442,0.20467141767342883,0.0
11.800,0.2477443665266037,0.2922269105911255,0.89031782746315,1.054816484451294,0.0,0.661251500248909,-0.9793357253074646,-0.9672724902629852,0.27061495557427406,0.0
11.900,0.24461319049199423,0.29577667514483136,0.8919483025868734,1.0621451536814372,0.0,0.8089958528677622,-1.0724836587905884,-0.7947264909744263,0.33655849347511924,0.0
12.000,0.24148201445738474,0.2993264396985372,0.8935787777105967,1.0694738229115803,0.0,0.9567402054866155,-1.1656315922737122,-0.6221804916858673,0.4025020313759645,0.0
12.100,0.23835083842277527,0.30287620425224304,0.8952092528343201,1.0768024921417236,0.0,1.1044845581054688,-1.258779525756836,-0.44963449239730835,0.4684455692768097,0.0
12.200,0.24366964101791383,0.30044021606445315,0.8944483518600463,1.0674337863922119,0.0,0.9390530347824096,-1.1894551157951354,-0.6387376308441162,0.5171489119529724,0.0
12.300,0.24898844361305236,0.2980042278766632,0.8936874508857727,1.0580650806427,0.0,0.7736215114593505,-1.120130705833435,-0.8278407692909241,0.5658522546291351,0.0
12.400,0.2543072462081909,0.2955682396888733,0.892926549911499,1.0486963748931886,0.0,0.6081899881362915,-1.0508062958717346,-1.016943907737732,0.6145555973052979,0.0
12.500,0.25962604880332946,0.29313225150108335,0.8921656489372254,1.0393276691436768,0.0,0.44275846481323233,-0.9814818859100342,-1.2060470461845398,0.6632589399814606,0.0
12.600,0.264944851398468,0.29069626331329346,0.8914047479629517,1.029958963394165,0.0,0.27732694149017334,-0.9121574759483337,-1.3951501846313477,0.7119622826576233,0.0
12.700,0.2640167325735092,0.2795521430671215,0.8863020986318588,1.0253570675849915,0.0,0.2732112854719162,-0.7464610785245895,-1.2075039148330688,0.8333327919244766,0.0
12.800,0.2630886137485504,0.26840802282094955,0.881199449300766,1.0207551717758179,0.0,0.26909562945365906,-0.5807646811008453,-1.01985764503479,0.95470330119133,0.0
12.900,0.2621604949235916,0.2572639025747776,0.8760967999696732,1.0161532759666443,0.0,0.2649799734354019,-0.41506828367710114,-0.8322113752365112,1.0760738104581833,0.0
13.000,0.2612323760986328,0.24611978232860565,0.8709941506385803,1.0115513801574707,0.0,0.2608643174171448,-0.24937188625335693,-0.6445651054382324,1.1974443197250366,0.0
13.100,0.26018835107485455,0.2472453936934471,0.8731231292088827,1.0170538226763408,0.0,0.2818754017353058,-0.2840908815463384,-0.45683060089747113,1.1659908692042034,0.0
13.200,0.25914432605107623,0.24837100505828857,0.8752521077791849,1.0225562651952107,0.0,0.3028864860534668,-0.31880987683931983,-0.26909609635670984,1.1345374186833699,0.0
13.300,0.258100301027298,0.24949661642313004,0.8773810863494873,1.0280587077140808,0.0,0.3238975703716278,-0.35352887213230133,-0.08136159181594849,1.1030839681625366,0.0
13.400,0.2570562760035197,0.2506222277879715,0.8795100649197897,1.033561150232951,0.0,0.3449086546897888,-0.3882478674252828,0.10637291272481275,1.0716305176417034,0.0
13.500,0.2560122509797414,0.25174783915281296,0.8816390434900919,1.0390635927518208,0.0,0.36591973900794983,-0.4229668627182643,0.2941074172655742,1.0401770671208699,0.0
13.600,0.25496822595596313,0.2528734505176544,0.8837680220603943,1.044566035270691,0.0,0.38693082332611084,-0.4576858580112457,0.48184192180633545,1.0087236166000366,0.0
13.700,0.2940869629383087,0.20403386652469635,0.8580232262611389,0.9505375623703003,0.0,0.3921426832675934,-0.4577837586402893,0.49246910214424133,0.9992044568061829,0.0
13.800,0.2940869629383087,0.20403386652469635,0.8580232262611389,0.9505375623703003,0.0,0.3966713845729828,-0.491159588098526,0.5198147296905518,0.962846577167511,0.0
13.900,0.2959549129009247,0.2000100016593933,0.8408334255218506,0.9201279282569885,0.0,0.4033762216567993,-0.4861406981945038,0.5101432204246521,0.9650285840034485,0.0
14.000,0.297657761308882,0.19829128020339543,0.8400474455621507,0.9173203971650865,0.0,0.3790908654530843,-0.4343958180397749,0.3107109202278985,0.9505803253915575,0.0
14.100,0.29936060971683925,0.19657255874739754,0.8392614656024509,0.9145128660731845,0.0,0.3548055092493693,-0.382650937885046,0.11127862003114491,0.9361320667796664,0.0
14.200,0.30106345812479657,0.19485383729139963,0.8384754856427511,0.9117053349812826,0.0,0.3305201530456543,-0.3309060577303171,-0.08815368016560865,0.9216838081677755,0.0
14.300,0.3027663065327538,0.19313511583540174,0.8376895056830512,0.9088978038893806,0.0,0.3062347968419393,-0.2791611775755882,-0.28758598036236227,0.9072355495558845,0.0
14.400,0.30446915494071114,0.19141639437940386,0.8369035257233514,0.9060902727974786,0.0,0.28194944063822425,-0.22741629742085934,-0.487018280559116,0.8927872909439935,0.0
14.500,0.3061720033486684,0.18969767292340597,0.8361175457636515,0.9032827417055765,0.0,0.2576640844345093,-0.17567141726613045,-0.6864505807558694,0.8783390323321024,0.0
14.600,0.3078748517566257,0.18797895146740806,0.8353315658039517,0.9004752106136746,0.0,0.23337872823079428,-0.12392653711140156,-0.8858828809526231,0.8638907737202115,0.0
14.700,0.30957770016458297,0.18626023001141018,0.8345455858442519,0.8976676795217726,0.0,0.20909337202707928,-0.07218165695667267,-1.0853151811493766,0.8494425151083205,0.0
14.800,0.3112805485725403,0.1845415085554123,0.833759605884552,0.8948601484298706,0.0,0.18480801582336426,-0.02043677680194378,-1.2847474813461304,0.8349942564964294,0.0
14.900,0.3222936822308434,0.19515393839942086,0.7865642309188843,0.8961202369795905,0.0,0.20717143350177342,-0.06975338028536902,-1.0901242428355746,0.8548488352033827,0.0
15.000,0.33330681588914657,0.2057663682434294,0.7393688559532166,0.8973803255293105,0.0,0.22953485118018258,-0.11906998376879427,-0.895501004325019,0.874703413910336,0.0
15.100,0.34431994954744977,0.21637879808743793,0.6921734809875488,0.8986404140790304,0.0,0.2518982688585917,-0.1683865872522195,-0.7008777658144634,0.8945579926172892,0.0
15.200,0.3553330832057529,0.2269912279314465,0.6449781060218811,0.8999005026287503,0.0,0.2742616865370009,-0.21770319073564476,-0.5062545273039076,0.9144125713242425,0.0
15.300,0.36634621686405605,0.23760365777545506,0.5977827310562134,0.9011605911784701,0.0,0.29662510421541,-0.26701979421907,-0.3116312887933519,0.9342671500311958,0.0
15.400,0.3773593505223592,0.2482160876194636,0.5505873560905457,0.9024206797281901,0.0,0.31898852189381915,-0.3163363977024952,-0.11700805028279637,0.954121728738149,0.0
15.500,0.3883724841806624,0.25882851746347213,0.5033919811248779,0.90368076827791,0.0,0.3413519395722283,-0.36565300118592053,0.07761518822775959,0.9739763074451022,0.0
15.600,0.39938561783896553,0.2694409473074807,0.4561966061592102,0.9049408568276299,0.0,0.36371535725063747,-0.41496960466934574,0.2722384267383151,0.9938308861520555,0.0
15.700,0.4103987514972687,0.28005337715148926,0.4090012311935425,0.9062009453773499,0.0,0.38607877492904663,-0.464286208152771,0.46686166524887085,1.0136854648590088,0.0
15.800,0.4124060008260939,0.28005869852172005,0.40821610887845355,0.9022936622301737,0.0,0.363773869143592,-0.4157337724334664,0.27202726735009086,0.9949387775527107,0.0
15.900,0.4144132501549191,0.28006401989195084,0.4074309865633647,0.8983863790829977,0.0,0.34146896335813737,-0.36718133671416175,0.07719286945131093,0.9761920902464125,0.0
16.000,0.4164204994837443,0.2800693412621816,0.40664586424827576,0.8944790959358215,0.0,0.31916405757268274,-0.3186289009948572,-0.117641528447469,0.9574454029401144,0.0
16.100,0.4184277488125695,0.2800746626324124,0.40586074193318683,0.8905718127886454,0.0,0.29685915178722805,-0.2700764652755525,-0.312475926346249,0.9386987156338162,0.0
16.200,0.42043499814139473,0.28007998400264317,0.40507561961809796,0.8866645296414694,0.0,0.2745542460017734,-0.22152402955624792,-0.5073103242450291,0.919952028327518,0.0
16.300,0.4224422474702199,0.28008530537287396,0.40429049730300903,0.8827572464942932,0.0,0.2522493402163188,-0.17297159383694333,-0.7021447221438089,0.9012053410212199,0.0
16.400,0.42444949679904515,0.2800906267431047,0.4035053749879201,0.8788499633471171,0.0,0.22994443443086413,-0.1244191581176387,-0.896979120042589,0.8824586537149217,0.0
16.500,0.4264567461278703,0.2800959481133355,0.40272025267283124,0.874942680199941,0.0,0.2076395286454095,-0.07586672239833409,-1.0918135179413688,0.8637119664086236,0.0
16.600,0.42846399545669556,0.2801012694835663,0.4019351303577423,0.8710353970527649,0.0,0.18533462285995483,-0.027314286679029465,-1.286647915840149,0.8449652791023254,0.0
16.700,0.39362505078315735,0.2469705492258072,0.5460523168245951,0.8740443785985311,0.0,0.18148294587930044,-0.03762320056557655,-1.2876378297805786,0.8581383029619852,0.0
16.800,0.35878610610961914,0.2138398289680481,0.6901695032914479,0.8770533601442972,0.0,0.17763126889864603,-0.04793211445212364,-1.2886277437210083,0.8713113268216451,0.0
16.900,0.32394716143608093,0.180709108710289,0.8342866897583008,0.8800623416900635,0.0,0.17377959191799164,-0.05824102833867073,-1.289617657661438,0.8844843506813049,0.0
17.000,0.32394716143608093,0.180709108710289,0.8342866897583008,0.8800623416900635,0.0,0.1964129265397787,-0.10526234051212668,-1.0953607335686684,0.9087627753615379,0.0
17.100,0.32394716143608093,0.180709108710289,0.8342866897583008,0.8800623416900635,0.0,0.21904626116156578,-0.15228365268558264,-0.9011038094758987,0.9330412000417709,0.0
17.200,0.32394716143608093,0.180709108710289,0.8342866897583008,0.8800623416900635,0.0,0.24167959578335285,-0.1993049648590386,-0.7068468853831291,0.9573196247220039,0.0
17.300,0.32394716143608093,0.180709108710289,0.8342866897583008,0.8800623416900635,0.0,0.2643129304051399,-0.24632627703249454,-0.5125899612903595,0.9815980494022369,0.0
17.400,0.32394716143608093,0.180709108710289,0.8342866897583008,0.8800623416900635,0.0,0.286946265026927,-0.2933475892059505,-0.3183330371975899,1.00587647408247,0.0
17.500,0.32394716143608093,0.180709108710289,0.8342866897583008,0.8800623416900635,0.0,0.30957959964871407,-0.34036890137940645,-0.12407611310482025,1.030154898762703,0.0
17.600,0.32394716143608093,0.180709108710289,0.8342866897583008,0.8800623416900635,0.0,0.33221293427050114,-0.3873902135528624,0.07018081098794937,1.054433323442936,0.0
17.700,0.32394716143608093,0.180709108710289,0.8342866897583008,0.8800623416900635,0.0,0.3548462688922882,-0.43441152572631836,0.264437735080719,1.078711748123169,0.0
17.800,0.32448485121130943,0.18149755150079727,0.8352993875741959,0.8787125423550606,0.0,0.3328357096761465,-0.38472556276246905,0.07078879326581955,1.0492368042469025,0.0
17.900,0.32502254098653793,0.18228599429130554,0.8363120853900909,0.8773627430200577,0.0,0.3108251504600048,-0.33503959979861975,-0.1228601485490799,1.019761860370636,0.0
18.000,0.32556023076176643,0.1830744370818138,0.837324783205986,0.8760129436850548,0.0,0.2888145912438631,-0.28535363683477044,-0.31650909036397934,0.9902869164943695,0.0
18.100,0.32609792053699493,0.18386287987232208,0.8383374810218811,0.8746631443500519,0.0,0.2668040320277214,-0.23566767387092113,-0.5101580321788788,0.960811972618103,0.0
18.200,0.32663561031222343,0.18465132266283035,0.8393501788377762,0.873313345015049,0.0,0.2447934728115797,-0.18598171090707183,-0.7038069739937782,0.9313370287418365,0.0
18.300,0.32717330008745193,0.18543976545333862,0.8403628766536713,0.8719635456800461,0.0,0.222782913595438,-0.13629574794322252,-0.8974559158086777,0.9018620848655701,0.0
18.400,0.32771098986268044,0.1862282082438469,0.8413755744695663,0.8706137463450432,0.0,0.2007723543792963,-0.08660978497937322,-1.0911048576235771,0.8723871409893036,0.0
18.500,0.32824867963790894,0.18701665103435516,0.8423882722854614,0.8692639470100403,0.0,0.1787617951631546,-0.03692382201552391,-1.2847537994384766,0.8429121971130371,0.0
18.600,0.3089378774166107,0.24960274994373322,0.8656088709831238,0.9227046370506287,0.0,0.17708490788936615,-0.03256282955408096,-1.2785682678222656,0.7993857264518738,0.0
18.700,0.3107756972312927,0.27132052183151245,0.8857707381248474,0.9515284895896912,0.0,0.18777097761631012,0.004475593101233244,-1.2661077976226807,0.6854438781738281,0.0
18.800,0.266929030418396,0.30796343088150024,0.8852341771125793,1.0082861185073853,0.0,0.18777097761631012,0.004475593101233244,-1.2661077976226807,0.6854438781738281,0.0
18.900,0.27455888049943106,0.3561663883072989,0.6959184535912105,1.0196168422698975,0.0,0.1885975684438433,0.005936464028699058,-1.265744652066912,0.680796035698482,0.0
19.000,0.2821887305804661,0.40436934573309763,0.5066027300698417,1.0309475660324097,0.0,0.18942415927137649,0.007397334956164871,-1.2653815065111433,0.6761481932231358,0.0
19.100,0.2898185806615012,0.4525723031588963,0.31728700654847286,1.0422782897949219,0.0,0.19025075009890965,0.008858205883630683,-1.2650183609553747,0.6715003507477897,0.0
19.200,0.2974484307425363,0.500775260584695,0.12797128302710403,1.053609013557434,0.0,0.19107734092644282,0.010319076811096497,-1.2646552153996058,0.6668525082724435,0.0
19.300,0.30507828082357136,0.5489782180104936,-0.06134444049426491,1.0649397373199463,0.0,0.191903931753976,0.011779947738562311,-1.2642920698438371,0.6622046657970974,0.0
19.400,0.3127081309046064,0.5971811754362923,-0.2506601640156336,1.0762704610824585,0.0,0.1927305225815092,0.013240818666028125,-1.2639289242880685,0.6575568233217511,0.0
19.500,0.3203379809856415,0.6453841328620911,-0.43997588753700256,1.0876011848449707,0.0,0.19355711340904236,0.014701689593493938,-1.2635657787322998,0.652908980846405,0.0
19.600,0.3166092664003372,0.6651636004447937,-0.25028010904788967,1.058687722682953,0.0,0.19230856746435165,0.013663039728999137,-1.2643571138381957,0.6627310991287232,0.0
19.700,0.31288055181503294,0.6849430680274964,-0.06058433055877682,1.029774260520935,0.0,0.19106002151966095,0.012624389864504338,-1.2651484489440918,0.6725532174110412,0.0
19.800,0.3091518372297287,0.7047225356101989,0.12911144793033602,1.0008607983589173,0.0,0.18981147557497025,0.011585740000009536,-1.2659397840499877,0.6823753356933594,0.0
19.900,0.30542312264442445,0.7245020031929016,0.3188072264194489,0.9719473361968994,0.0,0.18856292963027954,0.010547090135514737,-1.2667311191558839,0.6921974539756774,0.0
20.000,0.3016944080591202,0.7442814707756042,0.5085030049085617,0.9430338740348816,0.0,0.18731438368558884,0.009508440271019936,-1.2675224542617798,0.7020195722579956,0.0
20.100,0.2979656934738159,0.7640609383583069,0.6981987833976746,0.9141204118728637,0.0,0.18606583774089813,0.008469790406525134,-1.2683137893676757,0.7118416905403138,0.0
20.200,0.29423697888851164,0.7838404059410096,0.8878945618867873,0.8852069497108459,0.0,0.18481729179620743,0.007431140542030335,-1.2691051244735718,0.7216638088226318,0.0
20.300,0.2905082643032074,0.8036198735237121,1.0775903403759004,0.8562934875488282,0.0,0.18356874585151672,0.0063924906775355336,-1.2698964595794677,0.73148592710495,0.0
20.400,0.28677954971790315,0.8233993411064148,1.267286118865013,0.8273800253868102,0.0,0.18232019990682602,0.005353840813040732,-1.2706877946853639,0.741308045387268,0.0
20.500,0.2830508351325989,0.8431788086891174,1.456981897354126,0.7984665632247925,0.0,0.18107165396213531,0.004315190948545933,-1.2714791297912598,0.7511301636695862,0.0
20.600,0.263746440410614,0.7926591634750366,1.4932578802108765,0.6104138493537903,0.0,0.1874510794878006,0.016195373609662056,-1.2685213088989258,0.7150906920433044,0.0
20.700,0.2774503827095032,0.7505528628826141,1.5040896534919739,0.4960342049598694,0.0,0.18797803670167923,0.012905207928270102,-1.2701759338378906,0.725289523601532,0.0
20.800,0.29115432500839233,0.7084465622901917,1.5149214267730713,0.3816545605659485,0.0,0.18850499391555786,0.009615042246878147,-1.2718305587768555,0.7354883551597595,0.0
20.900,0.25085628032684326,0.6558161973953247,1.5482147932052612,0.2008092701435089,0.0,0.181930273771286,-0.0027585700154304504,-1.2748886346817017,0.7726272344589233,0.0
21.000,0.25992462038993835,0.617775559425354,1.5625275373458862,0.06493815779685974,0.0,0.18107165396213531,0.004315190948545933,-1.2714791297912598,0.7511301636695862,0.0
21.100,0.2748112082481384,0.5697168707847595,1.5864328145980835,-0.0538838729262352,0.0,0.181930273771286,-0.0027585700154304504,-1.2748886346817017,0.7726272344589233,0.0
21.200,0.2734737604856491,0.5630368649959564,1.5865012407302856,-0.07337804660201072,0.0,0.20456818640232086,-0.053242821246385574,-1.094337910413742,0.7891813576221466,0.0
21.300,0.2721363127231598,0.5563568592071533,1.5865696668624878,-0.09287222027778626,0.0,0.2272060990333557,-0.1037270724773407,-0.9137871861457825,0.8057354807853698,0.0
21.400,0.27079886496067046,0.5496768534183503,1.58663809299469,-0.11236639395356178,0.0,0.24984401166439058,-0.15421132370829582,-0.7332364618778229,0.8222896039485932,0.0
21.500,0.2694614171981812,0.5429968476295471,1.586706519126892,-0.13186056762933732,0.0,0.2724819242954254,-0.20469557493925095,-0.5526857376098633,0.8388437271118164,0.0
21.600,0.26812396943569183,0.536316841840744,1.5867749452590942,-0.15135474130511284,0.0,0.29511983692646027,-0.25517982617020607,-0.3721350133419037,0.8553978502750397,0.0
21.700,0.2667865216732025,0.5296368360519409,1.5868433713912964,-0.17084891498088836,0.0,0.31775774955749514,-0.3056640774011612,-0.1915842890739441,0.8719519734382629,0.0
21.800,0.2654490739107132,0.5229568302631378,1.5869117975234985,-0.19034308865666388,0.0,0.34039566218852996,-0.3561483286321163,-0.011033564805984497,0.8885060966014862,0.0
21.900,0.26411162614822387,0.5162768244743348,1.5869802236557007,-0.20983726233243943,0.0,0.36303357481956483,-0.40663257986307144,0.1695171594619751,0.9050602197647095,0.0
22.000,0.2627741783857346,0.5095968186855316,1.5870486497879028,-0.22933143600821496,0.0,0.38567148745059965,-0.45711683109402657,0.3500678837299347,0.9216143429279328,0.0
22.100,0.26143673062324524,0.5029168128967285,1.587117075920105,-0.24882560968399048,0.0,0.4083094000816345,-0.5076010823249817,0.5306186079978943,0.938168466091156,0.0
22.200,0.24823567271232605,0.46225035190582275,1.5840248465538025,-0.3972335457801819,0.0,0.40914808213710785,-0.5087393820285797,0.5375675559043884,0.9338024258613586,0.0
22.300,0.23503461480140686,0.421583890914917,1.5809326171875,-0.5456414818763733,0.0,0.4099867641925812,-0.5098776817321777,0.5445165038108826,0.9294363856315613,0.0
22.400,0.23868635296821594,0.41238144040107727,1.6566632986068726,-0.682998776435852,0.0,0.4123687446117401,-0.5081537961959839,0.5413827896118164,0.9300827980041504,0.0
22.500,0.19713596999645233,0.37597066164016724,1.6427254676818848,-0.8128998875617981,0.0,0.41630077362060547,-0.5182127356529236,0.5522617101669312,0.9158036708831787,0.0
22.600,0.3304322063922882,0.3541828393936157,1.6104859113693237,-0.8648157119750977,0.0,0.41630077362060547,-0.5182127356529236,0.5522617101669312,0.9158036708831787,0.0
22.700,0.3336341381072998,0.3152307868003845,1.6644209623336792,-0.9318358898162842,0.0,0.42147156596183777,-0.5192771553993225,0.5688544511795044,0.9050542116165161,0.0
22.800,0.3479389250278473,0.26326292753219604,1.7340385913848877,-0.991366982460022,0.0,0.42147156596183777,-0.5192771553993225,0.5688544511795044,0.9050542116165161,0.0
22.900,0.32963332533836365,0.24744558334350586,1.7476855516433716,-1.0471997261047363,0.0,0.4092535376548767,-0.5023654699325562,0.552964448928833,0.9318265318870544,0.0
23.000,0.3825725018978119,0.2365117073059082,1.7047187089920044,-1.0471998453140259,0.0,0.4068368077278137,-0.5041126012802124,0.5561334490776062,0.9312103986740112,0.0
23.100,0.4236353039741516,0.22332201898097992,1.6896742582321167,-1.047199010848999,0.0,0.4092535376548767,-0.5023654699325562,0.552964448928833,0.9318265318870544,0.0
23.200,0.4229940176010132,0.23061437904834747,1.6681574583053589,-1.0471981763839722,0.0,0.4092535376548767,-0.5023654699325562,0.552964448928833,0.9318265318870544,0.0
23.300,0.49932512640953064,0.20446892082691193,1.5964988470077515,-1.047193169593811,0.0,0.4027780294418335,-0.4938414692878723,0.5446970462799072,0.945763111114502,0.0
23.400,0.49934396147727966,0.20446839928627014,1.5964837074279785,-1.0471891164779663,0.0,0.4027780294418335,-0.4938414692878723,0.5446970462799072,0.945763111114502,0.0
23.500,0.4993572235107422,0.2044680416584015,1.596473217010498,-1.0471863746643066,0.0,0.4027780294418335,-0.4938414692878723,0.5446970462799072,0.945763111114502,0.0
23.600,0.5012080073356628,0.19102279841899872,1.6027055978775024,-1.0471930503845215,0.0,0.4004022479057312,-0.495561420917511,0.5478854775428772,0.9451396465301514,0.0
23.700,0.3296887278556824,0.24775150418281555,1.730657935142517,-1.0311241149902344,0.0,0.4154796004295349,-0.5108421444892883,0.5610072016716003,0.918265700340271,0.0
23.800,0.3384013772010803,0.32829761505126953,1.6658692359924316,-0.9128784537315369,0.0,0.4154796004295349,-0.5108421444892883,0.5610072016716003,0.918265700340271,0.0
23.900,0.18148770928382874,0.4123494029045105,1.704532504081726,-0.9009280800819397,0.0,0.41791558265686035,-0.5090539455413818,0.5578214526176453,0.9188951253890991,0.0
24.000,0.19773946702480316,0.47384920716285706,1.6408830881118774,-0.7266329526901245,0.0,0.4105450212955475,-0.5143741965293884,0.567277193069458,0.917064368724823,0.0
24.100,0.24670858681201935,0.520480751991272,1.6560083627700806,-0.5715622305870056,0.0,0.4027780294418335,-0.4938414692878723,0.5446970462799072,0.945763111114502,0.0
24.200,0.25418319553136826,0.5496452450752258,1.637998640537262,-0.45834530889987946,0.0,0.39952488243579865,-0.5001720190048218,0.5452534854412079,0.9436874389648438,0.0
24.300,0.26165780425071716,0.5788097381591797,1.6199889183044434,-0.3451283872127533,0.0,0.3962717354297638,-0.5065025687217712,0.5458099246025085,0.9416117668151855,0.0
24.400,0.25603386759757996,0.6115089654922485,1.5800862312316895,-0.16079971194267273,0.0,0.39660078287124634,-0.4930553436279297,0.528350293636322,0.9578671455383301,0.0
24.500,0.2839948534965515,0.6352612972259521,1.5965454578399658,-0.0008903587586246431,0.0,0.39660078287124634,-0.4930553436279297,0.528350293636322,0.9578671455383301,0.0
24.600,0.26672857999801636,0.6984789967536926,1.5672980546951294,0.1848617047071457,0.0,0.39428219199180603,-0.4947194457054138,0.5314944982528687,0.9572144746780396,0.0
24.700,0.28106141090393066,0.7622897922992706,1.5442948937416077,0.36132367700338364,0.0,0.39972032606601715,-0.5040013194084167,0.5410897731781006,0.9427112638950348,0.0
24.800,0.29539424180984497,0.8261005878448486,1.521291732788086,0.5377856492996216,0.0,0.40515846014022827,-0.5132831931114197,0.5506850481033325,0.92820805311203,0.0
24.900,0.2808414697647095,0.896184891462326,1.5209389925003052,0.7235653102397919,0.0,0.409508153796196,-0.5166161358356476,0.5530166327953339,0.9216970503330231,0.0
25.000,0.266288697719574,0.9662691950798035,1.5205862522125244,0.9093449711799622,0.0,0.4138578474521637,-0.5199490785598755,0.5553482174873352,0.9151860475540161,0.0
25.100,0.25785134732723236,1.0006563365459442,1.4577485918998718,1.0515296161174774,0.0,0.41138365864753723,-0.5216633379459381,0.558387041091919,0.9145989120006561,0.0
25.200,0.24941399693489075,1.035043478012085,1.3949109315872192,1.1937142610549927,0.0,0.40890946984291077,-0.5233775973320007,0.5614258646965027,0.9140117764472961,0.0
25.300,0.26535463631153106,1.0001700460910796,1.2678037352859974,1.1760880827903748,0.0,0.3868500396609306,-0.46766520142555235,0.37906895279884334,0.8897055387496948,0.0
25.400,0.28129527568817136,0.9652966141700745,1.1406965389847756,1.158461904525757,0.0,0.3647906094789505,-0.411952805519104,0.19671204090118405,0.8653993010520935,0.0
25.500,0.29723591506481173,0.9304231822490692,1.0135893426835536,1.1408357262611388,0.0,0.3427311792969704,-0.3562404096126557,0.014355129003524758,0.8410930633544922,0.0
25.600,0.31317655444145204,0.8955497503280639,0.8864821463823318,1.123209547996521,0.0,0.32067174911499025,-0.3005280137062073,-0.1680017828941346,0.8167868256568909,0.0
25.700,0.32911719381809235,0.8606763184070587,0.75937495008111,1.105583369731903,0.0,0.2986123189330101,-0.2448156177997589,-0.3503586947917938,0.7924805879592896,0.0
25.800,0.34505783319473265,0.8258028864860535,0.6322677537798882,1.0879571914672852,0.0,0.27655288875103,-0.18910322189331058,-0.5327156066894532,0.7681743502616882,0.0
25.900,0.36099847257137296,0.7909294545650483,0.5051605574786664,1.0703310132026673,0.0,0.2544934585690498,-0.1333908259868622,-0.7150725185871123,0.7438681125640869,0.0
26.000,0.37693911194801333,0.7560560226440429,0.37805336117744437,1.0527048349380492,0.0,0.2324340283870697,-0.07767843008041381,-0.8974294304847719,0.7195618748664856,0.0
26.100,0.39287975132465364,0.7211825907230377,0.25094616487622257,1.0350786566734314,0.0,0.21037459820508955,-0.021966034173965476,-1.079786342382431,0.6952556371688843,0.0
26.200,0.40882039070129395,0.6863091588020325,0.12383896857500076,1.0174524784088135,0.0,0.18831516802310944,0.03374636173248291,-1.2621432542800903,0.670949399471283,0.0
26.300,0.45298996567726135,0.6360338926315308,0.08249159902334213,0.9237302541732788,0.0,0.18962763249874115,0.027805257588624954,-1.2653717994689941,0.6899369359016418,0.0
26.400,0.5387551784515381,0.5723026990890503,0.000700425764080137,0.765719473361969,0.0,0.1838429570198059,-0.006855322048068047,-1.269763469696045,0.7209890484809875,0.0
26.500,0.48212675377726555,0.5023012014571577,0.1942249265339342,0.7303876392543316,0.0,0.1834645178169012,-0.00832246826030314,-1.2697920352220535,0.7214055731892586,0.0
26.600,0.425498329102993,0.43229970382526517,0.38774942730378825,0.6950558051466942,0.0,0.1830860786139965,-0.009789614472538233,-1.2698206007480621,0.7218220978975296,0.0
26.700,0.3688699044287205,0.3622982061933726,0.5812739280736423,0.6597239710390568,0.0,0.1827076394110918,-0.011256760684773326,-1.2698491662740707,0.7222386226058006,0.0
26.800,0.31224147975444794,0.29229670856148005,0.7747984288434964,0.6243921369314194,0.0,0.1823292002081871,-0.012723906897008419,-1.2698777318000793,0.7226551473140717,0.0
26.900,0.2556130550801754,0.22229521092958748,0.9683229296133504,0.589060302823782,0.0,0.1819507610052824,-0.014191053109243512,-1.269906297326088,0.7230716720223427,0.0
27.000,0.19898463040590286,0.15229371329769492,1.1618474303832045,0.5537284687161446,0.0,0.1815723218023777,-0.015658199321478605,-1.2699348628520966,0.7234881967306137,0.0
27.100,0.14235620573163033,0.08229221566580236,1.3553719311530585,0.5183966346085072,0.0,0.181193882599473,-0.0171253455337137,-1.2699634283781052,0.7239047214388847,0.0
27.200,0.08572778105735779,0.012290718033909798,1.5488964319229126,0.48306480050086975,0.0,0.1808154433965683,-0.01859249174594879,-1.2699919939041138,0.7243212461471558,0.0
27.300,0.06575588881969452,0.05626536160707474,1.5605448484420776,0.5693347454071045,0.0,0.1690807193517685,-0.05638885870575905,-1.2796660661697388,0.8182081580162048,0.0
27.400,0.07242683321237564,-0.05765310674905777,1.5546693801879883,0.46914923191070557,0.0,0.19167517125606537,0.015479720197618008,-1.2703826427459717,0.7176623344421387,0.0
27.500,0.145326629281044,-0.014916351863316128,1.378717486347471,0.481516889163426,0.0,0.1907468672309603,0.011300160549581051,-1.2709827763693673,0.7227774858474731,0.0
27.600,0.21822642534971237,0.027820403022425513,1.2027655925069536,0.49388454641614643,0.0,0.18981856320585525,0.007120600901544094,-1.271582909992763,0.7278926372528076,0.0
27.700,0.29112622141838074,0.07055715790816716,1.0268136986664365,0.5062522036688668,0.0,0.18889025918075017,0.0029410412535071373,-1.2721830436161585,0.7330077886581421,0.0
27.800,0.3640260174870491,0.1132939127939088,0.850861804825919,0.5186198609215873,0.0,0.1879619551556451,-0.0012385183945298195,-1.2727831772395544,0.7381229400634766,0.0
27.900,0.43692581355571747,0.15603066767965046,0.6749099109854017,0.5309875181743077,0.0,0.18703365113054002,-0.005418078042566776,-1.27338331086295,0.743238091468811,0.0
28.000,0.5098256096243858,0.1987674225653921,0.4989580171448844,0.543355175427028,0.0,0.18610534710543497,-0.009597637690603733,-1.2739834444863456,0.7483532428741455,0.0
28.100,0.5827254056930542,0.24150417745113373,0.32300612330436707,0.5557228326797485,0.0,0.1851770430803299,-0.01377719733864069,-1.2745835781097412,0.75346839427948,0.0
28.200,0.5871282815933228,0.23221170902252197,0.30695319175720215,0.5286337733268738,0.0,0.19007670879364014,-0.002924269298091531,-1.2753807306289673,0.7526019215583801,0.0
28.300,0.5796748995780945,0.23992811143398285,0.31371721625328064,0.5418039560317993,0.0,0.1817115694284439,-0.0013082749210298061,-1.271654486656189,0.7470928430557251,0.0
28.400,0.5786993503570557,0.24329832196235657,0.3206080198287964,0.5532291531562805,0.0,0.17008765041828156,-0.028037285432219505,-1.2790985107421875,0.8266291618347168,0.0
28.500,0.5608640909194946,0.2600446045398712,0.33273425698280334,0.5805449485778809,0.0,0.17159965634346008,-0.020611360669136047,-1.2764352560043335,0.8047143220901489,0.0
28.600,0.5615345372094048,0.2597642176681095,0.3331214388211568,0.580951558219062,0.0,0.19407125976350573,-0.07005515032344395,-1.079800761408276,0.8274801307254367,0.0
28.700,0.562204983499315,0.25948383079634774,0.3335086206595103,0.5813581678602431,0.0,0.21654286318355137,-0.11949893997775184,-0.8831662668122187,0.8502459393607246,0.0
28.800,0.5628754297892252,0.259203443924586,0.33389580249786377,0.5817647775014242,0.0,0.239014466603597,-0.16894272963205972,-0.6865317722161611,0.8730117479960123,0.0
28.900,0.5635458760791354,0.25892305705282426,0.3342829843362172,0.5821713871426053,0.0,0.26148607002364266,-0.21838651928636763,-0.4898972776201037,0.8957775566313002,0.0
29.000,0.5642163223690457,0.25864267018106246,0.33467016617457074,0.5825779967837863,0.0,0.2839576734436883,-0.2678303089406755,-0.29326278302404607,0.918543365266588,0.0
29.100,0.5648867686589559,0.2583622833093007,0.3350573480129242,0.5829846064249674,0.0,0.3064292768637339,-0.3172740985949834,-0.09662828842798876,0.9413091739018757,0.0
29.200,0.5655572149488661,0.258081896437539,0.33544452985127765,0.5833912160661485,0.0,0.32890088028377956,-0.3667178882492913,0.10000620616806888,0.9640749825371636,0.0
29.300,0.5662276612387763,0.25780150956577724,0.33583171168963116,0.5837978257073296,0.0,0.35137248370382523,-0.4161616779035992,0.2966407007641261,0.9868407911724515,0.0
29.400,0.5668981075286865,0.2575211226940155,0.3362188935279846,0.5842044353485107,0.0,0.37384408712387085,-0.4656054675579071,0.4932751953601837,1.0096065998077393,0.0
29.500,0.5566642880439758,0.2664647400379181,0.3416350185871124,0.5980179309844971,0.0,0.36550772190093994,-0.45691967010498047,0.48363733291625977,1.0263597965240479,0.0
29.600,0.5603035688400269,0.273358017206192,0.34982940554618835,0.6053364872932434,0.0,0.36550772190093994,-0.45691967010498047,0.48363733291625977,1.0263597965240479,0.0
29.700,0.5084444218211703,0.23829016793105337,0.4814793931113349,0.5943446093135409,0.0,0.3446667906310823,-0.40967556710044545,0.2871548467212253,1.0065094762378268,0.0
29.800,0.4565852748023139,0.20322231865591472,0.6131293806764815,0.5833527313338386,0.0,0.3238258593612247,-0.3624314640959104,0.09067236052619088,0.9866591559516059,0.0
29.900,0.40472612778345746,0.1681544693807761,0.7447793682416279,0.5723608533541361,0.0,0.3029849280913671,-0.31518736109137535,-0.10581012566884351,0.9668088356653849,0.0
30.000,0.352866980764601,0.13308662010563746,0.8764293558067745,0.5613689753744338,0.0,0.2821439968215095,-0.26794325808684033,-0.302292611863878,0.946958515379164,0.0
30.100,0.30100783374574447,0.09801877083049879,1.008079343371921,0.5503770973947313,0.0,0.26130306555165184,-0.22069915508230525,-0.4987750980589125,0.927108195092943,0.0
30.200,0.24914868672688806,0.06295092155536017,1.1397293309370675,0.5393852194150289,0.0,0.24046213428179425,-0.17345505207777023,-0.6952575842539468,0.907257874806722,0.0
30.300,0.19728953970803154,0.02788307228022152,1.2713793185022142,0.5283933414353265,0.0,0.2196212030119366,-0.1262109490732352,-0.8917400704489815,0.887407554520501,0.0
30.400,0.14543039268917513,-0.007184776994917097,1.4030293060673606,0.5174014634556241,0.0,0.198780271742079,-0.07896684606870019,-1.0882225566440158,0.8675572342342801,0.0
30.500,0.0935712456703186,-0.04225262627005577,1.5346792936325073,0.5064095854759216,0.0,0.17793934047222137,-0.031722743064165115,-1.2847050428390503,0.8477069139480591,0.0
30.600,0.09781631827354431,0.02491266094148159,1.528924822807312,0.5774914026260376,0.0,0.17060555517673492,-0.06227228790521622,-1.2877197265625,0.8763131499290466,0.0
30.700,0.10017691925168037,0.032375559443607926,1.5273865908384323,0.5797516703605652,0.0,0.1991198267787695,-0.11631729733198881,-1.0895387008786201,0.8901857510209084,0.0
30.800,0.10253752022981644,0.03983845794573426,1.5258483588695526,0.5820119380950928,0.0,0.22763409838080406,-0.1703623067587614,-0.8913576751947403,0.9040583521127701,0.0
30.900,0.1048981212079525,0.0473013564478606,1.524310126900673,0.5842722058296204,0.0,0.25614836998283863,-0.224407316185534,-0.6931766495108604,0.9179309532046318,0.0
31.000,0.10725872218608856,0.054764254949986935,1.5227718949317932,0.586532473564148,0.0,0.2846626415848732,-0.2784523256123066,-0.4949956238269806,0.9318035542964935,0.0
31.100,0.10961932316422462,0.06222715345211327,1.5212336629629135,0.5887927412986755,0.0,0.31317691318690777,-0.3324973350390792,-0.29681459814310074,0.9456761553883553,0.0
31.200,0.11197992414236069,0.0696900519542396,1.5196954309940338,0.5910530090332031,0.0,0.34169118478894234,-0.3865423444658518,-0.09863357245922089,0.959548756480217,0.0
31.300,0.11434052512049675,0.07715295045636594,1.5181571990251541,0.5933132767677307,0.0,0.3702054563909769,-0.4405873538926244,0.09954745322465897,0.9734213575720787,0.0
31.400,0.11670112609863281,0.08461584895849228,1.5166189670562744,0.5955735445022583,0.0,0.3987197279930115,-0.494632363319397,0.2977284789085388,0.9872939586639404,0.0
31.500,0.16275429063373142,0.13800663418240017,1.3500671436389287,0.6179882023069594,0.0,0.36654646860228646,-0.455683590637313,0.1020473771625095,0.9804473254415724,0.0
31.600,0.20880745516883004,0.19139741940630806,1.1835153202215831,0.6404028601116605,0.0,0.33437320921156144,-0.41673481795522904,-0.09363372458351982,0.9736006922192044,0.0
31.700,0.2548606197039286,0.24478820463021594,1.0169634968042374,0.6628175179163615,0.0,0.3021999498208364,-0.3777860452731451,-0.2893148263295491,0.9667540589968363,0.0
31.800,0.30091378423902726,0.29817898985412383,0.8504116733868917,0.6852321757210625,0.0,0.27002669043011135,-0.3388372725910611,-0.48499592807557845,0.9599074257744683,0.0
31.900,0.3469669487741258,0.3515697750780318,0.683859849969546,0.7076468335257636,0.0,0.23785343103938633,-0.29988849990897704,-0.6806770298216078,0.9530607925521003,0.0
32.000,0.39302011330922443,0.4049605603019396,0.5173080265522003,0.7300614913304646,0.0,0.20568017164866131,-0.2609397272268931,-0.876358131567637,0.9462141593297323,0.0
32.100,0.43907327784432304,0.45835134552584755,0.35075620313485456,0.7524761491351657,0.0,0.17350691225793627,-0.2219909545448091,-1.0720392333136666,0.9393675261073642,0.0
32.200,0.48512644237942165,0.5117421307497554,0.18420437971750903,0.7748908069398668,0.0,0.14133365286721122,-0.1830421818627252,-1.2677203350596957,0.9325208928849962,0.0
32.300,0.5311796069145203,0.5651329159736633,0.01765255630016327,0.7973054647445679,0.0,0.1091603934764862,-0.14409340918064117,-1.463401436805725,0.9256742596626282,0.0
32.400,0.4735664427280426,0.5690398216247559,0.07238291949033737,0.9222640991210938,0.0,0.11789035052061081,-0.16602563858032227,-1.4623404741287231,0.8969088196754456,0.0
32.500,0.45722625652949017,0.5554750992192162,0.15479318963156807,0.932920323477851,0.0,0.145963148938285,-0.2143341170416938,-1.26490913828214,0.9146115647421943,0.0
32.600,0.4408860703309377,0.5419103768136766,0.23720345977279875,0.9435765478346083,0.0,0.17403594735595915,-0.26264259550306535,-1.0674778024355571,0.932314309808943,0.0
32.700,0.42454588413238525,0.528345654408137,0.3196137299140294,0.9542327721913656,0.0,0.2021087457736333,-0.31095107396443683,-0.870046466588974,0.9500170548756918,0.0
32.800,0.4082056979338328,0.5147809320025973,0.4020240000552601,0.9648889965481229,0.0,0.23018154419130749,-0.35925955242580837,-0.672615130742391,0.9677197999424405,0.0
32.900,0.39186551173528034,0.5012162095970578,0.4844342701964908,0.97554522090488,0.0,0.25825434260898167,-0.4075680308871799,-0.47518379489580787,0.9854225450091891,0.0
33.000,0.3755253255367279,0.4876514871915182,0.5668445403377215,0.9862014452616373,0.0,0.2863271410266558,-0.4558765093485514,-0.27775245904922485,1.003125290075938,0.0
33.100,0.3591851393381755,0.47408676478597855,0.6492548104789522,0.9968576696183946,0.0,0.31439993944433,-0.5041849878099229,-0.08032112320264173,1.0208280351426866,0.0
33.200,0.34284495313962304,0.4605220423804389,0.7316650806201829,1.007513893975152,0.0,0.34247273786200416,-0.5524934662712945,0.11711021264394117,1.0385307802094355,0.0
33.300,0.32650476694107056,0.4469573199748993,0.8140753507614136,1.0181701183319092,0.0,0.37054553627967834,-0.600801944732666,0.3145415484905243,1.056233525276184,0.0
33.400,0.3322709873318672,0.44875822961330414,0.8163565844297409,1.0137992203235626,0.0,0.373653881251812,-0.5613378509879112,0.12153132259845734,1.04501873254776,0.0
33.500,0.3380372077226639,0.450559139251709,0.8186378180980682,1.009428322315216,0.0,0.3767622262239456,-0.5218737572431564,-0.07147890329360962,1.033803939819336,0.0
33.600,0.34380342811346054,0.45236004889011383,0.8209190517663956,1.0050574243068695,0.0,0.37987057119607925,-0.48240966349840164,-0.2644891291856766,1.0225891470909119,0.0
33.700,0.3495696485042572,0.4541609585285187,0.8232002854347229,1.000686526298523,0.0,0.3829789161682129,-0.44294556975364685,-0.45749935507774353,1.0113743543624878,0.0
33.800,0.3533526062965393,0.4573197141289711,0.8211521059274673,0.9888542741537094,0.0,0.40437350422143936,-0.49491848796606064,-0.277926467359066,0.9951224327087402,0.0
33.900,0.3571355640888214,0.4604784697294235,0.8191039264202118,0.9770220220088959,0.0,0.42576809227466583,-0.5468914061784744,-0.09835357964038849,0.9788705110549927,0.0
34.000,0.3609185218811035,0.46363722532987595,0.8170557469129562,0.9651897698640823,0.0,0.4471626803278923,-0.5988643243908882,0.08121930807828903,0.9626185894012451,0.0
34.100,0.3647014796733856,0.46679598093032837,0.8150075674057007,0.9533575177192688,0.0,0.4685572683811188,-0.650837242603302,0.26079219579696655,0.9463666677474976,0.0
34.200,0.4077080860733986,0.5226646810770035,0.6468018554151058,0.9379470944404602,0.0,0.4680757597088814,-0.6377733200788498,0.17876502685248852,0.9529917389154434,0.0
34.300,0.45071469247341156,0.5785333812236786,0.47859614342451096,0.9225366711616516,0.0,0.467594251036644,-0.6247093975543976,0.09673785790801048,0.9596168100833893,0.0
34.400,0.49372129887342453,0.6344020813703537,0.3103904314339161,0.907126247882843,0.0,0.4671127423644066,-0.6116454750299454,0.014710688963532448,0.9662418812513351,0.0
34.500,0.5367279052734375,0.6902707815170288,0.14218471944332123,0.8917158246040344,0.0,0.4666312336921692,-0.5985815525054932,-0.06731647998094559,0.972866952419281,0.0
34.600,0.4998911959784372,0.6387508852141244,0.3261326764311109,0.8543021764074054,0.0,0.47751544203077045,-0.6151516778128487,-0.026686372501509535,0.9608943717820304,0.0
34.700,0.4630544866834368,0.58723098891122,0.5100806334189005,0.8168885282107762,0.0,0.48839965036937166,-0.6317218031202044,0.013943734977926517,0.9489217911447797,0.0
34.800,0.42621777738843647,0.5357110926083156,0.6940285904066903,0.7794748800141471,0.0,0.4992838587079729,-0.64829192842756,0.054573842457362576,0.9369492105075291,0.0
34.900,0.3893810680934361,0.4841911963054112,0.87797654739448,0.7420612318175179,0.0,0.5101680670465741,-0.6648620537349156,0.09520394993679862,0.9249766298702785,0.0
35.000,0.35254435879843576,0.4326713000025068,1.0619245043822696,0.7046475836208889,0.0,0.5210522753851754,-0.6814321790422713,0.1358340574162347,0.9130040492330279,0.0
35.100,0.31570764950343544,0.38115140369960243,1.2458724613700594,0.6672339354242598,0.0,0.5319364837237767,-0.6980023043496268,0.17646416489567074,0.9010314685957772,0.0
35.200,0.27887094020843506,0.329631507396698,1.4298204183578491,0.6298202872276306,0.0,0.5428206920623779,-0.7145724296569824,0.2170942723751068,0.8890588879585266,0.0
35.300,0.32893815636634827,0.3418918251991272,1.442615270614624,0.5345011353492737,0.0,0.539815366268158,-0.716684103012085,0.14282096922397614,0.9933549761772156,0.0
35.400,0.4656892716884613,0.35514700412750244,1.3795921802520752,0.5136373043060303,0.0,0.587731659412384,-0.7690752744674683,0.11472051590681076,0.9685227870941162,0.0
35.500,0.4598444551229477,0.3354617953300476,1.4053068161010742,0.45986229181289673,0.0,0.6962875127792358,-0.816390722990036,0.1589677296578884,0.792740672826767,0.0
35.600,0.4539996385574341,0.3157765865325928,1.4310214519500732,0.4060872793197632,0.0,0.8048433661460876,-0.8637061715126038,0.20321494340896606,0.6169585585594177,0.0
35.700,0.4772982597351074,0.2926994562149048,1.4656109809875488,0.30643337965011597,0.0,0.909323513507843,-0.9173454642295837,0.18031081557273865,0.49521955847740173,0.0
35.800,0.4761083126068115,0.2381328046321869,1.5265796184539795,0.13993202149868011,0.0,1.0395201444625854,-0.9674786329269409,0.1994098424911499,0.30447158217430115,0.0
35.900,0.4650450199842453,0.18720700591802597,1.5619906187057495,0.019774675369262695,0.0,1.082998514175415,-0.9960963726043701,0.21828510612249374,0.23359324038028717,0.0
36.000,0.4539817273616791,0.13628120720386505,1.5974016189575195,-0.10038267076015472,0.0,1.1264768838882446,-1.0247141122817993,0.23716036975383759,0.1627148985862732,0.0
36.100,0.606202220916748,0.1894986391067505,1.4176964521408082,-0.09855731576681137,0.0,1.1367157697677612,-1.028629755973816,0.23526262044906615,0.15282557308673858,0.0
36.200,0.758422714471817,0.24271607100963594,1.2379912853240966,-0.09673196077346802,0.0,1.1469546556472778,-1.0325453996658325,0.23336487114429474,0.14293624758720397,0.0
36.300,0.910643208026886,0.29593350291252135,1.0582861185073853,-0.09490660578012466,0.0,1.1571935415267944,-1.0364610433578492,0.2314671218395233,0.13304692208766938,0.0
36.400,1.0628637015819549,0.3491509348154068,0.8785809516906737,-0.09308125078678131,0.0,1.167432427406311,-1.0403766870498656,0.2295693725347519,0.12315759658813477,0.0
36.500,1.215084195137024,0.40236836671829224,0.6988757848739624,-0.09125589579343796,0.0,1.1776713132858276,-1.0442923307418823,0.22767162322998047,0.11326827108860016,0.0
36.600,1.287047266960144,0.3607187271118164,0.691665917634964,-0.21795519813895226,0.0,1.2144108414649963,-0.9205411672592163,0.03966795653104782,0.06358952261507511,0.0
36.700,1.3590103387832642,0.3190690875053406,0.6844560503959656,-0.34465450048446655,0.0,1.251150369644165,-0.7967900037765503,-0.14833571016788483,0.013910774141550064,0.0
36.800,1.3049573227763176,0.27568252361379564,0.7590692564845085,-0.3711056634783745,0.0,1.138127911835909,-0.7046737386845052,-0.33677112869918346,-0.028208002913743258,0.0
36.900,1.250904306769371,0.2322959597222507,0.8336824625730515,-0.3975568264722824,0.0,1.0251054540276527,-0.6125574735924602,-0.5252065472304821,-0.07032677996903658,0.0
37.000,1.1968512907624245,0.18890939583070576,0.9082956686615944,-0.42400798946619034,0.0,0.9120829962193966,-0.5204412085004151,-0.7136419657617807,-0.1124455570243299,0.0
37.100,1.142798274755478,0.14552283193916082,0.9829088747501373,-0.45045915246009827,0.0,0.7990605384111404,-0.42832494340837,-0.9020773842930794,-0.15456433407962322,0.0
37.200,1.0887452587485313,0.10213626804761589,1.0575220808386803,-0.4769103154540062,0.0,0.6860380806028843,-0.33620867831632495,-1.090512802824378,-0.19668311113491654,0.0
37.300,1.0346922427415848,0.05874970415607095,1.1321352869272232,-0.5033614784479141,0.0,0.5730156227946281,-0.24409241322427988,-1.2789482213556767,-0.23880188819020987,0.0
37.400,0.9806392267346382,0.01536314026452601,1.2067484930157661,-0.529812641441822,0.0,0.459993164986372,-0.1519761481322348,-1.4673836398869753,-0.2809206652455032,0.0
37.500,0.9265862107276917,-0.02802342362701893,1.281361699104309,-0.55626380443573,0.0,0.34697070717811584,-0.05985988304018974,-1.655819058418274,-0.3230394423007965,0.0
37.600,1.1020973126093547,0.08107912416259447,1.0935062368710835,-0.509682685136795,0.0,0.3417738179365794,-0.05235102648536364,-1.6607788801193237,-0.3447733223438263,0.0
37.700,1.2776084144910176,0.19018167195220786,0.9056507746378581,-0.4631015658378601,0.0,0.3365769286950429,-0.044842169930537544,-1.6657387018203735,-0.3665072023868561,0.0
37.800,1.4531195163726807,0.2992842197418213,0.7177953124046326,-0.41652044653892517,0.0,0.33138003945350647,-0.03733331337571144,-1.6706985235214233,-0.38824108242988586,0.0
37.900,1.3390613943338394,0.2315827407874167,0.8779605776071548,-0.44795627146959305,0.0,0.3240021616220474,-0.0386801827698946,-1.6716199815273285,-0.3946605995297432,0.0
38.000,1.2250032722949982,0.1638812618330121,1.0381258428096771,-0.4793920964002609,0.0,0.3166242837905884,-0.04002705216407776,-1.6725414395332336,-0.4010801166296005,0.0
38.100,1.110945150256157,0.09617978287860751,1.1982911080121994,-0.5108279213309288,0.0,0.30924640595912933,-0.04137392155826092,-1.6734628975391388,-0.40749963372945786,0.0
38.200,0.9968870282173157,0.02847830392420292,1.3584563732147217,-0.5422637462615967,0.0,0.3018685281276703,-0.04272079095244408,-1.674384355545044,-0.4139191508293152,0.0
38.300,1.0574206113815308,0.045223135501146317,1.411493182182312,-0.537217915058136,0.0,0.32507556676864624,-0.07541581243276596,-1.6955151557922363,-0.4695558249950409,0.0
38.400,1.0264421701431274,0.12520894408226013,1.4028100967407227,-0.5217981934547424,0.0,0.3640044033527374,-0.14182540774345398,-1.73086678981781,-0.46341899037361145,0.0
38.500,1.1039409637451172,0.13659995794296265,1.4730404615402222,-0.5168934464454651,0.0,0.3986858129501343,-0.20402148365974426,-1.7619060277938843,-0.4429040849208832,0.0
38.600,1.1420366764068604,0.1601606011390686,1.5125569105148315,-0.4921512305736542,0.0,0.49802154302597046,-0.23384051024913788,-1.7258676290512085,-0.46808189153671265,0.0
38.700,0.9448253810405731,0.21166245639324188,1.7090390920639038,-0.5356763452291489,0.0,0.5059643387794495,-0.26071951538324356,-1.7435927391052246,-0.46785296499729156,0.0
38.800,0.7476140856742859,0.26316431164741516,1.905521273612976,-0.5792014598846436,0.0,0.5139071345329285,-0.28759852051734924,-1.7613178491592407,-0.4676240384578705,0.0
38.900,0.7486343582471212,0.2719097336133321,1.9091126124064128,-0.5827547311782837,0.0,0.7119235992431641,-0.3110107481479645,-1.590610384941101,-0.44193408886591595,0.0
39.000,0.7496546308199564,0.2806551555792491,1.9127039511998494,-0.5863080024719238,0.0,0.9099400639533997,-0.3344229757785797,-1.4199029207229614,-0.41624413927396137,0.0
39.100,0.7506749033927917,0.289400577545166,1.9162952899932861,-0.589861273765564,0.0,1.1079565286636353,-0.35783520340919495,-1.2491954565048218,-0.39055418968200684,0.0
39.200,0.7531057000160217,0.2992282509803772,1.9217698574066162,-0.5917560458183289,0.0,1.1257621049880981,-0.3498323857784271,-1.262614369392395,-0.41311293840408325,0.0
39.300,0.7687241435050964,0.3287718892097473,1.9598723649978638,-0.5886104106903076,0.0,1.1258054971694946,-0.3797338306903839,-1.276086449623108,-0.3759254217147827,0.0
39.400,0.7601006627082825,0.34190133213996887,1.9795833826065063,-0.6144152283668518,0.0,1.1408014297485352,-0.3698216378688812,-1.2865673303604126,-0.3965856730937958,0.0
39.500,0.7780055403709412,0.35885635018348694,2.0003719329833984,-0.6016272902488708,0.0,1.1409250497817993,-0.3805144727230072,-1.2903915643692017,-0.40555450320243835,0.0
39.600,0.7800624966621399,0.35684001445770264,2.002112865447998,-0.5987967252731323,0.0,1.145466923713684,-0.38007545471191406,-1.2949885129928589,-0.4043412506580353,0.0
39.700,0.783656895160675,0.3542225956916809,2.0371787548065186,-0.618068516254425,0.0,1.152120590209961,-0.3644932508468628,-1.2952957153320312,-0.42138028144836426,0.0
39.800,0.784331202507019,0.3684485852718353,2.0260801315307617,-0.5873810052871704,0.0,1.147260308265686,-0.37775012850761414,-1.296024203300476,-0.40207481384277344,0.0
39.900,0.7788052558898926,0.33414363861083984,2.0085055828094482,-0.6116358637809753,0.0,1.1427289247512817,-0.378179132938385,-1.2914493083953857,-0.40331441164016724,0.0
40.000,0.7688795924186707,0.29356470704078674,1.9774303436279297,-0.6141226887702942,0.0,1.1244771480560303,-0.36912769079208374,-1.269453763961792,-0.39867711067199707,0.0
40.100,0.767788290977478,0.2250203639268875,1.9466592073440552,-0.5843080282211304,0.0,1.1076586246490479,-0.3475673794746399,-1.2463017702102661,-0.3806997835636139,0.0
40.200,0.8500786125659943,0.19320952333509922,1.8244566917419434,-0.5788979381322861,0.0,0.9553633108735085,-0.3173171505331993,-1.3654097318649292,-0.4006500393152237,0.0
40.300,0.9323689341545105,0.16139868274331093,1.7022541761398315,-0.5734878480434418,0.0,0.803067997097969,-0.28706692159175873,-1.4845176935195923,-0.4206002950668335,0.0
40.400,1.0146592557430267,0.12958784215152264,1.5800516605377197,-0.5680777579545975,0.0,0.6507726833224297,-0.25681669265031815,-1.6036256551742554,-0.4405505508184433,0.0
40.500,1.096949577331543,0.09777700155973434,1.457849144935608,-0.5626676678657532,0.0,0.49847736954689026,-0.22656646370887756,-1.7227336168289185,-0.4605008065700531,0.0
40.600,1.0755888223648071,0.03478061780333519,1.4250637292861938,-0.5206066966056824,0.0,0.39776143431663513,-0.17057667672634125,-1.7449114322662354,-0.39854493737220764,0.0
40.700,1.1837723851203918,0.08199398685246706,1.2434028387069702,-0.49721965193748474,0.0,0.39930667728185654,-0.1397475153207779,-1.725065439939499,-0.38336561620235443,0.0
40.800,1.2919559478759766,0.12920735590159893,1.0617419481277466,-0.4738326072692871,0.0,0.40085192024707794,-0.10891835391521454,-1.7052194476127625,-0.3681862950325012,0.0
40.900,1.4001395106315613,0.1764207249507308,0.880081057548523,-0.4504455626010895,0.0,0.40239716321229935,-0.07808919250965118,-1.685373455286026,-0.353006973862648,0.0
41.000,1.508323073387146,0.22363409399986267,0.6984201669692993,-0.42705851793289185,0.0,0.40394240617752075,-0.04726003110408783,-1.6655274629592896,-0.3378276526927948,0.0
41.100,1.4470820426940918,0.20755967497825623,0.6610386967658997,-0.37550410628318787,0.0,0.42361754179000854,-0.025895848870277405,-1.6230257749557495,-0.2632373571395874,0.0
41.200,1.418031319975853,0.21565351262688637,0.6577584594488144,-0.34022484812885523,0.0,0.5262069180607796,-0.11488704942166805,-1.4335341695696115,-0.22402199171483517,0.0
41.300,1.3889805972576141,0.2237473502755165,0.6544782221317291,-0.3049455899745226,0.0,0.6287962943315506,-0.2038782499730587,-1.2440425641834736,-0.18480662629008293,0.0
41.400,1.3599298745393753,0.23184118792414665,0.6511979848146439,-0.26966633182018995,0.0,0.7313856706023216,-0.29286945052444935,-1.0545509587973356,-0.1455912608653307,0.0
41.500,1.3308791518211365,0.2399350255727768,0.6479177474975586,-0.23438707366585732,0.0,0.8339750468730927,-0.38186065107584,-0.8650593534111977,-0.10637589544057846,0.0
41.600,1.3018284291028976,0.24802886322140694,0.6446375101804733,-0.19910781551152468,0.0,0.9365644231438637,-0.47085185162723064,-0.6755677480250597,-0.06716053001582623,0.0
41.700,1.2727777063846588,0.2561227008700371,0.6413572728633881,-0.16382855735719204,0.0,1.0391537994146347,-0.5598430521786213,-0.48607614263892174,-0.02794516459107399,0.0
41.800,1.24372698366642,0.2642165385186672,0.6380770355463028,-0.1285492992028594,0.0,1.1417431756854057,-0.6488342527300119,-0.2965845372527838,0.011270200833678246,0.0
41.900,1.2146762609481812,0.27231037616729736,0.6347967982292175,-0.09327004104852676,0.0,1.2443325519561768,-0.7378254532814026,-0.10709293186664581,0.05048556625843048,0.0
42.000,1.2301398913065593,0.4137919942537943,0.4463239461183548,-0.021746958295504257,0.0,1.2071979840596516,-0.7178264260292053,-0.0912029134730498,0.09180673956871033,0.0
42.100,1.2456035216649373,0.5552736123402913,0.25785109400749207,0.04977612445751825,0.0,1.1700634161631267,-0.6978273987770081,-0.0753128950794538,0.13312791287899017,0.0
42.200,1.2610671520233154,0.6967552304267883,0.06937824189662933,0.12129920721054077,0.0,1.1329288482666016,-0.6778283715248108,-0.05942287668585777,0.17444908618927002,0.0
42.300,1.2082072496414185,0.7133142650127411,0.06682101264595985,0.14019721001386642,0.0,1.0806515216827393,-0.7785890102386475,0.10194933600723743,0.20945927500724792,0.0
42.400,1.1553473472595215,0.7298732995986938,0.06426378339529037,0.15909521281719208,0.0,1.028374195098877,-0.8793496489524841,0.26332154870033264,0.24446946382522583,0.0
42.500,1.0468145608901978,0.7140479683876038,0.039299435913562775,0.23224970698356628,0.0,0.9413557052612305,-0.8338983058929443,0.27049651741981506,0.34086424112319946,0.0
42.600,0.9476001858711243,0.6634109616279602,0.07283443957567215,0.3080140948295593,0.0,0.8482120633125305,-0.8211461901664734,0.3153335154056549,0.43922358751296997,0.0
42.700,0.8604529500007629,0.6301316022872925,0.05509187653660774,0.41191771626472473,0.0,0.7645232677459717,-0.8186807632446289,0.35292983055114746,0.48776528239250183,0.0
42.800,0.7929850816726685,0.5730741620063782,0.025509750470519066,0.4692142605781555,0.0,0.6925020217895508,-0.7574073076248169,0.34660443663597107,0.5964077115058899,0.0
42.900,0.7545037269592285,0.37864506244659424,0.2127360999584198,0.4242984354496002,0.0,0.6456511616706848,-0.709051251411438,0.37504732608795166,0.6505885124206543,0.0
43.000,0.7208308577537537,0.338966429233551,0.19619695842266083,0.4506048262119293,0.0,0.5634981989860535,-0.6698510646820068,0.4198828339576721,0.752128541469574,0.0
43.100,0.7120392680168152,0.33842105865478517,0.19710607528686525,0.46357845067977904,0.0,0.5406905293464661,-0.6091522455215455,0.25181296467781067,0.7824578523635864,0.0
43.200,0.7032476782798767,0.3378756880760193,0.19801519215106964,0.47655207514762876,0.0,0.5178828597068786,-0.548453426361084,0.08374309539794922,0.8127871632575989,0.0
43.300,0.6944560885429383,0.3373303174972534,0.19892430901527405,0.48952569961547854,0.0,0.4950751900672913,-0.4877546072006226,-0.08432677388191223,0.8431164741516113,0.0
43.400,0.6856644988059998,0.33678494691848754,0.19983342587947844,0.5024993240833282,0.0,0.47226752042770387,-0.4270557880401611,-0.2523966431617737,0.8734457850456238,0.0
43.500,0.6768729090690613,0.3362395763397217,0.20074254274368286,0.515472948551178,0.0,0.44945985078811646,-0.3663569688796997,-0.42046651244163513,0.9037750959396362,0.0
43.600,0.6714756687482198,0.3219372828801473,0.22588784992694855,0.5197624564170837,0.0,0.4016448234518369,-0.3236612689991792,-0.589407796661059,0.8818510472774506,0.0
43.700,0.6660784284273783,0.30763498942057294,0.25103315711021423,0.5240519642829895,0.0,0.35382979611555737,-0.2809655691186587,-0.7583490808804829,0.8599269986152649,0.0
43.800,0.6606811881065369,0.29333269596099854,0.2761784642934799,0.5283414721488953,0.0,0.3060147687792778,-0.2382698692381382,-0.9272903650999069,0.8380029499530792,0.0
43.900,0.6552839477856954,0.27903040250142414,0.3013237714767456,0.532630980014801,0.0,0.2581997414429983,-0.1955741693576177,-1.0962316493193307,0.8160789012908936,0.0
44.000,0.6498867074648539,0.26472810904184974,0.3264690786600113,0.5369204878807068,0.0,0.2103847141067187,-0.15287846947709718,-1.265172933538755,0.7941548526287079,0.0
44.100,0.6444894671440125,0.2504258155822754,0.351614385843277,0.5412099957466125,0.0,0.16256968677043915,-0.11018276959657669,-1.4341142177581787,0.7722308039665222,0.0
44.200,0.593248724937439,0.2635749578475952,0.35133516788482666,0.5827468633651733,0.0,0.16163723170757294,-0.17182020843029022,-1.3829865455627441,0.9423125982284546,0.0
44.300,0.5693971514701843,0.27481675148010254,0.3537052571773529,0.6026634573936462,0.0,0.1301644742488861,-0.17187783122062683,-1.4283968210220337,0.9493276476860046,0.0
44.400,0.5616887509822845,0.2757122963666916,0.35760560631752014,0.6199289560317993,0.0,0.15868864208459854,-0.21032480150461197,-1.2322138547897339,1.0123016685247421,0.0
44.500,0.5539803504943848,0.27660784125328064,0.3615059554576874,0.6371944546699524,0.0,0.18721280992031097,-0.2487717717885971,-1.036030888557434,1.0752756893634796,0.0
44.600,0.546271950006485,0.2775033861398697,0.3654063045978546,0.6544599533081055,0.0,0.2157369777560234,-0.28721874207258224,-0.8398479223251343,1.138249710202217,0.0
44.700,0.5385635495185852,0.27839893102645874,0.36930665373802185,0.6717254519462585,0.0,0.24426114559173584,-0.3256657123565674,-0.6436649560928345,1.2012237310409546,0.0
44.800,0.46856051683425903,0.242977574467659,0.3416915237903595,0.7194631695747375,0.0,0.148677259683609,-0.33408835530281067,-0.723788321018219,1.3929272890090942,0.0
44.900,0.4540407061576843,0.24140790104866028,0.34693512320518494,0.7486460208892822,0.0,0.21697363257408142,-0.28548625111579895,-0.6623659133911133,1.2619930505752563,0.0
45.000,0.4262707531452179,0.26492610573768616,0.36402422189712524,0.7954953908920288,0.0,0.17462293803691864,-0.30693885684013367,-0.7150664329528809,1.3642780780792236,0.0
45.100,0.4209841539462407,0.3101648936669032,0.31570067753394443,0.8338359594345093,0.0,0.21489785363276798,-0.3569064388672511,-0.5315846155087154,1.2944572667280834,0.0
45.200,0.4156975547472636,0.3554036815961202,0.26737713317076367,0.8721765279769897,0.0,0.2551727692286173,-0.40687402089436847,-0.3481027980645498,1.2246364553769429,0.0
45.300,0.41041095554828644,0.4006424695253372,0.21905358880758286,0.9105170965194702,0.0,0.2954476848244667,-0.4568416029214859,-0.16462098062038422,1.1548156440258026,0.0
45.400,0.40512435634930927,0.4458812574545542,0.17073004444440207,0.9488576650619507,0.0,0.33572260042031604,-0.5068091849486033,0.018860836823781257,1.0849948326746623,0.0
45.500,0.39983775715033215,0.4911200453837713,0.12240650008122125,0.9871982336044312,0.0,0.37599751601616543,-0.5567767669757208,0.20234265426794695,1.0151740213235219,0.0
45.600,0.394551157951355,0.5363588333129883,0.07408295571804047,1.0255388021469116,0.0,0.41627243161201477,-0.6067443490028381,0.3858244717121124,0.9453532099723816,0.0
45.700,0.36384913697838783,0.49474967867136,0.21985139697790146,0.993150269985199,0.0,0.3842354275286198,-0.5541565023362637,0.19649857580661773,0.927922910451889,0.0
45.800,0.3331471160054207,0.45314052402973176,0.36561983823776245,0.9607617378234863,0.0,0.3521984234452248,-0.5015686556696892,0.007172679901123025,0.9104926109313964,0.0
45.900,0.30244509503245354,0.4115313693881035,0.5113882794976234,0.9283732056617737,0.0,0.32016141936182974,-0.4489808090031147,-0.18215321600437162,0.893062311410904,0.0
46.000,0.2717430740594864,0.36992221474647524,0.6571567207574844,0.8959846735000611,0.0,0.28812441527843474,-0.3963929623365402,-0.3714791119098664,0.8756320118904114,0.0
46.100,0.24104105308651924,0.32831306010484695,0.8029251620173454,0.8635961413383484,0.0,0.25608741119503975,-0.34380511566996574,-0.560805007815361,0.8582017123699188,0.0
46.200,0.2103390321135521,0.28670390546321867,0.9486936032772064,0.8312076091766357,0.0,0.22405040711164476,-0.2912172690033913,-0.7501309037208557,0.8407714128494262,0.0
46.300,0.17963701114058495,0.24509475082159043,1.0944620445370674,0.798819077014923,0.0,0.19201340302824976,-0.23862942233681683,-0.9394567996263503,0.8233411133289337,0.0
46.400,0.1489349901676178,0.20348559617996215,1.2402304857969284,0.7664305448532105,0.0,0.15997639894485471,-0.18604157567024227,-1.1287826955318452,0.8059108138084412,0.0
46.500,0.11823296919465065,0.16187644153833386,1.3859989270567894,0.7340420126914977,0.0,0.12793939486145972,-0.1334537290036678,-1.3181085914373398,0.7884805142879486,0.0
46.600,0.0875309482216835,0.12026728689670563,1.5317673683166504,0.7016534805297852,0.0,0.09590239077806473,-0.08086588233709335,-1.5074344873428345,0.771050214767456,0.0
46.700,0.08910947889089585,0.11420821808278561,1.5304640531539917,0.6954987108707428,0.0,0.12878707721829413,-0.12447546347975731,-1.3271203935146332,0.7892122805118561,0.0
46.800,0.09068800956010818,0.10814914926886558,1.529160737991333,0.6893439412117004,0.0,0.16167176365852357,-0.16808504462242127,-1.1468062996864319,0.8073743462562561,0.0
46.900,0.09226654022932053,0.10209008045494557,1.5278574228286743,0.6831891715526581,0.0,0.19455645009875297,-0.21169462576508521,-0.9664922058582306,0.8255364120006561,0.0
47.000,0.09384507089853286,0.09603101164102554,1.5265541076660156,0.6770344018936157,0.0,0.2274411365389824,-0.2553042069077492,-0.7861781120300293,0.8436984777450561,0.0
47.100,0.09542360156774521,0.08997194282710552,1.525250792503357,0.6708796322345734,0.0,0.2603258229792118,-0.29891378805041313,-0.605864018201828,0.8618605434894562,0.0
47.200,0.09700213223695756,0.0839128740131855,1.5239474773406982,0.664724862575531,0.0,0.2932105094194412,-0.3425233691930771,-0.4255499243736267,0.8800226092338562,0.0
47.300,0.09858066290616989,0.07785380519926549,1.5226441621780396,0.6585700929164886,0.0,0.3260951958596706,-0.386132950335741,-0.24523583054542542,0.8981846749782563,0.0
47.400,0.10015919357538224,0.07179473638534545,1.5213408470153809,0.6524153232574463,0.0,0.3589798822999001,-0.429742531478405,-0.06492173671722412,0.9163467407226562,0.0
47.500,0.10173772424459457,0.06573566757142543,1.5200375318527222,0.646260553598404,0.0,0.3918645687401295,-0.47335211262106897,0.11539235711097717,0.9345088064670563,0.0
47.600,0.10331625491380692,0.05967659875750542,1.5187342166900635,0.6401057839393616,0.0,0.4247492551803589,-0.5169616937637329,0.29570645093917847,0.9526708722114563,0.0
47.700,0.08859958499670029,-0.028566524386405945,1.5364360809326172,0.5391415357589722,0.0,0.39315125346183777,-0.48180317878723145,0.2716062664985657,1.0159233808517456,0.0
47.800,0.16258874411384264,0.017302003999551133,1.337423712015152,0.5571666657924652,0.0,0.39131612082322437,-0.4818536589543025,0.2747589846452077,1.0155497590700786,0.0
47.900,0.236577903230985,0.06317053238550821,1.1384113430976868,0.5751917958259583,0.0,0.389480988184611,-0.4819041391213735,0.2779117027918498,1.0151761372884114,0.0
48.000,0.31056706234812737,0.1090390607714653,0.9393989741802216,0.5932169258594513,0.0,0.3876458555459976,-0.4819546192884445,0.2810644209384918,1.0148025155067444,0.0
48.100,0.3845562214652697,0.15490758915742237,0.7403866052627563,0.6112420558929443,0.0,0.3858107229073842,-0.48200509945551556,0.28421713908513385,1.0144288937250774,0.0
48.200,0.4585453805824121,0.20077611754337948,0.5413742363452911,0.6292671859264374,0.0,0.38397559026877087,-0.48205557962258655,0.28736985723177594,1.0140552719434102,0.0
48.300,0.5325345396995544,0.24664464592933655,0.3423618674278259,0.6472923159599304,0.0,0.38214045763015747,-0.4821060597896576,0.29052257537841797,1.0136816501617432,0.0
48.400,0.5413082242012024,0.24180538952350616,0.3303290605545044,0.6159711480140686,0.0,0.3881329894065857,-0.47231942415237427,0.29241371154785156,1.0122370719909668,0.0
48.500,0.5254018306732178,0.24776911735534668,0.33447855710983276,0.6362435221672058,0.0,0.3640494644641876,-0.4578990340232849,0.26874423027038574,1.056489109992981,0.0
48.600,0.526763841509819,0.24516008608043194,0.3322654478251934,0.632740892469883,0.0,0.33866058103740215,-0.41015911754220724,0.0740431696176529,1.0376249253749847,0.0
48.700,0.5281258523464203,0.2425510548055172,0.33005233854055405,0.6292382627725601,0.0,0.3132716976106167,-0.36241920106112957,-0.12065789103507996,1.0187607407569885,0.0
48.800,0.5294878631830215,0.23994202353060246,0.3278392292559147,0.6257356330752373,0.0,0.2878828141838312,-0.3146792845800519,-0.3153589516878128,0.9998965561389923,0.0
48.900,0.5308498740196228,0.2373329922556877,0.32562611997127533,0.6222330033779144,0.0,0.26249393075704575,-0.26693936809897423,-0.5100600123405457,0.9810323715209961,0.0
49.000,0.5322118848562241,0.23472396098077297,0.32341301068663597,0.6187303736805916,0.0,0.23710504733026028,-0.21919945161789656,-0.7047610729932785,0.9621681869029999,0.0
49.100,0.5335738956928253,0.23211492970585823,0.3211999014019966,0.6152277439832687,0.0,0.2117161639034748,-0.17145953513681889,-0.8994621336460114,0.9433040022850037,0.0
49.200,0.5349359065294266,0.2295058984309435,0.31898679211735725,0.6117251142859459,0.0,0.18632728047668934,-0.12371961865574121,-1.0941631942987442,0.9244398176670074,0.0
49.300,0.5362979173660278,0.22689686715602875,0.3167736828327179,0.608222484588623,0.0,0.16093839704990387,-0.07597970217466354,-1.288864254951477,0.9055756330490112,0.0
49.400,0.5299350619316101,0.22575561702251434,0.31901249289512634,0.62090665102005,0.0,0.15224669873714447,-0.0939643383026123,-1.2934324741363525,0.9562045931816101,0.0
49.500,0.5254572629928589,0.22865885868668556,0.32259656488895416,0.6304618120193481,0.0,0.18598471209406853,-0.13198437169194221,-1.1150112450122833,0.9894773811101913,0.0
49.600,0.5209794640541077,0.23156210035085678,0.326180636882782,0.6400169730186462,0.0,0.21972272545099258,-0.17000440508127213,-0.9365900158882141,1.0227501690387726,0.0
49.700,0.5165016651153564,0.234465342015028,0.3297647088766098,0.6495721340179443,0.0,0.25346073880791664,-0.20802443847060204,-0.7581687867641449,1.0560229569673538,0.0
49.800,0.5120238661766052,0.23736858367919922,0.3333487808704376,0.6591272950172424,0.0,0.2871987521648407,-0.24604447185993195,-0.5797475576400757,1.089295744895935,0.0
49.900,0.5076363235712051,0.2372775822877884,0.33394378423690796,0.6653201431035995,0.0,0.25176072865724564,-0.2082324530929327,-0.7589188516139984,1.0659506916999817,0.0
50.000,0.503248780965805,0.23718658089637756,0.3345387876033783,0.6715129911899567,0.0,0.21632270514965057,-0.17042043432593346,-0.9380901455879211,1.0426056385040283,0.0
50.100,0.49886123836040497,0.23709557950496674,0.33513379096984863,0.6777058392763138,0.0,0.1808846816420555,-0.1326084155589342,-1.1172614395618439,1.019260585308075,0.0
50.200,0.4944736957550049,0.2370045781135559,0.33572879433631897,0.6838986873626709,0.0,0.14544665813446045,-0.09479639679193497,-1.2964327335357666,0.9959155321121216,0.0
50.300,0.49158552289009094,0.23464860022068024,0.34041330218315125,0.6998756527900696,0.0,0.14207084476947784,-0.10695207118988037,-1.3005361557006836,1.0289288759231567,0.0
50.400,0.5045213103294373,0.2177249640226364,0.3355100750923157,0.6920456290245056,0.0,0.14438779652118683,-0.10490234941244125,-1.303152084350586,1.0413988828659058,0.0
50.500,0.48649922013282776,0.2331240326166153,0.34403011202812195,0.7150772213935852,0.0,0.15486913919448853,-0.07420439273118973,-1.2947471141815186,0.9672043323516846,0.0
50.600,0.49035608768463135,0.23172131180763245,0.34630656242370605,0.7174648642539978,0.0,0.15486913919448853,-0.07420439273118973,-1.2947471141815186,0.9672043323516846,0.0
50.700,0.495512992143631,0.23320530354976654,0.342685729265213,0.7021840810775757,0.0,0.1595005989074707,-0.06450145691633224,-1.2922141551971436,0.9403789639472961,0.0
50.800,0.521303117275238,0.223367378115654,0.34405648708343506,0.6873319149017334,0.0,0.16917626559734344,-0.033323176205158234,-1.2847487926483154,0.871729850769043,0.0
50.900,0.5086668133735657,0.24562792479991913,0.36114969849586487,0.7183522582054138,0.0,0.17449289560317993,-0.04655080661177635,-1.2885963916778564,0.8804029822349548,0.0
51.000,0.5091711613867018,0.24620510472191703,0.3616260786851247,0.7183732853995429,0.0,0.20214205649163988,-0.0960662133163876,-1.109451711177826,0.8882905973328484,0.0
51.100,0.509675509399838,0.24678228464391497,0.3621024588743846,0.718394312593672,0.0,0.22979121738009983,-0.14558162002099884,-0.9303070306777954,0.896178212430742,0.0
51.200,0.510179857412974,0.24735946456591287,0.3625788390636444,0.7184153397878011,0.0,0.25744037826855976,-0.19509702672561008,-0.7511623501777649,0.9040658275286356,0.0
51.300,0.5106842054261101,0.2479366444879108,0.36305521925290424,0.7184363669819303,0.0,0.28508953915701973,-0.24461243343022132,-0.5720176696777344,0.9119534426265292,0.0
51.400,0.5111885534392463,0.2485138244099087,0.3635315994421641,0.7184573941760592,0.0,0.31273870004547966,-0.2941278401348326,-0.39287298917770386,0.9198410577244229,0.0
51.500,0.5116929014523824,0.24909100433190665,0.36400797963142395,0.7184784213701884,0.0,0.3403878609339396,-0.3436432468394438,-0.21372830867767334,0.9277286728223165,0.0
51.600,0.5121972494655185,0.24966818425390455,0.3644843598206838,0.7184994485643175,0.0,0.36803702182239956,-0.3931586535440551,-0.03458362817764282,0.9356162879202101,0.0
51.700,0.5127015974786546,0.2502453641759025,0.36496074000994366,0.7185204757584466,0.0,0.39568618271085954,-0.4426740602486663,0.1445610523223877,0.9435039030181037,0.0
51.800,0.5132059454917908,0.2508225440979004,0.3654371201992035,0.7185415029525757,0.0,0.42333534359931946,-0.4921894669532776,0.3237057328224182,0.9513915181159973,0.0
51.900,0.5141695663332939,0.24935427121818066,0.3635232150554657,0.7144356593489647,0.0,0.39548356272280216,-0.4326587920077145,0.12389523535966873,0.9207565858960152,0.0
52.000,0.5151331871747971,0.24788599833846092,0.3616093099117279,0.7103298157453537,0.0,0.36763178184628487,-0.37312811706215143,-0.07591526210308075,0.890121653676033,0.0
52.100,0.5160968080163002,0.2464177254587412,0.3596954047679901,0.7062239721417427,0.0,0.33978000096976757,-0.31359744211658835,-0.27572575956583023,0.8594867214560509,0.0
52.200,0.5170604288578033,0.24494945257902145,0.3577814996242523,0.7021181285381317,0.0,0.3119282200932503,-0.2540667671710253,-0.4755362570285797,0.8288517892360687,0.0
52.300,0.5180240496993065,0.24348117969930172,0.3558675944805145,0.6980122849345207,0.0,0.284076439216733,-0.1945360922254622,-0.6753467544913292,0.7982168570160866,0.0
52.400,0.5189876705408096,0.24201290681958199,0.35395368933677673,0.6939064413309097,0.0,0.2562246583402157,-0.13500541727989912,-0.8751572519540787,0.7675819247961044,0.0
52.500,0.5199512913823128,0.24054463393986225,0.35203978419303894,0.6898005977272987,0.0,0.2283728774636984,-0.07547474233433604,-1.0749677494168282,0.7369469925761223,0.0
52.600,0.5209149122238159,0.23907636106014252,0.35012587904930115,0.6856947541236877,0.0,0.2005210965871811,-0.015944067388772964,-1.2747782468795776,0.7063120603561401,0.0
52.700,0.539280891418457,0.20794285833835602,0.3220619261264801,0.6355888843536377,0.0,0.20229187607765198,0.0019672883208841085,-1.2713338136672974,0.6834040284156799,0.0
52.800,0.5369704961776733,0.19864337146282196,0.31226858496665955,0.6272932887077332,0.0,0.19840848445892334,-0.015534934587776661,-1.2738240957260132,0.7048799395561218,0.0
