maximpopov11/Real-Steel/ros_ws/angles.csv
timestamp,left_shoulder_pitch_joint,left_shoulder_roll_joint,left_shoulder_yaw_joint,left_elbow_joint,right_shoulder_pitch_joint,right_shoulder_roll_joint,right_shoulder_yaw_joint,right_elbow_joint
0.000,1.0508943796157837,0.2331535965204239,1.1452196836471558,0.09998471289873123,0.0,0.9162395596504211,-0.27948397397994995,-1.03190279006958,0.18718083202838898,0.0
0.100,0.9442358314990997,0.1959555745124817,1.2672162055969238,0.10204143822193146,0.0,0.9158258438110352,-0.347591295838356,-0.8437170088291168,0.12816043198108673,0.0
0.200,0.8375772833824158,0.1587575525045395,1.389212727546692,0.10409816354513168,0.0,0.9154121279716492,-0.4156986176967621,-0.6555312275886536,0.06914003193378448,0.0
0.300,0.7752143025398255,0.13315031491219997,1.4144921779632569,0.047392189502716064,0.0,0.7370538033545018,-0.32735655792057516,-0.8064537048339844,0.030335916578769682,0.0
0.400,0.7128513216972351,0.10754307731986046,1.4397716283798219,-0.009313784539699554,0.0,0.5586954787373543,-0.2390144981443882,-0.9573761820793152,-0.00846819877624512,0.0
0.500,0.6504883408546448,0.08193583972752094,1.4650510787963866,-0.06601975858211517,0.0,0.38033715412020686,-0.15067243836820127,-1.108298659324646,-0.047272314131259915,0.0
0.600,0.5881253600120544,0.05632860213518143,1.4903305292129516,-0.12272573262453079,0.0,0.20197882950305934,-0.06233037859201429,-1.2592211365699768,-0.08607642948627472,0.0
0.700,0.5257623791694641,0.03072136454284191,1.5156099796295166,-0.1794317066669464,0.0,0.02362050488591194,0.02601168118417263,-1.4101436138153076,-0.12488054484128952,0.0
0.800,0.597251707315445,0.11354456376284361,1.3373246490955353,-0.1468646302819252,0.0,0.07279789336025716,-0.07915692124515772,-1.226595675945282,-0.09076075330376625,0.0
0.900,0.6687410354614258,0.1963677629828453,1.159039318561554,-0.11429755389690399,0.0,0.12197528183460236,-0.18432552367448807,-1.0430477380752563,-0.056640961766242975,0.0
1.000,0.7402303636074066,0.279190962202847,0.9807539880275726,-0.08173047751188278,0.0,0.17115267030894757,-0.2894941261038184,-0.8594998002052308,-0.022521170228719717,0.0
1.100,0.8117196917533875,0.3620141614228487,0.8024686574935913,-0.04916340112686157,0.0,0.2203300587832928,-0.39466272853314877,-0.675951862335205,0.01159862130880357,0.0
1.200,0.8832090198993683,0.4448373606428504,0.62418332695961,-0.016596324741840363,0.0,0.269507447257638,-0.4998313309624791,-0.49240392446517944,0.04571841284632683,0.0
1.300,0.954698348045349,0.5276605598628521,0.44589799642562866,0.015970751643180847,0.0,0.3186848357319832,-0.6049999333918095,-0.3088559865951539,0.07983820438385009,0.0
1.400,1.0261876761913298,0.6104837590828538,0.26761266589164734,0.04853782802820203,0.0,0.36786222420632836,-0.7101685358211398,-0.12530804872512835,0.11395799592137335,0.0
1.500,1.097677004337311,0.6933069583028555,0.08932733535766602,0.08110490441322327,0.0,0.41703961268067363,-0.8153371382504702,0.05823988914489764,0.14807778745889666,0.0
1.600,1.1691663324832917,0.7761301575228572,-0.08895799517631531,0.11367198079824448,0.0,0.4662170011550188,-0.9205057406798005,0.24178782701492318,0.18219757899641992,0.0
1.700,1.2406556606292725,0.8589533567428589,-0.26724332571029663,0.14623905718326569,0.0,0.515394389629364,-1.0256743431091309,0.42533576488494873,0.21631737053394318,0.0
1.800,1.206742238998413,0.7197905361652375,-0.13541586995124816,0.18549895882606507,0.0,0.5164655566215515,-0.8511931627988816,0.2625246703624725,0.1894590064883232,0.0
1.900,1.1728288173675536,0.580627715587616,-0.003588414192199685,0.22475886046886445,0.0,0.517536723613739,-0.6767119824886322,0.0997135758399963,0.16260064244270325,0.0
2.000,1.1389153957366944,0.44146489500999453,0.12823904156684873,0.2640187621116638,0.0,0.5186078906059265,-0.5022308021783829,-0.06309751868247981,0.1357422783970833,0.0
2.100,1.105001974105835,0.302302074432373,0.26006649732589726,0.3032786637544632,0.0,0.5196790575981141,-0.3277496218681335,-0.22590861320495614,0.10888391435146332,0.0
2.200,1.0710885524749756,0.1631392538547516,0.3918939530849457,0.3425385653972626,0.0,0.5207502245903015,-0.15326844155788422,-0.38871970772743225,0.08202555030584335,0.0
2.300,1.0436258713404338,0.23919952909151712,0.25162874472637975,0.2890779872735341,0.0,0.5241514046986898,-0.12393863002459209,-0.37485097845395404,0.0907808393239975,0.0
2.400,1.0161631902058919,0.31525980432828266,0.11136353636781376,0.23561740914980572,0.0,0.527552584807078,-0.09460881849129996,-0.3609822491804759,0.09953612834215164,0.0
2.500,0.9887005090713501,0.3913200795650482,-0.02890167199075222,0.18215683102607727,0.0,0.5309537649154663,-0.06527900695800781,-0.3471135199069977,0.10829141736030579,0.0
2.600,0.9557627439498901,0.2921997010707855,-0.048831112682819366,0.2532074749469757,0.0,0.5132633447647095,-0.01745843142271042,-0.3275681138038635,0.15791018307209015,0.0
2.700,0.9699910879135132,0.27151920398076373,-0.07573143144448598,0.3158896466096242,0.0,0.5638370513916016,-0.11555467545986176,-0.17069633305072784,0.19570215543111164,0.0
2.800,0.9842194318771362,0.250838706890742,-0.10263175020615259,0.3785718182722727,0.0,0.6144107580184937,-0.2136509194970131,-0.013824552297592163,0.23349412779013315,0.0
2.900,0.9984477758407593,0.23015820980072021,-0.1295320689678192,0.44125398993492126,0.0,0.6649844646453857,-0.31174716353416443,0.14304722845554352,0.27128610014915466,0.0
3.000,0.953494668006897,0.21849951148033142,-0.1858222931623459,0.45531776547431946,0.0,0.6632060408592224,-0.22158846259117126,0.14547866582870483,0.31812697649002075,0.0
3.100,0.9568731784820557,0.11938600707799196,-0.16521655023097992,0.5501919537782669,0.0,0.7383214235305786,-0.07006807252764702,-0.025351867079734802,0.508291095495224,0.0
3.200,0.9602516889572144,0.020272502675652504,-0.14461080729961395,0.6450661420822144,0.0,0.8134368062019348,0.08145231753587723,-0.19618239998817444,0.6984552145004272,0.0
3.300,0.8976358771324158,0.20724583293000856,-0.3020560840765635,0.632972002029419,0.0,0.8132639328638712,-0.028055230776468904,-0.038198192914326995,0.6825335224469503,0.0
3.400,0.8350200653076172,0.3942191631843646,-0.45950136085351306,0.6208778619766235,0.0,0.8130910595258077,-0.13756277908881503,0.11978601415952045,0.6666118303934733,0.0
3.500,0.7724042534828186,0.5811924934387207,-0.6169466376304626,0.6087837219238281,0.0,0.8129181861877441,-0.2470703274011612,0.2777702212333679,0.6506901383399963,0.0
3.600,0.8323899656534195,0.4484662804752588,-0.4224778860807419,0.5939682573080063,0.0,0.8113012760877609,-0.27966680005192757,0.26849744468927383,0.6069027632474899,0.0
3.700,0.8923756778240204,0.31574006751179695,-0.22800913453102112,0.5791527926921844,0.0,0.8096843659877777,-0.31226327270269394,0.25922466814517975,0.5631153881549835,0.0
3.800,0.9523613899946213,0.18301385454833508,-0.033540382981300354,0.5643373280763626,0.0,0.8080674558877945,-0.3448597453534603,0.24995189160108566,0.5193280130624771,0.0
3.900,1.0123471021652222,0.0502876415848732,0.1609283685684204,0.5495218634605408,0.0,0.8064505457878113,-0.3774562180042267,0.24067911505699158,0.4755406379699707,0.0
4.000,1.0183126330375671,0.07245663739740849,0.15228340029716492,0.5461210161447525,0.0,0.7976929992437363,-0.2801854512654245,0.08021384477615356,0.42146800458431244,0.0
4.100,1.024278163909912,0.09462563320994377,0.14363843202590942,0.5427201688289642,0.0,0.7889354526996613,-0.1829146845266223,-0.08025142550468445,0.3673953711986542,0.0
4.200,1.030243694782257,0.11679462902247906,0.13499346375465393,0.539319321513176,0.0,0.7801779061555862,-0.0856439177878201,-0.24071669578552246,0.3133227378129959,0.0
4.300,1.036209225654602,0.13896362483501434,0.12634849548339844,0.5359184741973877,0.0,0.7714203596115112,0.011626848950982094,-0.4011819660663605,0.25925010442733765,0.0
4.400,1.0418336987495422,0.2673867270350456,-0.030170470476150513,0.4727056324481964,0.0,0.7077939510345459,-0.024339432828128338,-0.39020176231861115,0.18975147232413292,0.0
4.500,1.0474581718444824,0.3958098292350769,-0.18668943643569946,0.4094927906990051,0.0,0.6441675424575806,-0.06030571460723877,-0.3792215585708618,0.12025284022092819,0.0
4.600,1.0133030414581299,0.5033460259437561,-0.12363306432962418,0.2184545397758484,0.0,0.6004636883735657,-0.1264733076095581,-0.39711272716522217,0.08377957344055176,0.0
4.700,0.9845565557479858,0.3821973502635956,0.05832885578274727,0.15629491582512856,0.0,0.6862654089927673,-0.13100668042898178,-0.41607666015625,0.051192451268434525,0.0
4.800,0.9558100700378418,0.26104867458343506,0.2402907758951187,0.09413529187440872,0.0,0.772067129611969,-0.13554005324840546,-0.43504059314727783,0.01860532909631729,0.0
4.900,0.9819511890411377,0.3202688217163086,0.17171356976032257,0.11071880459785462,0.0,0.7210820317268372,-0.30506986379623413,-0.25372694134712215,0.038818922638893125,0.0
5.000,1.0080923080444335,0.37948896884918215,0.10313636362552642,0.1273023173213005,0.0,0.6700969338417053,-0.4745996743440628,-0.07241328954696652,0.059032516181468965,0.0
5.100,1.0342334270477296,0.43870911598205564,0.0345591574907303,0.1438858300447464,0.0,0.6191118359565735,-0.6441294848918915,0.10890036225318911,0.0792461097240448,0.0
5.200,1.0603745460510254,0.49792926311492924,-0.03401804864406588,0.1604693427681923,0.0,0.5681267380714417,-0.8136592954397202,0.2902140140533448,0.09945970326662064,0.0
5.300,1.0865156650543213,0.5571494102478027,-0.102595254778862,0.17705285549163818,0.0,0.5171416401863098,-0.9831891059875488,0.47152766585350037,0.11967329680919647,0.0
5.400,1.1110213696956635,0.5529534667730331,-0.11537542939186096,0.1927819587290287,0.0,0.48322340846061707,-1.0500639379024506,0.6578277722001076,0.16634231433272362,0.0
5.500,1.1355270743370056,0.5487575232982635,-0.12815560400485992,0.20851106196641922,0.0,0.4493051767349243,-1.1169387698173523,0.8441278785467148,0.21301133185625076,0.0
5.600,1.1600327789783478,0.544561579823494,-0.1409357786178589,0.22424016520380974,0.0,0.41538694500923157,-1.183813601732254,1.030427984893322,0.2596803493797779,0.0
5.700,1.18453848361969,0.5403656363487244,-0.15371595323085785,0.23996926844120026,0.0,0.3814687132835388,-1.2506884336471558,1.2167280912399292,0.30634936690330505,0.0
5.800,1.20015487074852,0.5463842898607254,-0.1501678042113781,0.218559380620718,0.0,0.43418116867542267,-1.201072484254837,1.0198739916086197,0.2499429378658533,0.0
5.900,1.2157712578773499,0.5524029433727264,-0.14661965519189835,0.19714949280023575,0.0,0.4868936240673065,-1.1514565348625183,0.8230198919773102,0.19353650882840157,0.0
6.000,1.2313876450061798,0.5584215968847275,-0.1430715061724186,0.1757396049797535,0.0,0.5396060794591904,-1.1018405854701996,0.6261657923460007,0.13713007979094982,0.0
6.100,1.2470040321350098,0.5644402503967285,-0.13952335715293884,0.15432971715927124,0.0,0.5923185348510742,-1.0522246360778809,0.42931169271469116,0.08072365075349808,0.0
6.200,1.2576299905776978,0.585777997970581,-0.09724684059619904,0.08535389602184296,0.0,0.47837477922439575,-1.06614351272583,0.4354475140571594,0.0918966755270958,0.0
6.300,1.2780994176864624,0.6094208359718323,-0.11608240008354187,0.08414723724126816,0.0,0.3596475422382355,-1.063077449798584,0.44359055161476135,0.13836418092250824,0.0
6.400,1.3077161312103271,0.5833132266998291,-0.14530232548713684,0.1411902904510498,0.0,0.4741140902042389,-1.0872806310653687,0.42345091700553894,0.09708989411592484,0.0
6.500,1.3009142875671387,0.584563672542572,-0.15186654031276703,0.1714402437210083,0.0,0.610254168510437,-1.0951347351074219,0.40715542435646057,0.0604914091527462,0.0
6.600,1.2909492254257202,0.6135005950927734,-0.08056718856096268,0.02731114812195301,0.0,0.5157299637794495,-1.0951775312423706,0.4156746566295624,0.08541039377450943,0.0
6.700,1.323480248451233,0.5755842328071594,-0.15265466272830963,0.15025053918361664,0.0,0.6078272461891174,-1.1061491966247559,0.40198618173599243,0.0578860379755497,0.0
6.800,1.315748929977417,0.6230674386024475,-0.11130344122648239,0.04520218446850777,0.0,0.616302490234375,-1.108206033706665,0.39394623041152954,0.08707456290721893,0.0
6.900,1.3273260593414307,0.6021721959114075,-0.1220846176147461,0.06618455052375793,0.0,0.5804917216300964,-1.1179643869400024,0.39754027128219604,0.06816364824771881,0.0
7.000,1.3418811559677124,0.5880593657493591,-0.14218659698963165,0.11412905156612396,0.0,0.5969491600990295,-1.118899941444397,0.3927169144153595,0.07863328605890274,0.0
7.100,1.311023235321045,0.4954800488693374,-0.006340431315558309,0.0950361578060048,0.0,0.5128540644156081,-1.15944961139134,0.5660152009555272,0.09281138862882342,0.0
7.200,1.2801653146743774,0.4029007319893156,0.12950573435851503,0.07594326404588564,0.0,0.4287589687321868,-1.199999281338283,0.7393134874956948,0.1069894911987441,0.0
7.300,1.24930739402771,0.31032141510929384,0.2653519000325884,0.05685037028576647,0.0,0.34466387304876533,-1.240548951285226,0.9126117740358625,0.12116759376866476,0.0
7.400,1.2184494733810425,0.21774209822927204,0.4011980657066617,0.0377574765256473,0.0,0.26056877736534395,-1.2810986212321689,1.0859100605760301,0.13534569633858545,0.0
7.500,1.187591552734375,0.12516278134925024,0.5370442313807351,0.018664582765528126,0.0,0.1764736816819225,-1.321648291179112,1.259208347116198,0.14952379890850612,0.0
7.600,1.1567336320877075,0.03258346446922855,0.6728903970548085,-0.00042831099459102184,0.0,0.09237858599850113,-1.362197961126055,1.4325066336563654,0.16370190147842678,0.0
7.700,1.12587571144104,-0.059995852410793304,0.8087365627288818,-0.019521204754710197,0.0,0.008283490315079689,-1.402747631072998,1.6058049201965332,0.17788000404834747,0.0
7.800,1.1506435019629342,0.01589005121162959,0.715098438518388,-0.035393347165414264,0.0,0.09826858927096639,-1.3665557929447718,1.4299822066511427,0.16014243183391436,0.0
7.900,1.1754112924848283,0.09177595483405249,0.6214603143078941,-0.05126548957611833,0.0,0.1882536882268531,-1.3303639548165458,1.2541594931057523,0.14240485961948124,0.0
8.000,1.2001790830067225,0.16766185845647538,0.5278221900974001,-0.0671376319868224,0.0,0.2782387871827398,-1.2941721166883196,1.0783367795603618,0.1246672874050481,0.0
8.100,1.2249468735286169,0.24354776207889828,0.4341840658869062,-0.08300977439752646,0.0,0.3682238861386265,-1.2579802785600935,0.9025140660149711,0.10692971519061498,0.0
8.200,1.249714664050511,0.3194336657013212,0.3405459416764123,-0.09888191680823054,0.0,0.45820898509451324,-1.2217884404318673,0.7266913524695805,0.08919214297618185,0.0
8.300,1.2744824545724052,0.39531956932374407,0.2469078174659184,-0.1147540592189346,0.0,0.5481940840503999,-1.1855966023036413,0.5508686389241901,0.07145457076174873,0.0
8.400,1.2992502450942993,0.471205472946167,0.1532696932554245,-0.13062620162963867,0.0,0.6381791830062866,-1.149404764175415,0.37504592537879944,0.0537169985473156,0.0
8.500,1.265074759721756,0.6238720715045929,0.01089455559849739,-0.10002971300855279,0.0,0.687402993440628,-1.1611979007720947,0.3984849750995636,0.05233199428766966,0.0
8.600,1.2308992743492126,0.7765386700630188,-0.13148058205842972,-0.06943322438746691,0.0,0.7366268038749695,-1.1729910373687744,0.42192402482032776,0.05094699002802372,0.0
8.700,1.1967237889766693,0.9292052686214447,-0.2738557197153568,-0.038836735766381025,0.0,0.7858506143093109,-1.184784173965454,0.4453630745410919,0.04956198576837778,0.0
8.800,1.162548303604126,1.0818718671798706,-0.41623085737228394,-0.008240247145295143,0.0,0.8350744247436523,-1.1965773105621338,0.4688021242618561,0.04817698150873184,0.0
8.900,1.1827020645141602,0.9838570207357407,-0.3196967865029971,-0.04055739721904198,0.0,0.8464176456133524,-1.052217736840248,0.29944248497486115,0.015478299309810005,0.0
9.000,1.2028558254241943,0.8858421742916107,-0.22316271563371023,-0.07287454729278882,0.0,0.8577608664830526,-0.9078581631183624,0.1300828456878662,-0.017220382889111832,0.0
9.100,1.2230095863342285,0.7878273278474808,-0.12662864476442337,-0.10519169736653566,0.0,0.8691040873527527,-0.7634985893964767,-0.03927679359912872,-0.049919065088033676,0.0
9.200,1.2431633472442627,0.6898124814033508,-0.030094573895136534,-0.1375088474402825,0.0,0.8804473082224528,-0.6191390156745911,-0.20863643288612366,-0.0826177472869555,0.0
9.300,1.2633171081542969,0.5917976349592209,0.06643949697415036,-0.16982599751402935,0.0,0.891790529092153,-0.4747794419527054,-0.3779960721731186,-0.11531642948587736,0.0
9.400,1.283470869064331,0.49378278851509094,0.1629735678434372,-0.20214314758777618,0.0,0.903133749961853,-0.3304198682308197,-0.5473557114601135,-0.1480151116847992,0.0
9.500,1.2909172296524047,0.5766654729843139,0.052719104290008534,-0.15391049832105635,0.0,0.733557915687561,-0.24218463003635404,-0.7220014810562134,-0.1879679799079895,0.0
9.600,1.2983635902404784,0.659548157453537,-0.05753535926342013,-0.10567784905433654,0.0,0.563982081413269,-0.1539493918418884,-0.8966472506523133,-0.2279208481311798,0.0
9.700,1.3058099508285523,0.74243084192276,-0.16778982281684873,-0.057445199787616724,0.0,0.3944062471389771,-0.06571415364742278,-1.071293020248413,-0.26787371635437013,0.0
9.800,1.313256311416626,0.8253135263919831,-0.27804428637027745,-0.009212550520896895,0.0,0.22483041286468497,0.02252108454704288,-1.2459387898445131,-0.3078265845775604,0.0
9.900,1.3207026720046997,0.908196210861206,-0.38829874992370605,0.039020098745822906,0.0,0.055254578590393066,0.11075632274150848,-1.4205845594406128,-0.34777945280075073,0.0
10.000,1.3376115957895915,0.7639804283777873,-0.20404864847660065,-0.04256308575471242,0.0,0.04637318539122741,0.10857009887695312,-1.4129411776860554,-0.3522840241591136,0.0
10.100,1.3545205195744832,0.6197646458943685,-0.01979854702949524,-0.12414627025524774,0.0,0.037491792192061744,0.10638387501239777,-1.4052977959314983,-0.3567885955174764,0.0
10.200,1.371429443359375,0.4755488634109497,0.16445155441761017,-0.20572945475578308,0.0,0.02861039899289608,0.10419765114784241,-1.397654414176941,-0.36129316687583923,0.0
10.300,1.3657445708910625,0.4852204918861389,0.1691645955046018,-0.2249614099661509,0.0,0.1968797467028101,0.037465065717697144,-1.266410877307256,-0.32213392357031506,0.0
10.400,1.3600596984227498,0.4948921203613281,0.17387763659159342,-0.24419336517651874,0.0,0.36514909441272414,-0.02926751971244812,-1.1351673404375713,-0.2829746802647909,0.0
10.500,1.3543748259544373,0.5045637488365173,0.17859067767858505,-0.2634253203868866,0.0,0.5334184421226382,-0.09600010514259338,-1.0039238035678864,-0.24381543695926666,0.0
10.600,1.3486899534861247,0.5142353773117065,0.1833037187655767,-0.2826572755972544,0.0,0.7016877898325522,-0.16273269057273865,-0.8726802666982015,-0.2046561936537425,0.0
10.700,1.343005081017812,0.5239070057868958,0.1880167598525683,-0.3018892308076223,0.0,0.8699571375424664,-0.2294652760028839,-0.7414367298285166,-0.16549695034821826,0.0
10.800,1.3373202085494995,0.533578634262085,0.19272980093955994,-0.3211211860179901,0.0,1.0382264852523804,-0.2961978614330292,-0.6101931929588318,-0.1263377070426941,0.0
10.900,1.3128109276294708,0.3827356919646263,0.352269746363163,-0.27731045335531235,0.0,1.082164466381073,-0.38680537790060043,-0.5112335495650768,-0.10016715805977583,0.0
11.000,1.2883016467094421,0.23189274966716766,0.511809691786766,-0.23349972069263458,0.0,1.1261024475097656,-0.4774128943681717,-0.41227390617132187,-0.07399660907685757,0.0
11.100,1.2637923657894135,0.08104980736970901,0.6713496372103691,-0.18968898802995682,0.0,1.1700404286384583,-0.568020410835743,-0.3133142627775669,-0.047826060093939304,0.0
11.200,1.2392830848693848,-0.06979313492774963,0.8308895826339722,-0.14587825536727905,0.0,1.2139784097671509,-0.6586279273033142,-0.21435461938381195,-0.021655511111021042,0.0
11.300,1.271859089533488,0.10498866935571033,0.6385466754436493,-0.1323085936407248,0.0,1.179626703262329,-0.6063366035620371,-0.280767597258091,-0.04730604526897271,0.0
11.400,1.304435094197591,0.2797704736391703,0.4462037682533264,-0.11873893191417059,0.0,1.1452749967575073,-0.5540452798207601,-0.34718057513237,-0.07295657942692438,0.0
11.500,1.3370110988616943,0.4545522779226303,0.25386086106300354,-0.10516927018761635,0.0,1.1109232902526855,-0.501753956079483,-0.413593553006649,-0.09860711358487606,0.0
11.600,1.3695871035257976,0.6293340822060902,0.061517953872680664,-0.09159960846106212,0.0,1.0765715837478638,-0.449462632338206,-0.48000653088092804,-0.12425764774282773,0.0
11.700,1.4021631081899006,0.8041158864895503,-0.1308249533176422,-0.07802994673450787,0.0,1.042219877243042,-0.3971713085969289,-0.5464195087552071,-0.14990818190077942,0.0
11.800,1.434739112854004,0.9788976907730103,-0.3231678605079651,-0.06446028500795364,0.0,1.0078681707382202,-0.34487998485565186,-0.6128324866294861,-0.17555871605873108,0.0
11.900,1.4306847254435222,0.8322926163673401,-0.14336325724919638,-0.15202663838863373,0.0,1.019650975863139,-0.3407071034113566,-0.6155657768249512,-0.18177143732706705,0.0
12.000,1.4266303380330403,0.6856875419616699,0.03644134600957233,-0.2395929917693138,0.0,1.0314337809880574,-0.33653422196706134,-0.6182990670204163,-0.18798415859540304,0.0
12.100,1.4225759506225586,0.5390824675559998,0.21624594926834106,-0.3271593451499939,0.0,1.043216586112976,-0.3323613405227661,-0.6210323572158813,-0.194196879863739,0.0
12.200,1.4126683473587036,0.5789889097213745,0.2423240691423416,-0.3805350661277771,0.0,1.0687029361724854,-0.3224457800388336,-0.6304265856742859,-0.18865042924880981,0.0
12.300,1.405502200126648,0.708186686038971,0.17592982202768326,-0.3793826897939046,0.0,1.1515216430028279,-0.4304182926813761,-0.4964829583962759,-0.14515823622544607,0.0
12.400,1.3983360528945923,0.8373844623565674,0.1095355749130249,-0.37823031346003216,0.0,1.2343403498331706,-0.5383908053239186,-0.3625393311182658,-0.10166604320208232,0.0
12.500,1.3911699056625366,0.9665822386741638,0.04314132779836655,-0.37707793712615967,0.0,1.3171590566635132,-0.6463633179664612,-0.22859570384025574,-0.05817385017871857,0.0
12.600,1.3712427616119385,1.0292134284973145,0.08694715797901154,-0.4364384412765503,0.0,1.3122780323028564,-0.6868211627006531,-0.25508058071136475,-0.13454346358776093,0.0
12.700,1.398830235004425,1.0109487175941467,0.08242535218596458,-0.4304770231246948,0.0,1.2514114379882812,-0.5358170103281736,-0.4481215476989746,-0.11581287905573845,0.0
12.800,1.4264177083969116,0.992684006690979,0.07790354639291763,-0.42451560497283936,0.0,1.190544843673706,-0.3848128579556942,-0.6411625146865845,-0.09708229452371597,0.0
12.900,1.4540051817893982,0.9744192957878113,0.07338174059987068,-0.4185541868209839,0.0,1.1296782493591309,-0.23380870558321476,-0.8342034816741943,-0.0783517099916935,0.0
13.000,1.4815926551818848,0.9561545848846436,0.06885993480682373,-0.4125927686691284,0.0,1.0688116550445557,-0.08280455321073532,-1.0272444486618042,-0.05962112545967102,0.0
13.100,1.4661651253700256,0.8041810542345047,0.1668100208044052,-0.44357359409332275,0.0,1.0395415276288986,-0.07034319825470448,-1.0644466578960419,-0.08806519955396652,0.0
13.200,1.4507375955581665,0.6522075235843658,0.2647601068019867,-0.4745544195175171,0.0,1.0102714002132416,-0.05788184329867363,-1.1016488671302795,-0.11650927364826202,0.0
13.300,1.4353100657463074,0.500233992934227,0.3627101927995682,-0.5055352449417114,0.0,0.9810012727975845,-0.045420488342642784,-1.1388510763645172,-0.14495334774255753,0.0
13.400,1.4198825359344482,0.34826046228408813,0.46066027879714966,-0.5365160703659058,0.0,0.9517311453819275,-0.03295913338661194,-1.1760532855987549,-0.17339742183685303,0.0
13.500,1.450731337070465,0.4740346769491831,0.35049930711587274,-0.4798046499490738,0.0,1.0394970675309498,-0.1345217873652776,-1.005712312956651,-0.13289329037070274,0.0
13.600,1.481580138206482,0.5998088916142781,0.24033833543459576,-0.4230932295322418,0.0,1.1272629896799724,-0.23608444134394327,-0.8353713403145473,-0.09238915890455246,0.0
13.700,1.5124289393424988,0.7255831062793732,0.1301773637533188,-0.36638180911540985,0.0,1.2150289118289948,-0.33764709532260895,-0.6650303676724434,-0.051885027438402176,0.0
13.800,1.5432777404785156,0.8513573209444681,0.020016392072041866,-0.3096703886985779,0.0,1.302794833978017,-0.4392097493012746,-0.4946893950303396,-0.011380895972251892,0.0
13.900,1.5741265416145325,0.9771315356095632,-0.09014457960923516,-0.2529589682817459,0.0,1.3905607561270397,-0.5407724032799404,-0.3243484223882357,0.02912323549389839,0.0
14.000,1.6049753427505493,1.1029057502746582,-0.20030555129051208,-0.19624754786491394,0.0,1.478326678276062,-0.642335057258606,-0.1540074497461319,0.06962736696004868,0.0
14.100,1.6143568754196167,1.204315721988678,-0.0856132572516799,-0.3035065233707428,0.0,1.5032907128334045,-0.6189053654670715,-0.17986133694648743,0.07396073266863823,0.0
14.200,1.623738408088684,1.3057256937026978,0.02907903678715229,-0.41076549887657166,0.0,1.528254747390747,-0.5954756736755371,-0.20571522414684296,0.07829409837722778,0.0
14.300,1.6047359307607014,1.1535577078660328,0.11306283281495173,-0.4518661250670751,0.0,1.4453185200691223,-0.5035422643025717,-0.3739014243086179,0.02625177800655365,0.0
14.400,1.585733453432719,1.0013897220293682,0.19704662884275118,-0.4929667512575785,0.0,1.3623822927474976,-0.41160885492960614,-0.5420876244703928,-0.025790542364120483,0.0
14.500,1.5667309761047363,0.8492217361927032,0.28103042487055063,-0.534067377448082,0.0,1.2794460654258728,-0.3196754455566406,-0.7102738246321678,-0.07783286273479462,0.0
14.600,1.5477284987767537,0.6970537503560384,0.36501422089835006,-0.5751680036385853,0.0,1.196509838104248,-0.22774203618367517,-0.8784600247939427,-0.12987518310546875,0.0
14.700,1.5287260214487712,0.5448857645193735,0.44899801692614955,-0.6162686298290889,0.0,1.1135736107826233,-0.1358086268107096,-1.0466462249557178,-0.18191750347614288,0.0
14.800,1.5097235441207886,0.39271777868270874,0.532981812953949,-0.6573692560195923,0.0,1.0306373834609985,-0.04387521743774414,-1.2148324251174927,-0.23395982384681702,0.0
14.900,1.566432809829712,0.5794732809066773,0.4562637209892273,-0.6167290151119232,0.0,1.141956377029419,-0.1581229090690613,-1.019826027750969,-0.1890082223340869,0.0
15.000,1.6231420755386352,0.7662287831306458,0.3795456290245056,-0.5760887742042542,0.0,1.2532753705978394,-0.27237060070037844,-0.8248196303844452,-0.14405662082135678,0.0
15.100,1.6798513412475586,0.9529842853546142,0.30282753705978394,-0.535448533296585,0.0,1.3645943641662597,-0.38661829233169553,-0.6298132330179215,-0.09910501930862667,0.0
15.200,1.7365606069564818,1.1397397875785829,0.22610944509506226,-0.494808292388916,0.0,1.4759133577346801,-0.5008659839630127,-0.43480683565139766,-0.054153417795896525,0.0
15.300,1.7932698726654053,1.3264952898025513,0.14939135313034058,-0.45416805148124695,0.0,1.5872323513031006,-0.6151136755943298,-0.23980043828487396,-0.009201816283166409,0.0
15.400,1.6086168363690376,1.1565518244169652,0.3186868950724602,-0.5260122157633305,0.0,1.5905204564332962,-0.623064398765564,-0.23886296898126602,-0.018454392557032406,0.0
15.500,1.42396380007267,0.9866083590313792,0.4879824370145798,-0.597856380045414,0.0,1.5938085615634918,-0.6310151219367981,-0.23792549967765808,-0.027706968830898404,0.0
15.600,1.2393107637763023,0.8166648936457932,0.6572779789566994,-0.6697005443274975,0.0,1.5970966666936874,-0.6389658451080322,-0.23698803037405014,-0.0369595451047644,0.0
15.700,1.0546577274799347,0.6467214282602072,0.826573520898819,-0.741544708609581,0.0,1.600384771823883,-0.6469165682792664,-0.2360505610704422,-0.0462121213786304,0.0
15.800,0.870004691183567,0.47677796287462115,0.9958690628409386,-0.8133888728916645,0.0,1.6036728769540787,-0.6548672914505005,-0.23511309176683426,-0.0554646976524964,0.0
15.900,0.6853516548871994,0.30683449748903513,1.1651646047830582,-0.885233037173748,0.0,1.6069609820842743,-0.6628180146217346,-0.23417562246322632,-0.0647172739263624,0.0
16.000,0.5006986185908318,0.1368910321034491,1.3344601467251778,-0.9570772014558315,0.0,1.61024908721447,-0.6707687377929688,-0.23323815315961838,-0.0739698502002284,0.0
16.100,0.3160455822944641,-0.03305243328213692,1.5037556886672974,-1.028921365737915,0.0,1.6135371923446655,-0.6787194609642029,-0.23230068385601044,-0.08322242647409439,0.0
16.200,0.30476537346839905,0.038348887115716934,1.466577172279358,-1.04718816280365,0.0,1.6582674980163574,-0.6979161500930786,-0.24824649095535278,-0.13957971334457397,0.0
16.300,0.34348486363887787,0.044754015281796455,1.4620211720466614,-1.0471401810646057,0.0,1.6325446367263794,-0.5848910212516785,-0.3397221714258194,-0.03107965737581253,0.0
16.400,0.3822043538093567,0.05115914344787598,1.4574651718139648,-1.0470921993255615,0.0,1.6068217754364014,-0.4718658924102783,-0.431197851896286,0.07742039859294891,0.0
16.500,0.4958391487598419,0.040266129188239574,1.6029786467552185,-1.0264398455619812,0.0,1.6642397046089172,-0.5166202187538147,-0.41956156492233276,0.03786963038146496,0.0
16.600,0.6094739437103271,0.029373114928603172,1.7484921216964722,-1.0057874917984009,0.0,1.721657633781433,-0.5613745450973511,-0.4079252779483795,-0.0016811378300189972,0.0
16.700,0.8020526468753815,0.148792875232175,1.5657148659229279,-0.963069424033165,0.0,1.735642448067665,-0.5549773573875427,-0.4222046546638012,-0.01268448168411851,0.0
16.800,0.9946313500404358,0.2682126355357468,1.3829376101493835,-0.9203513562679291,0.0,1.749627262353897,-0.5485801696777344,-0.43648403137922287,-0.02368782553821802,0.0
16.900,1.1872100532054901,0.38763239583931863,1.2001603543758392,-0.8776332885026932,0.0,1.763612076640129,-0.542182981967926,-0.45076340809464455,-0.034691169392317533,0.0
17.000,1.3797887563705444,0.5070521561428905,1.017383098602295,-0.8349152207374573,0.0,1.777596890926361,-0.5357857942581177,-0.4650427848100662,-0.045694513246417046,0.0
17.100,1.5723674595355988,0.6264719164464623,0.8346058428287506,-0.7921971529722214,0.0,1.791581705212593,-0.5293886065483093,-0.4793221615254879,-0.05669785710051656,0.0
17.200,1.764946162700653,0.7458916767500341,0.6518285870552063,-0.7494790852069855,0.0,1.805566519498825,-0.522991418838501,-0.4936015382409096,-0.06770120095461607,0.0
17.300,1.9575248658657074,0.8653114370536059,0.469051331281662,-0.7067610174417496,0.0,1.819551333785057,-0.5165942311286926,-0.5078809149563313,-0.07870454480871558,0.0
17.400,2.1501035690307617,0.9847311973571777,0.2862740755081177,-0.6640429496765137,0.0,1.833536148071289,-0.5101970434188843,-0.5221602916717529,-0.0897078886628151,0.0
17.500,2.1778788566589355,0.9927582144737244,0.29262179136276245,-0.6730448603630066,0.0,1.9122741222381592,-0.6271103024482727,-0.4765453636646271,-0.24891330301761627,0.0
17.600,2.2075016498565674,1.0017962455749512,0.16354787349700928,-0.6510123014450073,0.0,1.8810293674468994,-0.537237823009491,-0.5154061317443848,-0.1270878165960312,0.0
17.700,2.242661714553833,1.0305325984954834,0.2168578803539276,-0.6661036610603333,0.0,1.9110727310180664,-0.560979425907135,-0.5119024515151978,-0.17898575961589813,0.0
17.800,2.2412041823069253,1.0094132820765178,0.19752225776513418,-0.6719600359598795,0.0,1.8005302747090657,-0.44511017203330994,-0.6973708073298136,-0.14003085469206175,0.0
17.900,2.239746650060018,0.9882939656575521,0.17818663517634076,-0.6778164108594259,0.0,1.6899878184000652,-0.32924091815948486,-0.8828391631444295,-0.10107594976822536,0.0
18.000,2.2382891178131104,0.9671746492385864,0.1588510125875473,-0.6836727857589722,0.0,1.5794453620910645,-0.2133716642856598,-1.0683075189590454,-0.06212104484438896,0.0
18.100,2.253819783528646,0.9786574443181356,0.20948061347007751,-0.6963981588681539,0.0,1.7017821073532104,-0.34002411365509033,-0.8876583973566692,-0.11976763854424158,0.0
18.200,2.269350449244181,0.9901402393976847,0.2601102143526077,-0.7091235319773356,0.0,1.8241188526153564,-0.4666765630245209,-0.7070092757542928,-0.1774142322440942,0.0
18.300,2.284881114959717,1.0016230344772339,0.31073981523513794,-0.7218489050865173,0.0,1.9464555978775024,-0.5933290123939514,-0.5263601541519165,-0.23506082594394684,0.0
18.400,2.2746431827545166,0.9980838894844055,0.3094976544380188,-0.7186427712440491,0.0,1.9259933233261108,-0.547831118106842,-0.5586248636245728,-0.18358197808265686,0.0
18.500,2.2399470011393228,0.9327952861785889,0.36376015345255536,-0.7441200216611227,0.0,1.8173022270202637,-0.44102217753728234,-0.7334030866622925,-0.14749922106663388,0.0
18.600,2.2052508195241294,0.8675066828727722,0.41802265246709186,-0.7695972720781962,0.0,1.7086111307144165,-0.3342132369677226,-0.9081813097000122,-0.11141646405061087,0.0
18.700,2.1705546379089355,0.8022180795669556,0.4722851514816284,-0.7950745224952698,0.0,1.5999200344085693,-0.22740429639816284,-1.082959532737732,-0.07533370703458786,0.0
18.800,2.203547795613607,0.8708477020263672,0.4224380950133006,-0.7682930628458658,0.0,1.6917235453923543,-0.3160204192002614,-0.9267106652259827,-0.08416734139124553,0.0
18.900,2.236540953318278,0.9394773244857788,0.3725910385449728,-0.741511603196462,0.0,1.7835270563761394,-0.40463654200236,-0.7704617977142334,-0.09300097574790318,0.0
19.000,2.269534111022949,1.0081069469451904,0.3227439820766449,-0.7147301435470581,0.0,1.8753305673599243,-0.4932526648044586,-0.6142129302024841,-0.10183461010456085,0.0
19.100,2.266463279724121,1.0074546734491985,0.3177023728688558,-0.7121146321296692,0.0,1.7791322867075603,-0.40029723445574444,-0.76664137840271,-0.09312032411495845,0.0
19.200,2.263392448425293,1.0068023999532063,0.3126607636610667,-0.7094991207122803,0.0,1.682934006055196,-0.30734180410703027,-0.9190698266029358,-0.08440603812535605,0.0
19.300,2.260321617126465,1.0061501264572144,0.3076191544532776,-0.7068836092948914,0.0,1.586735725402832,-0.21438637375831604,-1.0714982748031616,-0.07569175213575363,0.0
19.400,2.2475104331970215,1.0091380675633748,0.33336464564005536,-0.7099027434984843,0.0,1.685537576675415,-0.3053705195585886,-0.908294141292572,-0.0920031393567721,0.0
19.500,2.234699249267578,1.0121260086695354,0.35911013682683307,-0.7129218777020773,0.0,1.784339427947998,-0.39635466535886127,-0.7450900077819824,-0.10831452657779057,0.0
19.600,2.2218880653381348,1.0151139497756958,0.38485562801361084,-0.7159410119056702,0.0,1.883141279220581,-0.4873388111591339,-0.5818858742713928,-0.12462591379880905,0.0
19.700,2.0462579329808555,0.8769171610474586,0.5414050817489624,-0.7600338260332743,0.0,1.8701818386713664,-0.47450385491053265,-0.5951177279154459,-0.11600777755180995,0.0
19.800,1.870627800623576,0.7387203723192215,0.697954535484314,-0.8041266401608785,0.0,1.8572223981221516,-0.46166889866193134,-0.6083495815594991,-0.10738964130481085,0.0
19.900,1.6949976682662964,0.6005235835909843,0.8545039892196655,-0.8482194542884827,0.0,1.844262957572937,-0.4488339424133301,-0.6215814352035522,-0.09877150505781174,0.0
20.000,1.519367535909017,0.4623267948627472,1.011053442955017,-0.8923122684160868,0.0,1.8313035170237224,-0.4359989861647288,-0.6348132888476054,-0.09015336881081264,0.0
20.100,1.3437374035517373,0.32413000613451004,1.1676028966903687,-0.936405082543691,0.0,1.8183440764745076,-0.4231640299161275,-0.6480451424916586,-0.08153523256381352,0.0
20.200,1.168107271194458,0.1859332174062729,1.3241523504257202,-0.9804978966712952,0.0,1.805384635925293,-0.41032907366752625,-0.6612769961357117,-0.07291709631681442,0.0
20.300,1.3394197622934978,0.3218595857421557,1.1682385702927907,-0.9373814860979716,0.0,1.8255617419878643,-0.4426264017820358,-0.6313564330339432,-0.10226660842696825,0.0
20.400,1.5107322533925374,0.4577859540780385,1.0123247901598613,-0.8942650755246481,0.0,1.8457388480504353,-0.4749237298965454,-0.6014358699321747,-0.13161612053712207,0.0
20.500,1.6820447444915771,0.5937123224139214,0.8564110100269318,-0.8511486649513245,0.0,1.8659159541130066,-0.507221058011055,-0.5715153068304062,-0.16096563264727592,0.0
20.600,1.8533572355906167,0.7296386907498041,0.7004972298940023,-0.808032254378001,0.0,1.8860930601755779,-0.5395183861255646,-0.5415947437286377,-0.19031514475742975,0.0
20.700,2.0246697266896567,0.865565059085687,0.5445834497610728,-0.7649158438046773,0.0,1.906270166238149,-0.5718157142400742,-0.5116741806268692,-0.2196646568675836,0.0
20.800,2.1959822177886963,1.0014914274215698,0.3886696696281433,-0.7217994332313538,0.0,1.9264472723007202,-0.6041130423545837,-0.4817536175251007,-0.24901416897773743,0.0
20.900,2.212519645690918,1.0142011642456055,0.2583662271499634,-0.6652594804763794,0.0,1.82656729221344,-0.43771353363990784,-0.6257164478302002,-0.08546736091375351,0.0
21.000,2.1784892082214355,1.0154221057891846,0.15232186019420624,-0.6247466802597046,0.0,1.9215757846832275,-0.5844276547431946,-0.5036927461624146,-0.20365294814109802,0.0
21.100,2.16797137260437,1.0076048374176025,0.13934217393398285,-0.6168028116226196,0.0,1.9157193899154663,-0.6545130610466003,-0.4728032052516937,-0.2783271074295044,0.0
21.200,2.1376357078552246,0.9917406737804413,0.14149358868598938,-0.60451740026474,0.0,1.83307945728302,-0.5287200957536697,-0.5774728804826736,-0.15273556672036648,0.0
21.300,2.107300043106079,0.97587651014328,0.1436450034379959,-0.5922319889068604,0.0,1.7504395246505737,-0.40292713046073914,-0.6821425557136536,-0.02714402601122856,0.0
21.400,1.9352800051371257,0.7899161676565807,0.2898950676123301,-0.6732567151387533,0.0,1.761497696240743,-0.48895742495854694,-0.5756740073362986,-0.08311052372058232,0.0
21.500,1.7632599671681723,0.6039558251698812,0.4361451317866643,-0.7542814413706461,0.0,1.7725558678309123,-0.5749877194563547,-0.4692054589589437,-0.13907702142993608,0.0
21.600,1.5912399291992188,0.41799548268318176,0.5823951959609985,-0.8353061676025391,0.0,1.7836140394210815,-0.6610180139541626,-0.36273691058158875,-0.19504351913928986,0.0
21.700,1.6476931810379027,0.5808277368545532,0.5097239017486572,-0.7858125805854798,0.0,1.776912021636963,-0.657863187789917,-0.35954208970069884,-0.18657568097114563,0.0
21.800,1.704146432876587,0.7436599910259247,0.4370526075363159,-0.7363189935684205,0.0,1.7702100038528443,-0.6547083616256714,-0.35634726881980894,-0.1781078428030014,0.0
21.900,1.760599684715271,0.9064922451972961,0.3643813133239746,-0.686825406551361,0.0,1.7635079860687255,-0.6515535354614258,-0.3531524479389191,-0.16964000463485718,0.0
22.000,1.8170529365539552,1.0693244993686677,0.2917100191116333,-0.6373318195343017,0.0,1.756805968284607,-0.6483987092971801,-0.3499576270580292,-0.16117216646671295,0.0
22.100,1.8735061883926392,1.232156753540039,0.219038724899292,-0.5878382325172424,0.0,1.7501039505004883,-0.6452438831329346,-0.3467628061771393,-0.15270432829856873,0.0
22.200,1.8058906316757202,1.062489116191864,0.27769057750701903,-0.6274885892868042,0.0,1.7408768653869628,-0.6399389147758484,-0.3436724662780762,-0.13921056538820267,0.0
22.300,1.7382750749588012,0.892821478843689,0.33634243011474607,-0.6671389460563659,0.0,1.7316497802734374,-0.6346339464187623,-0.3405821263790131,-0.12571680247783662,0.0
22.400,1.6706595182418824,0.723153841495514,0.39499428272247317,-0.7067893028259278,0.0,1.7224226951599122,-0.629328978061676,-0.33749178647994993,-0.11222303956747055,0.0
22.500,1.6030439615249634,0.5534862041473388,0.4536461353302002,-0.7464396595954895,0.0,1.7131956100463868,-0.6240240097045898,-0.33440144658088683,-0.09872927665710449,0.0
22.600,1.5354284048080444,0.3838185667991638,0.5122979879379272,-0.7860900163650513,0.0,1.7039685249328613,-0.6187190413475037,-0.33131110668182373,-0.08523551374673843,0.0
22.700,1.5867385693958826,0.5715419905526298,0.484377920627594,-0.7449616491794586,0.0,1.700655392238072,-0.6161419068064008,-0.3293024642126901,-0.08105175942182541,0.0
22.800,1.638048733983721,0.7592654143060956,0.45645785331726074,-0.703833281993866,0.0,1.6973422595432825,-0.613564772265298,-0.3272938217435564,-0.07686800509691238,0.0
22.900,1.6893588985715593,0.9469888380595616,0.4285377860069275,-0.6627049148082733,0.0,1.6940291268484933,-0.6109876377241952,-0.3252851792744228,-0.07268425077199936,0.0
23.000,1.7406690631593977,1.1347122618130274,0.40061771869659424,-0.6215765476226807,0.0,1.690715994153704,-0.6084105031830924,-0.3232765368052891,-0.06850049644708633,0.0
23.100,1.791979227747236,1.3224356855664934,0.372697651386261,-0.580448180437088,0.0,1.6874028614589147,-0.6058333686419896,-0.3212678943361555,-0.06431674212217331,0.0
23.200,1.8432893923350742,1.5101591093199593,0.34477758407592773,-0.5393198132514954,0.0,1.6840897287641252,-0.6032562341008868,-0.3192592518670218,-0.060132987797260284,0.0
23.300,1.8945995569229126,1.6978825330734253,0.3168575167655945,-0.4981914460659027,0.0,1.680776596069336,-0.6006790995597839,-0.3172506093978882,-0.05594923347234726,0.0
23.400,1.8421116113662719,1.6030388832092286,0.26899588406085967,-0.5105481028556824,0.0,1.5577839851379394,-0.48992108926177025,-0.4996945858001709,-0.10416982769966127,0.0
23.500,1.7896236658096314,1.5081952333450317,0.22113425135612486,-0.522904759645462,0.0,1.434791374206543,-0.37916307896375656,-0.6821385622024536,-0.15239042192697527,0.0
23.600,1.7371357202529907,1.413351583480835,0.17327261865139007,-0.5352614164352417,0.0,1.3117987632751464,-0.2684050686657429,-0.8645825386047363,-0.20061101615428925,0.0
23.700,1.6846477746963502,1.318507933616638,0.12541098594665526,-0.5476180732250213,0.0,1.18880615234375,-0.1576470583677292,-1.047026515007019,-0.24883161038160326,0.0
23.800,1.6321598291397095,1.2236642837524414,0.07754935324192047,-0.559974730014801,0.0,1.0658135414123535,-0.0468890480697155,-1.2294704914093018,-0.29705220460891724,0.0
23.900,1.593858003616333,1.3597403764724731,0.02234470844268799,-0.5220299561818441,0.0,1.0577121178309123,-0.04635131234923998,-1.2235150734583538,-0.30074042081832886,0.0
24.000,1.5555561780929565,1.4958164691925049,-0.032859936356544495,-0.48408518234888714,0.0,1.049610694249471,-0.04581357662876447,-1.2175596555074055,-0.3044286370277405,0.0
24.100,1.51725435256958,1.6318925619125366,-0.08806458115577698,-0.4461404085159302,0.0,1.0415092706680298,-0.045275840908288956,-1.2116042375564575,-0.3081168532371521,0.0
24.200,1.3967881441116332,1.657190990447998,-0.15408354401588442,-0.4595252752304077,0.0,1.1462723731994628,-0.15155340731143951,-1.018350464105606,-0.22959094792604445,0.0
24.300,1.2763219356536866,1.6824894189834594,-0.22010250687599184,-0.47291014194488523,0.0,1.251035475730896,-0.2578309737145901,-0.8250966906547545,-0.1510650426149368,0.0
24.400,1.1558557271957397,1.707787847518921,-0.2861214697360992,-0.4862950086593628,0.0,1.3557985782623292,-0.36410854011774063,-0.6318429172039032,-0.07253913730382922,0.0
24.500,1.035389518737793,1.7330862760543824,-0.3521404325962067,-0.49967987537384034,0.0,1.4605616807937623,-0.4703861065208912,-0.4385891437530517,0.005986768007278487,0.0
24.600,0.9149233102798462,1.7583847045898438,-0.4181593954563141,-0.5130647420883179,0.0,1.5653247833251953,-0.5766636729240417,-0.24533537030220032,0.08451267331838608,0.0
24.700,1.1093446612358093,1.6943082213401794,-0.340708464384079,-0.47418779134750366,0.0,1.5557442903518677,-0.5919026434421539,-0.2138795480132103,0.05569519754499197,0.0
24.800,1.3037660121917725,1.6302317380905151,-0.26325753331184387,-0.43531084060668945,0.0,1.54616379737854,-0.6071416139602661,-0.18242372572422028,0.026877721771597862,0.0
24.900,1.2402857542037964,1.6088244438171386,-0.313343346118927,-0.4258407950401306,0.0,1.424636960029602,-0.4765350244939327,-0.3771407961845398,-0.012669374048709874,0.0
25.000,1.1768054962158203,1.5874171495437621,-0.36342915892601013,-0.4163707494735718,0.0,1.303110122680664,-0.34592843502759935,-0.5718578666448593,-0.05221646986901761,0.0
25.100,1.1133252382278442,1.5660098552703858,-0.41351497173309326,-0.40690070390701294,0.0,1.181583285331726,-0.21532184556126593,-0.7665749371051788,-0.09176356568932532,0.0
25.200,1.0498449802398682,1.5446025609970093,-0.4636007845401764,-0.3974306583404541,0.0,1.060056447982788,-0.08471525609493258,-0.9612920075654984,-0.13131066150963308,0.0
25.300,0.9863647222518921,1.5231952667236328,-0.5136865973472595,-0.38796061277389526,0.0,0.9385296106338501,0.04589133337140083,-1.1560090780258179,-0.1708577573299408,0.0
25.400,0.891399105389913,1.5061851342519124,-0.5226870179176331,-0.39720092217127484,0.0,0.9625664154688517,-0.08130784581104913,-0.9646602869033813,-0.206731915473938,0.0
25.500,0.7964334885279338,1.4891750017801921,-0.5316874384880066,-0.40644123156865436,0.0,0.9866032203038534,-0.2085070249934991,-0.7733114957809448,-0.24260607361793518,0.0
25.600,0.7014678716659546,1.4721648693084717,-0.5406878590583801,-0.41568154096603394,0.0,1.010640025138855,-0.3357062041759491,-0.5819627046585083,-0.2784802317619324,0.0
25.700,0.6451091567675272,1.474679430325826,-0.6051149566968282,-0.39565635720888775,0.0,0.8694135348002117,-0.22766211380561194,-0.7273937861124674,-0.30630578597386676,0.0
25.800,0.5887504418691,1.4771939913431804,-0.6695420543352762,-0.3756311734517415,0.0,0.7281870444615682,-0.11961802343527478,-0.8728248675664265,-0.3341313401858012,0.0
25.900,0.5323917269706726,1.4797085523605347,-0.7339691519737244,-0.35560598969459534,0.0,0.5869605541229248,-0.011573933064937592,-1.0182559490203857,-0.3619568943977356,0.0
26.000,0.5387750267982483,1.473342165350914,-0.7351439446210861,-0.3471468798816204,0.0,0.6246993094682693,-0.16464137006551027,-0.8359586521983147,-0.3190245779696852,0.0
26.100,0.545158326625824,1.4669757783412933,-0.7363187372684479,-0.3386877700686455,0.0,0.6624380648136139,-0.31770880706608295,-0.6536613553762436,-0.2760922615416348,0.0
26.200,0.5515416264533997,1.4606093913316727,-0.7374935299158096,-0.33022866025567055,0.0,0.7001768201589584,-0.47077624406665564,-0.4713640585541725,-0.2331599451135844,0.0
26.300,0.5579249262809753,1.454243004322052,-0.7386683225631714,-0.3217695504426956,0.0,0.737915575504303,-0.6238436810672283,-0.28906676173210144,-0.190227628685534,0.0
26.400,0.564308226108551,1.4478766173124313,-0.7398431152105331,-0.3133104406297207,0.0,0.7756543308496475,-0.776911118067801,-0.10676946491003036,-0.1472953122574836,0.0
26.500,0.5706915259361267,1.4415102303028107,-0.7410179078578949,-0.30485133081674576,0.0,0.8133930861949921,-0.9299785550683737,0.07552783191204071,-0.1043629958294332,0.0
26.600,0.5770748257637024,1.43514384329319,-0.7421927005052567,-0.29639222100377083,0.0,0.8511318415403366,-1.0830459920689464,0.2578251287341118,-0.061430679401382804,0.0
26.700,0.5834581255912781,1.4287774562835693,-0.7433674931526184,-0.2879331111907959,0.0,0.8888705968856812,-1.236113429069519,0.44012242555618286,-0.018498362973332405,0.0
26.800,0.6543266375859579,1.3194332122802734,-0.6030700206756592,-0.2898181577523549,0.0,0.855308731396993,-1.2270261843999226,0.44546976685523987,-0.009642422820130985,0.0
26.900,0.7251951495806376,1.2100889682769775,-0.46277254819869995,-0.291703204313914,0.0,0.8217468659083048,-1.2179389397303264,0.4508171081542969,-0.0007864826669295652,0.0
27.000,0.7960636615753174,1.1007447242736816,-0.3224750757217407,-0.293588250875473,0.0,0.7881850004196167,-1.20885169506073,0.4561644494533539,0.008069457486271858,0.0
27.100,0.7322337627410889,1.1734663645426433,-0.5170106490453084,-0.21920332560936612,0.0,0.7193326751391093,-1.1798479159673054,0.4370719989140828,0.021877914667129517,0.0
27.200,0.6684038639068604,1.2461880048116047,-0.7115462223688761,-0.14481840034325918,0.0,0.6504803498586019,-1.150844136873881,0.4179795483748118,0.035686371847987175,0.0
27.300,0.6045739650726318,1.3189096450805664,-0.9060817956924438,-0.07043347507715225,0.0,0.5816280245780945,-1.1218403577804565,0.39888709783554077,0.04949482902884483,0.0
27.400,0.6442082405090332,1.215378224849701,-0.8124911606311798,-0.03970686495304107,0.0,0.5873305559158325,-0.9344339877367019,0.23252232670783995,0.05570568591356277,0.0
27.500,0.6838425159454345,1.1118468046188354,-0.7189005255699158,-0.008980254828929897,0.0,0.5930330872535705,-0.7470276176929473,0.06615755558013914,0.06191654279828072,0.0
27.600,0.723476791381836,1.00831538438797,-0.6253098905086518,0.021746355295181277,0.0,0.5987356185913086,-0.5596212476491929,-0.10020721554756162,0.06812739968299866,0.0
27.700,0.7631110668182373,0.9047839641571045,-0.5317192554473877,0.05247296541929246,0.0,0.6044381499290467,-0.37221487760543814,-0.2665719866752625,0.0743382565677166,0.0
27.800,0.8027453422546387,0.801252543926239,-0.43812862038612366,0.08319957554340363,0.0,0.6101406812667847,-0.18480850756168365,-0.43293675780296326,0.08054911345243454,0.0
27.900,0.8422424991925558,0.6558132370313009,-0.29571692583461606,0.06507248679796855,0.0,0.5588078598181406,-0.18400908013184866,-0.4190395474433899,0.08993324389060338,0.0
28.000,0.8817396561304728,0.5103739301363628,-0.1533052312831084,0.04694539805253347,0.0,0.5074750383694967,-0.18320965270201364,-0.40514233708381653,0.09931737432877222,0.0
28.100,0.9212368130683899,0.36493462324142456,-0.010893536731600761,0.02881830930709839,0.0,0.45614221692085266,-0.18241022527217865,-0.39124512672424316,0.10870150476694107,0.0
28.200,1.034129023551941,0.3168102204799652,-0.05751378834247589,0.20321005582809448,0.0,0.5583519339561462,-0.12996095418930054,-0.3906724750995636,0.09958343952894211,0.0
28.300,0.9825250506401062,0.22642716765403748,-0.0729876309633255,0.3259637653827667,0.0,0.5895891189575195,-0.06269757449626923,-0.37598323822021484,0.15981054306030273,0.0
28.400,0.9673587083816528,0.21966199576854706,-0.0834660604596138,0.38736286759376526,0.0,0.5336265563964844,-0.04873904958367348,-0.3601717948913574,0.1881444752216339,0.0
28.500,0.9490081071853638,0.3006497323513031,-0.24304746091365814,0.47562021017074585,0.0,0.6857874393463135,0.012785933911800385,-0.37046876549720764,0.22340168058872223,0.0
28.600,0.9363982081413269,0.191935732960701,-0.059225376695394516,0.29804861545562744,0.0,0.6411739587783813,0.017565593123435974,-0.3494266867637634,0.17957399785518646,0.0
28.700,0.9377306501070658,0.2087693711121877,-0.09287130584319432,0.3302241365114848,0.0,0.689293364683787,-0.11254950364430744,-0.1685140629609426,0.2441469629605611,0.0
28.800,0.9390630920728048,0.2256030092636744,-0.12651723499099413,0.3623996575673421,0.0,0.7374127705891927,-0.24266460041205085,0.012398560841878237,0.30871992806593573,0.0
28.900,0.9403955340385437,0.24243664741516113,-0.16016316413879395,0.39457517862319946,0.0,0.7855321764945984,-0.3727796971797943,0.1933111846446991,0.3732928931713104,0.0
29.000,0.9430107275644938,0.23548907041549683,-0.16419829924901327,0.4067605535189311,0.0,0.7271703481674194,-0.2325980712970098,0.018533478180567442,0.31599920988082886,0.0
29.100,0.945625921090444,0.22854149341583252,-0.16823343435923258,0.41894592841466266,0.0,0.6688085198402405,-0.09241644541422528,-0.1562442282835642,0.2587055265903473,0.0
29.200,0.948241114616394,0.2215939164161682,-0.1722685694694519,0.4311313033103943,0.0,0.6104466915130615,0.047765180468559265,-0.3310219347476959,0.20141184329986572,0.0
29.300,0.9268248081207275,0.14696874601456028,-0.08272554228703181,0.34638866285483044,0.0,0.6466164191563925,-0.07254143555959065,-0.16665266950925192,0.2467817465464274,0.0
29.400,0.905408501625061,0.07234357561295232,0.006817484895388276,0.2616460223992666,0.0,0.6827861467997233,-0.19284805158774057,-0.0022834042708079205,0.2921516497929891,0.0
29.500,0.8839921951293945,-0.0022815947886556387,0.09636051207780838,0.1769033819437027,0.0,0.7189558744430542,-0.3131546676158905,0.1620858609676361,0.3375215530395508,0.0
29.600,0.7910735215991735,0.11262005075695924,-0.10008949134498835,0.18606127612292767,0.0,0.7073737606406212,-0.3103070855140686,0.15900461375713348,0.33057356253266335,0.0
29.700,0.6981548480689526,0.22752169630257413,-0.2965394947677851,0.19521917030215263,0.0,0.6957916468381882,-0.3074595034122467,0.15592336654663086,0.3236255720257759,0.0
29.800,0.6052361745387316,0.342423341848189,-0.4929894981905818,0.2043770644813776,0.0,0.6842095330357552,-0.3046119213104248,0.15284211933612823,0.3166775815188885,0.0
29.900,0.5123175010085106,0.4573249873938039,-0.6894395016133785,0.21353495866060257,0.0,0.6726274192333221,-0.3017643392086029,0.1497608721256256,0.30972959101200104,0.0
30.000,0.4193988274782896,0.5722266329394188,-0.8858895050361753,0.22269285283982754,0.0,0.6610453054308891,-0.298916757106781,0.14667962491512299,0.3027816005051136,0.0
30.100,0.3264801539480686,0.6871282784850337,-1.082339508458972,0.2318507470190525,0.0,0.6494631916284561,-0.2960691750049591,0.14359837770462036,0.29583360999822617,0.0
30.200,0.23356148041784763,0.8020299240306485,-1.2787895118817687,0.24100864119827747,0.0,0.6378810778260231,-0.2932215929031372,0.14051713049411774,0.28888561949133873,0.0
30.300,0.14064280688762665,0.9169315695762634,-1.4752395153045654,0.25016653537750244,0.0,0.6262989640235901,-0.2903740108013153,0.1374358832836151,0.2819376289844513,0.0
30.400,0.24993660194533213,0.8046463515077319,-1.2764153012207577,0.25836909243038725,0.0,0.6335942319461277,-0.2854840798037393,0.13924993574619293,0.2897261381149292,0.0
30.500,0.3592303970030376,0.6923611334392002,-1.0775910871369498,0.266571649483272,0.0,0.6408894998686654,-0.28059414880616323,0.14106398820877075,0.2975146472454071,0.0
30.600,0.468524192060743,0.5800759153706687,-0.878766873053142,0.2747742065361568,0.0,0.648184767791203,-0.2757042178085872,0.14287804067134857,0.305303156375885,0.0
30.700,0.5778179871184486,0.4677906973021371,-0.6799426589693343,0.28297676358904156,0.0,0.6554800357137408,-0.27081428681101116,0.1446920931339264,0.3130916655063629,0.0
30.800,0.687111782176154,0.35550547923360554,-0.48111844488552635,0.29117932064192636,0.0,0.6627753036362785,-0.26592435581343515,0.1465061455965042,0.3208801746368408,0.0
30.900,0.7964055772338594,0.243220261165074,-0.28229423080171867,0.2993818776948111,0.0,0.6700705715588161,-0.2610344248158591,0.14832019805908203,0.3286686837673187,0.0
31.000,0.9056993722915649,0.13093504309654236,-0.08347001671791077,0.3075844347476959,0.0,0.6773658394813538,-0.2561444938182831,0.15013425052165985,0.33645719289779663,0.0
31.100,0.8066030740737915,0.23889251266207012,-0.2734958699771336,0.3048524941716875,0.0,0.673565319606236,-0.25169589476925985,0.14919713778155191,0.3332610896655491,0.0
31.200,0.7075067758560181,0.3468499822275979,-0.46352172323635643,0.30212055359567913,0.0,0.6697647997311184,-0.24724729572023665,0.14826002504144395,0.3300649864333017,0.0
31.300,0.6084104776382446,0.4548074517931257,-0.6535475764955793,0.29938861301967074,0.0,0.6659642798560006,-0.24279869667121343,0.147322912301336,0.3268688832010542,0.0
31.400,0.5093141794204712,0.5627649213586534,-0.8435734297548021,0.2966566724436624,0.0,0.662163759980883,-0.2383500976221902,0.14638579956122807,0.32367277996880667,0.0
31.500,0.41021788120269775,0.6707223909241813,-1.033599283014025,0.293924731867654,0.0,0.6583632401057652,-0.23390149857316697,0.14544868682112014,0.32047667673655916,0.0
31.600,0.3111215829849243,0.778679860489709,-1.2236251362732478,0.2911927912916456,0.0,0.6545627202306475,-0.22945289952414377,0.14451157408101217,0.3172805735043117,0.0
31.700,0.21202528476715088,0.8866373300552368,-1.4136509895324707,0.2884608507156372,0.0,0.6507622003555298,-0.22500430047512054,0.14357446134090424,0.3140844702720642,0.0
31.800,0.31083632366997854,0.774444199034146,-1.222790505204882,0.2937972588198526,0.0,0.6551667877605983,-0.2219488344022206,0.14445561809199198,0.3238554767199925,0.0
31.900,0.4096473625728062,0.662251068013055,-1.0319300208772932,0.2991336669240679,0.0,0.6595713751656669,-0.21889336832932063,0.1453367748430797,0.3336264831679208,0.0
32.000,0.5084584014756339,0.550057936991964,-0.8410695365497044,0.30447007502828327,0.0,0.6639759625707354,-0.2158379022564207,0.14621793159416743,0.3433974896158491,0.0
32.100,0.6072694403784615,0.4378648059708732,-0.6502090522221157,0.3098064831324986,0.0,0.6683805499758039,-0.21278243618352072,0.14709908834525517,0.35316849606377737,0.0
32.200,0.7060804792812893,0.3256716749497822,-0.4593485678945268,0.31514289123671396,0.0,0.6727851373808724,-0.20972697011062078,0.14798024509634292,0.3629395025117057,0.0
32.300,0.8048915181841169,0.21347854392869137,-0.2684880835669381,0.3204792993409293,0.0,0.677189724785941,-0.20667150403772083,0.14886140184743063,0.372710508959634,0.0
32.400,0.9037025570869446,0.1012854129076004,-0.07762759923934937,0.32581570744514465,0.0,0.6815943121910095,-0.20361603796482086,0.14974255859851837,0.38248151540756226,0.0
32.500,0.8126701499734607,0.2092178336211613,-0.2636839321681431,0.3174390835421426,0.0,0.6797768133027213,-0.2023198221411024,0.14922426002366201,0.377864841903959,0.0
32.600,0.7216377428599766,0.3171502543347222,-0.4497402650969369,0.30906245963914053,0.0,0.677959314414433,-0.2010236063173839,0.14870596144880568,0.37324816840035574,0.0
32.700,0.6306053357464927,0.4250826750482832,-0.6357965980257306,0.3006858357361385,0.0,0.6761418155261448,-0.19972739049366542,0.14818766287394933,0.3686314948967525,0.0
32.800,0.5395729286330087,0.533015095761844,-0.8218529309545244,0.2923092118331364,0.0,0.6743243166378566,-0.19843117466994695,0.14766936429909297,0.3640148213931492,0.0
32.900,0.4485405215195247,0.640947516475405,-1.0079092638833183,0.2839325879301344,0.0,0.6725068177495684,-0.19713495884622848,0.1471510657242366,0.359398147889546,0.0
33.000,0.3575081144060408,0.748879937188966,-1.193965596812112,0.27555596402713234,0.0,0.6706893188612801,-0.19583874302250998,0.14663276714938028,0.3547814743859427,0.0
33.100,0.26647570729255676,0.8568123579025269,-1.3800219297409058,0.26717934012413025,0.0,0.6688718199729919,-0.1945425271987915,0.14611446857452393,0.3501648008823395,0.0
33.200,0.33988556265830994,0.8230565190315247,-1.3210334777832031,0.28817662596702576,0.0,0.7649715542793274,-0.1770268976688385,0.16688662767410278,0.47691434621810913,0.0
33.300,0.2509605288505554,0.8434778451919556,-1.3982045650482178,0.25713568925857544,0.0,0.6972660422325134,-0.15436974167823792,0.1472945660352707,0.3814935088157654,0.0
33.400,0.14876927435398102,0.8433004021644592,-1.4794670343399048,0.24809889495372772,0.0,0.6004088521003723,-0.14439214766025543,0.1366114616394043,0.3501628339290619,0.0
33.500,0.24222050607204437,0.8305042386054993,-1.4089068174362183,0.25318896770477295,0.0,0.6944046020507812,-0.145358145236969,0.14593015611171722,0.42867282032966614,0.0
33.600,0.23328398168087006,0.8117446303367615,-1.4178355932235718,0.2608225643634796,0.0,0.6724453568458557,-0.1440548151731491,0.14292457699775696,0.4240773022174835,0.0
33.700,0.24493466317653656,0.8096424341201782,-1.4084144830703735,0.2642554044723511,0.0,0.6307001113891602,-0.1445489376783371,0.138353630900383,0.39328014850616455,0.0
33.800,0.2334873846599034,0.812415633882795,-1.417016761643546,0.2626154550484249,0.0,0.5403015315865299,-0.23002523609570094,0.3333466265882764,0.40335093651499065,0.0
33.900,0.22204010614327022,0.815188833645412,-1.4256190402167184,0.2609755056244986,0.0,0.4499029517838998,-0.3155015345130648,0.5283396222761698,0.4134217245238168,0.0
34.000,0.21059282762663706,0.8179620334080288,-1.434221318789891,0.2593355562005724,0.0,0.35950437198126955,-0.4009778329304286,0.7233326179640633,0.4234925125326429,0.0
34.100,0.19914554911000387,0.8207352331706456,-1.4428235973630632,0.2576956067766462,0.0,0.2691057921786394,-0.4864541313477925,0.9183256136519568,0.433563300541469,0.0
34.200,0.18769827059337071,0.8235084329332624,-1.4514258759362357,0.25605565735272,0.0,0.17870721237600912,-0.5719304297651564,1.1133186093398502,0.4436340885502952,0.0
34.300,0.17625099207673756,0.8262816326958793,-1.460028154509408,0.25441570792879376,0.0,0.08830863257337895,-0.6574067281825201,1.3083116050277437,0.4537048765591213,0.0
34.400,0.16480371356010437,0.8290548324584961,-1.4686304330825806,0.25277575850486755,0.0,-0.0020899472292512655,-0.742883026599884,1.5033046007156372,0.4637756645679474,0.0
34.500,0.1737044027873448,0.8259541051728385,-1.461851988519941,0.2552447021007538,0.0,0.08483308573652591,-0.6554178893566132,1.3077568049941743,0.4554105486188616,0.0
34.600,0.18260509201458522,0.8228533778871808,-1.4550735439573015,0.25771364569664,0.0,0.1717561187023031,-0.5679527521133423,1.1122090092727117,0.4470454326697758,0.0
34.700,0.19150578124182566,0.8197526506015232,-1.448295099394662,0.26018258929252625,0.0,0.25867915166808025,-0.4804876148700714,0.9166612135512489,0.43868031672069,0.0
34.800,0.20040647046906607,0.8166519233158657,-1.4415166548320226,0.2626515328884125,0.0,0.34560218463385745,-0.39302247762680054,0.7211134178297861,0.4303152007716043,0.0
34.900,0.2093071596963065,0.8135511960302081,-1.434738210269383,0.2651204764842987,0.0,0.43252521759963464,-0.30555734038352966,0.5255656221083232,0.4219500848225185,0.0
35.000,0.21820784892354692,0.8104504687445504,-1.4279597657067435,0.26758942008018494,0.0,0.5194482505654118,-0.2180922031402588,0.3300178263868605,0.4135849688734327,0.0
35.100,0.22710853815078735,0.8073497414588928,-1.421181321144104,0.27005836367607117,0.0,0.606371283531189,-0.13062706589698792,0.13447003066539764,0.4052198529243469,0.0
35.200,0.32597067952156067,0.7859966158866882,-1.3371951580047607,0.3040771484375,0.0,0.6645343899726868,-0.12987735867500305,0.1399911642074585,0.4454522132873535,0.0
35.300,0.42982734441757203,0.6987120270729065,-1.1545737862586976,0.3222770690917969,0.0,0.6671417236328125,-0.1316119074821472,0.1405595511198044,0.4453196883201599,0.0
35.400,0.5336840093135834,0.6114274382591247,-0.9719524145126343,0.34047698974609375,0.0,0.6697490572929382,-0.13334645628929137,0.14112793803215026,0.4451871633529663,0.0
35.500,0.6375406742095947,0.5241428494453431,-0.7893310427665711,0.3586769104003906,0.0,0.672356390953064,-0.13508100509643556,0.14169632494449616,0.4450546383857727,0.0
35.600,0.7413973391056061,0.43685826063156125,-0.6067096710205078,0.3768768310546875,0.0,0.6749637246131897,-0.13681555390357972,0.14226471185684203,0.4449221134185791,0.0
35.700,0.8452540040016174,0.34957367181777954,-0.4240882992744446,0.3950767517089844,0.0,0.6775710582733154,-0.13855010271072388,0.14283309876918793,0.4447895884513855,0.0
35.800,0.820865273475647,0.36065903306007385,-0.43460217118263245,0.3941153287887573,0.0,0.6755967140197754,-0.13495126366615295,0.14265559613704681,0.40377360582351685,0.0
35.900,0.8259483575820923,0.34410372376441956,-0.42664647102355957,0.42040127515792847,0.0,0.6915001273155212,-0.12006174027919769,0.1417960822582245,0.4494844079017639,0.0
36.000,0.8718442022800446,0.18603281397372484,-0.25243374705314636,0.4391963928937912,0.0,0.7002560496330261,-0.11881212517619133,0.1426241174340248,0.47208207845687866,0.0
36.100,0.9177400469779968,0.02796190418303013,-0.07822102308273315,0.45799151062965393,0.0,0.709011971950531,-0.11756251007318497,0.14345215260982513,0.4946797490119934,0.0
36.200,0.8189055217163903,0.13741954256381306,-0.26990982464381624,0.43386674353054594,0.0,0.7004295587539673,-0.11834729995046343,0.1426472727741514,0.4851672053337097,0.0
36.300,0.7200709964547839,0.24687718094459601,-0.46159862620489933,0.4097419764314379,0.0,0.6918471455574036,-0.1191320898277419,0.14184239293847764,0.475654661655426,0.0
36.400,0.6212364711931774,0.35633481932537897,-0.6532874277659825,0.3856172093323299,0.0,0.6832647323608398,-0.11991687970502037,0.1410375131028039,0.46614211797714233,0.0
36.500,0.522401945931571,0.4657924577061619,-0.8449762293270655,0.36149244223322186,0.0,0.6746823191642761,-0.12070166958229882,0.14023263326713017,0.45662957429885864,0.0
36.600,0.4235674206699644,0.5752500960869449,-1.0366650308881487,0.33736767513411386,0.0,0.6660999059677124,-0.12148645945957728,0.13942775343145644,0.44711703062057495,0.0
36.700,0.3247328954083579,0.6847077344677278,-1.2283538324492318,0.3132429080350059,0.0,0.6575174927711487,-0.12227124933685575,0.13862287359578268,0.43760448694229126,0.0
36.800,0.2258983701467514,0.7941653728485107,-1.420042634010315,0.2891181409358978,0.0,0.648935079574585,-0.12305603921413422,0.13781799376010895,0.42809194326400757,0.0
36.900,0.3247472175530025,0.6838848465787513,-1.2278524030532156,0.3124643010752542,0.0,0.652783717427935,-0.12295973513807569,0.13816066086292267,0.4316300281456539,0.0
37.000,0.42359606495925356,0.5736043203089919,-1.0356621720961163,0.3358104612146105,0.0,0.6566323552812848,-0.12286343106201716,0.1385033279657364,0.43516811302730013,0.0
37.100,0.5224449123655046,0.4633237940392324,-0.8434719411390169,0.35915662135396687,0.0,0.6604809931346348,-0.12276712698595864,0.1388459950685501,0.43870619790894644,0.0
37.200,0.6212937597717557,0.353043267769473,-0.6512817101819175,0.3825027814933232,0.0,0.6643296309879848,-0.12267082290990013,0.13918866217136383,0.44224428279059275,0.0
37.300,0.7201426071780068,0.24276274149971344,-0.4590914792248181,0.40584894163267954,0.0,0.6681782688413348,-0.1225745188338416,0.13953132927417755,0.44578236767223905,0.0
37.400,0.8189914545842579,0.13248221522995407,-0.2669012482677189,0.4291951017720359,0.0,0.6720269066946847,-0.12247821475778307,0.13987399637699127,0.4493204525538853,0.0
37.500,0.917840301990509,0.022201688960194588,-0.07471101731061935,0.4525412619113922,0.0,0.6758755445480347,-0.12238191068172455,0.140216663479805,0.4528585374355316,0.0
37.600,0.9246960282325745,0.029729679226875305,-0.0806424617767334,0.4515058100223541,0.0,0.7196860313415527,-0.12263618409633636,0.14610466361045837,0.4925098419189453,0.0
37.700,0.9262715697288513,0.03319167047739029,-0.08723390698432923,0.46745707988739016,0.0,0.6648774921894074,-0.2199984431266785,0.312376880645752,0.5118671178817749,0.0
37.800,0.9278471112251282,0.036653661727905275,-0.09382535219192505,0.48340834975242614,0.0,0.6100689530372619,-0.3173607021570206,0.4786490976810456,0.5312243938446045,0.0
37.900,0.929422652721405,0.040115652978420256,-0.10041679739952088,0.49935961961746217,0.0,0.5552604138851166,-0.4147229611873627,0.6449213147163391,0.5505816698074341,0.0
38.000,0.9309981942176819,0.043577644228935244,-0.1070082426071167,0.5153108894824981,0.0,0.5004518747329711,-0.5120852202177049,0.8111935317516328,0.5699389457702637,0.0
38.100,0.9325737357139587,0.047039635479450226,-0.11359968781471252,0.5312621593475342,0.0,0.4456433355808258,-0.6094474792480469,0.9774657487869263,0.5892962217330933,0.0
38.200,0.9167409539222717,0.10150354504585266,-0.1723812460899353,0.5166796565055847,0.0,0.4992463231086731,-0.5132403552532196,0.8114341974258423,0.573654854297638,0.0
38.300,0.9009081721305847,0.15596745461225509,-0.23116280436515807,0.5020971536636353,0.0,0.5528493106365204,-0.4170332312583923,0.6454026460647583,0.5580134868621827,0.0
38.400,0.8850753903388977,0.21043136417865752,-0.2899443626403808,0.48751465082168577,0.0,0.6064522981643676,-0.3208261072635651,0.47937109470367434,0.5423721194267273,0.0
38.500,0.8692426085472107,0.26489527374505994,-0.3487259209156036,0.4729321479797363,0.0,0.6600552856922149,-0.22461898326873775,0.3133395433425903,0.526730751991272,0.0
38.600,0.8534098267555237,0.3193591833114624,-0.4075074791908264,0.45834964513778687,0.0,0.7136582732200623,-0.12841185927391052,0.14730799198150635,0.5110893845558167,0.0
38.700,0.8951471745967865,0.16988071613013744,-0.2453705184161663,0.45952896773815155,0.0,0.7215860188007355,-0.12449342757463455,0.14820695668458939,0.5245764255523682,0.0
38.800,0.9368845224380493,0.020402248948812485,-0.0832335576415062,0.46070829033851624,0.0,0.7295137643814087,-0.12057499587535858,0.14910592138767242,0.5380634665489197,0.0
38.900,0.8887555400530497,0.16780546059211093,-0.2504400958617528,0.4992990692456563,0.0,0.7415751814842224,-0.09246867274244627,0.11450062940518062,0.5571829676628113,0.0
39.000,0.8406265576680502,0.3152086722354094,-0.4176466340819994,0.5378898481527964,0.0,0.7536365985870361,-0.06436234960953395,0.07989533742268881,0.5763024687767029,0.0
39.100,0.7924975752830505,0.4626118838787079,-0.5848531723022461,0.5764806270599365,0.0,0.7656980156898499,-0.03625602647662163,0.04529004544019699,0.5954219698905945,0.0
39.200,0.8438104788462321,0.3230059842268626,-0.4269837637742361,0.5533017913500468,0.0,0.7522583802541097,-0.06509538243214288,0.08047588169574738,0.583793580532074,0.0
39.300,0.8951233824094137,0.18340008457501733,-0.269114355246226,0.5301229556401571,0.0,0.7388187448183695,-0.09393473838766415,0.11566171795129776,0.5721651911735535,0.0
39.400,0.9464362859725952,0.043794184923172,-0.11124494671821594,0.5069441199302673,0.0,0.7253791093826294,-0.12277409434318542,0.15084755420684814,0.560536801815033,0.0
39.500,0.9429523706436157,0.040579122677445414,-0.1044033020734787,0.4914220988750458,0.0,0.6714182913303375,-0.21772491931915283,0.3132154822349549,0.5730605483055115,0.0
39.600,0.9394684553146362,0.037364060431718825,-0.09756165742874146,0.47590007781982424,0.0,0.6174574732780457,-0.31267574429512024,0.47558341026306156,0.58558429479599,0.0
39.700,0.9359845399856568,0.03414899818599224,-0.09072001278400421,0.46037805676460264,0.0,0.5634966552257538,-0.40762656927108765,0.6379513382911681,0.5981080412864686,0.0
39.800,0.9325006246566773,0.030933935940265653,-0.08387836813926697,0.4448560357093811,0.0,0.509535837173462,-0.502577394247055,0.800319266319275,0.610631787776947,0.0
39.900,0.9290167093276978,0.02771887369453907,-0.07703672349452972,0.42933401465415955,0.0,0.45557501912117004,-0.5975282192230225,0.9626871943473816,0.6231555342674255,0.0
40.000,0.9110890746116638,0.09040131717920304,-0.14597946405410767,0.4300493121147156,0.0,0.49898132085800173,-0.5032378375530243,0.7982245653867721,0.5888188123703003,0.0
40.100,0.8931614398956299,0.153083760663867,-0.2149222046136856,0.43076460957527163,0.0,0.5423876225948334,-0.4089474558830261,0.6337619364261626,0.5544820904731751,0.0
40.200,0.8752338051795959,0.21576620414853095,-0.28386494517326355,0.4314799070358276,0.0,0.585793924331665,-0.31465707421302797,0.4692993074655533,0.5201453685760498,0.0
40.300,0.8573061704635621,0.27844864763319493,-0.3528076857328415,0.43219520449638366,0.0,0.6292002260684967,-0.22036669254302976,0.3048366785049438,0.48580864667892454,0.0
40.400,0.8393785357475281,0.3411310911178589,-0.42175042629241943,0.4329105019569397,0.0,0.6726065278053284,-0.12607631087303162,0.1403740495443344,0.4514719247817993,0.0
40.500,0.8582922339439392,0.28422727063298225,-0.36638563573360444,0.46544097661972045,0.0,0.6319087088108063,-0.2165550947189331,0.30101230144500735,0.4904416561126709,0.0
40.600,0.8772059321403504,0.22732345014810562,-0.31102084517478945,0.4979714512825012,0.0,0.5912108898162842,-0.3070338785648346,0.4616505533456803,0.5294113874435424,0.0
40.700,0.8961196303367615,0.170419629663229,-0.2556560546159744,0.530501925945282,0.0,0.550513070821762,-0.3975126624107361,0.6222888052463531,0.5683811187744141,0.0
40.800,0.9150333285331727,0.11351580917835236,-0.2002912640571594,0.5630324006080627,0.0,0.50981525182724,-0.4879914462566376,0.7829270571470262,0.6073508501052857,0.0
40.900,0.9339470267295837,0.05661198869347572,-0.14492647349834442,0.5955628752708435,0.0,0.4691174328327179,-0.5784702301025391,0.943565309047699,0.6463205814361572,0.0
41.000,0.9095243066549301,0.12315435986965895,-0.21210769191384315,0.5637928172945976,0.0,0.5277296379208565,-0.46331166848540306,0.7436384782195091,0.6186716109514236,0.0
41.100,0.8851015865802765,0.18969673104584217,-0.2792889103293419,0.5320227593183517,0.0,0.5863418430089951,-0.34815310686826706,0.5437116473913193,0.5910226404666901,0.0
41.200,0.8606788665056229,0.2562391022220254,-0.3464701287448406,0.5002527013421059,0.0,0.6449540480971336,-0.23299454525113106,0.3437848165631294,0.5633736699819565,0.0
41.300,0.8362561464309692,0.3227814733982086,-0.41365134716033936,0.46848264336586,0.0,0.7035662531852722,-0.11783598363399506,0.14385798573493958,0.5357246994972229,0.0
41.400,0.8847473859786987,0.18195750750601292,-0.26119107753038406,0.4967942088842392,0.0,0.7238788902759552,-0.07724370062351227,0.09104586020112038,0.5664649605751038,0.0
41.500,0.9332386255264282,0.041133541613817215,-0.10873080790042877,0.5251057744026184,0.0,0.7441915273666382,-0.03665141761302948,0.03823373466730118,0.5972052216529846,0.0
41.600,0.8448238500526973,0.1479694236602102,-0.28570861050060814,0.4928645236151559,0.0,0.7393729260989598,-0.04899561830929347,0.05363702986921583,0.5871444770268032,0.0
41.700,0.7564090745789664,0.2548053057066032,-0.46268641310078756,0.4606232728276934,0.0,0.7345543248312814,-0.06133981900555747,0.06904032507113048,0.5770837324006217,0.0
41.800,0.6679942991052354,0.36164118775299614,-0.639664215700967,0.4283820220402309,0.0,0.729735723563603,-0.07368401970182145,0.08444362027304513,0.5670229877744403,0.0
41.900,0.5795795236315047,0.46847706979938913,-0.8166420183011464,0.39614077125276836,0.0,0.7249171222959246,-0.08602822039808546,0.09984691547495977,0.5569622431482587,0.0
42.000,0.49116474815777367,0.5753129518457821,-0.9936198209013258,0.3638995204653059,0.0,0.7200985210282462,-0.09837242109434946,0.11525021067687444,0.5469014985220773,0.0
42.100,0.4027499726840428,0.6821488338921751,-1.1705976235015052,0.3316582696778434,0.0,0.7152799197605678,-0.11071662179061344,0.13065350587878907,0.5368407538958958,0.0
42.200,0.3143351972103119,0.7889847159385681,-1.3475754261016846,0.29941701889038086,0.0,0.7104613184928894,-0.12306082248687744,0.14605680108070374,0.5267800092697144,0.0
42.300,0.4173122048377991,0.6995726883411407,-1.1630252003669739,0.32552952170372007,0.0,0.7070235013961792,-0.12281485050916671,0.14540647864341735,0.5254199981689454,0.0
42.400,0.5202892124652863,0.6101606607437133,-0.9784749746322632,0.35164202451705934,0.0,0.703585684299469,-0.122568878531456,0.14475615620613097,0.5240599870681762,0.0
42.500,0.6232662200927734,0.520748633146286,-0.7939247488975525,0.37775452733039855,0.0,0.7001478672027588,-0.12232290655374527,0.14410583376884462,0.5226999759674072,0.0
42.600,0.7262432277202606,0.4313366055488586,-0.6093745231628418,0.4038670301437378,0.0,0.6967100501060486,-0.12207693457603455,0.14345551133155823,0.5213399648666381,0.0
42.700,0.8292202353477478,0.3419245779514313,-0.4248242974281311,0.429979532957077,0.0,0.6932722330093384,-0.12183096259832382,0.14280518889427185,0.5199799537658691,0.0
42.800,0.8422604203224182,0.3391762971878052,-0.4201803505420685,0.4430077075958252,0.0,0.7190483808517456,-0.12284894287586212,0.1484900563955307,0.5449826121330261,0.0
42.900,0.8881089091300964,0.18692420609295368,-0.25443121790885925,0.45211178064346313,0.0,0.7198627293109894,-0.1228349506855011,0.14876556396484375,0.5468847751617432,0.0
43.000,0.9339573979377747,0.03467211499810219,-0.08868208527565002,0.4612158536911011,0.0,0.7206770777702332,-0.12282095849514008,0.1490410715341568,0.5487869381904602,0.0
43.100,0.8773844838142395,0.18899804539978504,-0.25812554359436035,0.4306575655937195,0.0,0.7172411382198334,-0.12019231915473938,0.14785882085561752,0.5532204806804657,0.0
43.200,0.8208115696907043,0.3433239758014679,-0.4275690019130707,0.4000992774963379,0.0,0.7138051986694336,-0.11756367981433868,0.14667657017707825,0.5576540231704712,0.0
43.300,0.8416414976119995,0.27813066393136976,-0.3566241070628166,0.40816507339477537,0.0,0.6585849225521088,-0.2135415315628052,0.3128488898277283,0.569765567779541,0.0
43.400,0.8624714255332947,0.21293735206127165,-0.28567921221256254,0.4162308692932129,0.0,0.6033646464347839,-0.3095193833112717,0.47902120947837834,0.5818771123886108,0.0
43.500,0.8833013534545898,0.14774404019117357,-0.2147343173623085,0.4242966651916504,0.0,0.5481443703174591,-0.40549723505973817,0.6451935291290283,0.5939886569976807,0.0
43.600,0.904131281375885,0.0825507283210754,-0.14378942251205445,0.4323624610900879,0.0,0.4929240942001343,-0.5014750868082047,0.8113658487796784,0.6061002016067505,0.0
43.700,0.9249612092971802,0.017357416450977325,-0.07284452766180038,0.4404282569885254,0.0,0.43770381808280945,-0.5974529385566711,0.9775381684303284,0.6182117462158203,0.0
43.800,0.8277587379728045,0.1297654573406492,-0.2634366261107581,0.4168201812676021,0.0,0.47767219373158043,-0.5293763716306006,0.8587404574666705,0.6031001891408648,0.0
43.900,0.7305562666484288,0.24217349823032105,-0.45402872455971577,0.39321210554667885,0.0,0.5176405693803514,-0.4612998047045299,0.7399427465030125,0.5879886320659092,0.0
44.000,0.6333537953240531,0.3545815391199929,-0.6446208230086735,0.3696040298257555,0.0,0.5576089450291225,-0.3932232377784593,0.6211450355393546,0.5728770749909537,0.0
44.100,0.5361513239996774,0.4669895800096648,-0.8352129214576312,0.34599595410483225,0.0,0.5975773206778935,-0.3251466708523887,0.5023473245756966,0.5577655179159982,0.0
44.200,0.4389488526753017,0.5793976208993367,-1.025805019906589,0.3223878783839089,0.0,0.6375456963266646,-0.257070103926318,0.38354961361203876,0.5426539608410427,0.0
44.300,0.34174638135092605,0.6918056617890085,-1.2163971183555466,0.29877980266298565,0.0,0.6775140719754356,-0.18899353700024746,0.2647519026483809,0.5275424037660872,0.0
44.400,0.2445439100265503,0.8042137026786804,-1.4069892168045044,0.2751717269420624,0.0,0.7174824476242065,-0.12091697007417679,0.1459541916847229,0.5124308466911316,0.0
44.500,0.36118690967559813,0.7115465104579926,-1.2105748355388641,0.2974957704544067,0.0,0.6653521716594696,-0.2158345639705658,0.30919036865234373,0.5337622404098511,0.0
44.600,0.477829909324646,0.6188793182373047,-1.0141604542732239,0.3198198139667511,0.0,0.6132218956947326,-0.3107521578669548,0.4724265456199646,0.5550936341285706,0.0
44.700,0.5944729089736938,0.5262121260166168,-0.8177460730075836,0.3421438574790955,0.0,0.5610916197299958,-0.4056697517633438,0.6356627225875855,0.57642502784729,0.0
44.800,0.7111159086227417,0.43354493379592896,-0.6213316917419434,0.36446790099143983,0.0,0.5089613437652588,-0.5005873456597328,0.7988988995552063,0.5977564215660095,0.0
44.900,0.8277589082717896,0.3408777415752411,-0.4249173104763031,0.3867919445037842,0.0,0.45683106780052185,-0.5955049395561218,0.9621350765228271,0.619087815284729,0.0
45.000,0.7134412169456482,0.43309792280197146,-0.6194127559661865,0.3651913821697235,0.0,0.5082226157188415,-0.5006132885813713,0.7987496584653855,0.5963867783546448,0.0
45.100,0.5991235256195069,0.5253181040287018,-0.8139082014560699,0.34359081983566286,0.0,0.5596141636371612,-0.4057216376066208,0.6353642404079437,0.5736857414245605,0.0
45.200,0.4848058342933655,0.6175382852554321,-1.0084036469459532,0.32199025750160215,0.0,0.611005711555481,-0.3108299866318703,0.47197882235050204,0.5509847044944763,0.0
45.300,0.3704881429672241,0.7097584664821626,-1.2028990924358367,0.3003896951675415,0.0,0.6623972594738007,-0.21593833565711973,0.30859340429306026,0.528283667564392,0.0
45.400,0.25617045164108276,0.8019786477088928,-1.3973945379257202,0.27878913283348083,0.0,0.7137888073921204,-0.12104668468236923,0.1452079862356186,0.5055826306343079,0.0
45.500,0.2840113043785095,0.7914305329322815,-1.3768314123153687,0.28262731432914734,0.0,0.7000145316123962,-0.12155722826719284,0.14297714829444885,0.48320987820625305,0.0
45.600,0.13919545710086823,0.8145031929016113,-1.4914182424545288,0.2442161738872528,0.0,0.7080439925193787,-0.12125755101442337,0.14418752491474152,0.4956938922405243,0.0
45.700,0.2142130434513092,0.8076207041740417,-1.436442255973816,0.2472415268421173,0.0,0.7080439925193787,-0.12125755101442337,0.14418752491474152,0.4956938922405243,0.0
45.800,0.23161190748214722,0.8047457337379456,-1.422796607017517,0.25207051634788513,0.0,0.7316640615463257,-0.12430014461278915,0.1513880044221878,0.5468792915344238,0.0
45.900,0.19178903102874756,0.8187693953514099,-1.454021692276001,0.23350799083709717,0.0,0.6862612366676331,-0.1256653219461441,0.141902357339859,0.4670216739177704,0.0
46.000,0.1964867740869522,0.8174872517585754,-1.4498866081237793,0.23741093873977662,0.0,0.6384505271911621,-0.2200768828392029,0.3081642985343933,0.49338202476501464,0.0
46.100,0.20118451714515687,0.816205108165741,-1.4457515239715577,0.24131388664245607,0.0,0.5906398177146912,-0.3144884437322617,0.4744262397289276,0.5197423756122589,0.0
46.200,0.2058822602033615,0.8149229645729065,-1.4416164398193358,0.2452168345451355,0.0,0.5428291082382202,-0.40890000462532045,0.6406881809234619,0.5461027264595032,0.0
46.300,0.21058000326156617,0.8136408209800721,-1.4374813556671142,0.24911978244781494,0.0,0.49501839876174925,-0.5033115655183793,0.8069501221179962,0.5724630773067474,0.0
46.400,0.2152777463197708,0.8123586773872375,-1.4333462715148926,0.2530227303504944,0.0,0.4472076892852783,-0.597723126411438,0.9732120633125305,0.5988234281539917,0.0
46.500,0.2188401311635971,0.8128453254699707,-1.4308409452438355,0.25183085203170774,0.0,0.49802001714706423,-0.5013918846845626,0.8070047467947006,0.5709654569625855,0.0
46.600,0.2224025160074234,0.8133319735527038,-1.4283356189727783,0.25063897371292115,0.0,0.5488323450088501,-0.4050606429576874,0.6407974302768706,0.5431074857711792,0.0
46.700,0.2259649008512497,0.8138186216354371,-1.4258302927017212,0.2494470953941345,0.0,0.5996446728706359,-0.3087294012308121,0.47459011375904087,0.515249514579773,0.0
46.800,0.229527285695076,0.8143052697181702,-1.423324966430664,0.2482552170753479,0.0,0.6504570007324219,-0.21239815950393676,0.30838279724121087,0.4873915433883667,0.0
46.900,0.23308967053890228,0.8147919178009033,-1.420819640159607,0.24706333875656128,0.0,0.7012693285942078,-0.11606691777706146,0.14217548072338104,0.45953357219696045,0.0
47.000,0.151533305644989,0.8262552618980408,-1.4834132194519043,0.22773462533950806,0.0,0.6950225234031677,-0.12355923652648926,0.1426970511674881,0.4559498727321625,0.0
47.100,0.26225000619888306,0.8094003200531006,-1.3973933458328247,0.2559144198894501,0.0,0.7251759171485901,-0.11875326186418533,0.14566545188426971,0.45212483406066895,0.0
47.200,0.37884485721588135,0.7177753865718841,-1.2028809428215026,0.2774287581443787,0.0,0.6767882823944091,-0.21550620198249817,0.3064858078956604,0.47795242071151733,0.0
47.300,0.49543970823287964,0.6261504530906677,-1.0083685398101807,0.2989430963993073,0.0,0.6284006476402283,-0.312259142100811,0.4673061639070511,0.5037800073623657,0.0
47.400,0.6120345592498779,0.5345255196094514,-0.8138561367988587,0.3204574346542358,0.0,0.5800130128860473,-0.40901208221912383,0.6281265199184418,0.5296075940132141,0.0
47.500,0.7286294102668762,0.44290058612823485,-0.6193437337875366,0.3419717729091644,0.0,0.5316253781318665,-0.5057650223374367,0.7889468759298325,0.5554351806640625,0.0
47.600,0.8452242612838745,0.35127565264701843,-0.4248313307762146,0.363486111164093,0.0,0.48323774337768555,-0.6025179624557495,0.9497672319412231,0.5812627673149109,0.0
47.700,0.8445445418357849,0.35213870406150816,-0.4253403842449188,0.369232052564621,0.0,0.5480135798454284,-0.4969370648264885,0.782731394469738,0.5985837697982788,0.0
47.800,0.8438648223876953,0.35300175547599794,-0.42584943771362305,0.3749779939651489,0.0,0.6127894163131714,-0.39135616719722743,0.6156955569982528,0.6159047722816468,0.0
47.900,0.8431851029396057,0.35386480689048766,-0.42635849118232727,0.3807239353656769,0.0,0.6775652527809143,-0.28577526956796645,0.44865971952676775,0.6332257747650146,0.0
48.000,0.8425053834915162,0.35472785830497744,-0.4268675446510315,0.3864698767662048,0.0,0.7423410892486573,-0.1801943719387054,0.28162388205528255,0.6505467772483826,0.0
48.100,0.8418256640434265,0.35559090971946716,-0.4273765981197357,0.3922158181667328,0.0,0.8071169257164001,-0.07461347430944443,0.11458804458379745,0.6678677797317505,0.0
48.200,0.8858767151832581,0.20475156977772713,-0.2699265703558922,0.455897256731987,0.0,0.7898007035255432,-0.14613720402121544,0.24222075566649437,0.7396765947341919,0.0
48.300,0.9299277663230896,0.05391222983598709,-0.11247654259204865,0.5195786952972412,0.0,0.7724844813346863,-0.21766093373298645,0.3698534667491913,0.8114854097366333,0.0
48.400,0.840631012405668,0.16244887241295405,-0.29135264243398395,0.4812799394130707,0.0,0.7700149416923523,-0.22665821654456003,0.3417392649820873,0.7501414971692222,0.0
48.500,0.7513342584882464,0.270985514989921,-0.4702287422759192,0.44298118352890015,0.0,0.7675454020500183,-0.23565549935613359,0.3136250632149833,0.6887975846018111,0.0
48.600,0.6620375045708248,0.37952215756688795,-0.6491048421178545,0.4046824276447296,0.0,0.7650758624076843,-0.24465278216770717,0.28551086144787924,0.6274536720343998,0.0
48.700,0.5727407506534032,0.48805880014385494,-0.8279809419597898,0.3663836717605591,0.0,0.7626063227653503,-0.2536500649792807,0.25739665968077524,0.5661097594669887,0.0
48.800,0.48344399673598154,0.596595442720822,-1.006857041801725,0.32808491587638855,0.0,0.7601367831230164,-0.2626473477908543,0.22928245791367122,0.5047658468995775,0.0
48.900,0.39414724281855995,0.7051320852977888,-1.1857331416436603,0.289786159992218,0.0,0.7576672434806824,-0.2716446306024279,0.20116825614656722,0.4434219343321664,0.0
49.000,0.3048504889011383,0.8136687278747559,-1.3646092414855957,0.2514874041080475,0.0,0.7551977038383484,-0.28064191341400146,0.1730540543794632,0.38207802176475525,0.0
49.100,0.19359326362609863,0.8312108516693115,-1.4508260488510132,0.23163309693336487,0.0,0.740776002407074,-0.36454135179519653,0.16523268818855286,0.3094790577888489,0.0
49.200,0.30156654119491577,0.7226133442350796,-1.2594334802457265,0.26369574666023254,0.0,0.7368487460272652,-0.31534588603036745,0.08720384751047407,0.2885337110076632,0.0
49.300,0.4095398187637329,0.6140158368008477,-1.0680409116404397,0.2957583963871002,0.0,0.7329214896474566,-0.26615042026553837,0.009175006832395277,0.26758836422647747,0.0
49.400,0.51751309633255,0.5054183293666159,-0.876648343035153,0.3278210461139679,0.0,0.7289942332676479,-0.21695495450070926,-0.0688538338456835,0.2466430174452918,0.0
49.500,0.6254863739013672,0.396820821932384,-0.6852557744298663,0.35988369584083557,0.0,0.7250669768878392,-0.16775948873588017,-0.1468826745237623,0.22569767066410612,0.0
49.600,0.7334596514701843,0.2882233144981521,-0.49386320582457954,0.39194634556770325,0.0,0.7211397205080304,-0.11856402297105106,-0.2249115152018411,0.20475232388292042,0.0
49.700,0.8414329290390015,0.17962580706392017,-0.3024706372192929,0.4240089952945709,0.0,0.7172124641282218,-0.06936855720622198,-0.30294035587991985,0.18380697710173471,0.0
49.800,0.9494062066078186,0.07102829962968826,-0.11107806861400604,0.4560716450214386,0.0,0.7132852077484131,-0.0201730914413929,-0.38096919655799866,0.162861630320549,0.0
49.900,0.9346382021903992,0.05813802778720856,-0.08806472271680832,0.4090202748775482,0.0,0.71678227186203,-0.10017596185207367,-0.4201395511627197,0.13173338770866394,0.0
50.000,0.8589642308652401,0.15085489116609097,-0.24332037661224604,0.3960815779864788,0.0,0.6713638305664062,-0.22143356688320637,-0.23949186503887177,0.16178129240870476,0.0
50.100,0.783290259540081,0.24357175454497337,-0.39857603050768375,0.3831428810954094,0.0,0.6259453892707825,-0.34269117191433907,-0.058844178915023804,0.19182919710874557,0.0
50.200,0.707616288214922,0.3362886179238558,-0.5538316844031215,0.37020418420434,0.0,0.5805269479751587,-0.46394877694547176,0.12180350720882416,0.2218771018087864,0.0
50.300,0.6319423168897629,0.4290054813027382,-0.7090873382985592,0.35726548731327057,0.0,0.5351085066795349,-0.5852063819766045,0.3024511933326721,0.2519250065088272,0.0
50.400,0.5562683455646038,0.5217223446816206,-0.8643429921939969,0.34432679042220116,0.0,0.48969006538391113,-0.7064639870077372,0.4830988794565201,0.281972911208868,0.0
50.500,0.48059437423944473,0.614439208060503,-1.0195986460894346,0.33138809353113174,0.0,0.44427162408828735,-0.8277215920388699,0.663746565580368,0.31202081590890884,0.0
50.600,0.40492040291428566,0.7071560714393854,-1.1748542999848723,0.31844939664006233,0.0,0.3988531827926636,-0.9489791970700026,0.844394251704216,0.34206872060894966,0.0
50.700,0.3292464315891266,0.7998729348182678,-1.33010995388031,0.3055106997489929,0.0,0.3534347414970398,-1.0702368021011353,1.025041937828064,0.3721166253089905,0.0
50.800,0.39095755517482755,0.7263180397450923,-1.20845190808177,0.32281858623027804,0.0,0.3725858569145203,-0.9622900992631912,0.8365857064723968,0.3370602382346988,0.0
50.900,0.4526686787605286,0.652763144671917,-1.0867938622832298,0.3401264727115631,0.0,0.3917369723320007,-0.8543433964252471,0.6481294751167297,0.30200385116040707,0.0
51.000,0.5143798023462296,0.5792082495987415,-0.9651358164846897,0.3574343591928482,0.0,0.4108880877494812,-0.7463966935873032,0.45967324376106267,0.26694746408611536,0.0
51.100,0.5760909259319306,0.5056533545255661,-0.8434777706861496,0.3747422456741333,0.0,0.43003920316696165,-0.638449990749359,0.2712170124053954,0.23189107701182365,0.0
51.200,0.6378020495176315,0.43209845945239067,-0.7218197248876095,0.3920501321554184,0.0,0.44919031858444214,-0.5305032879114151,0.0827607810497284,0.19683468993753195,0.0
51.300,0.6995131731033325,0.35854356437921525,-0.6001616790890694,0.4093580186367035,0.0,0.46834143400192263,-0.42255658507347105,-0.10569545030593863,0.16177830286324024,0.0
51.400,0.7612242966890335,0.28498866930603983,-0.47850363329052925,0.4266659051179886,0.0,0.48749254941940307,-0.3146098822355271,-0.29415168166160566,0.12672191578894856,0.0
51.500,0.8229354202747345,0.21143377423286436,-0.35684558749198914,0.4439737915992737,0.0,0.5066436648368835,-0.20666317939758294,-0.4826079130172731,0.09166552871465683,0.0
51.600,0.8846465438604355,0.13787887915968888,-0.23518754169344902,0.46128167808055875,0.0,0.525794780254364,-0.098716476559639,-0.6710641443729402,0.056609141640365124,0.0
51.700,0.9463576674461365,0.06432398408651352,-0.1135294958949089,0.47858956456184387,0.0,0.5449458956718445,0.009230226278305054,-0.8595203757286072,0.021552754566073418,0.0
51.800,0.9405311644077301,0.05547546222805977,-0.09756811335682869,0.4383423179388046,0.0,0.469435378909111,0.03823757544159889,-0.991292268037796,-0.0009131506085395813,0.0
51.900,0.9347046613693237,0.04662694036960602,-0.08160673081874847,0.3980950713157654,0.0,0.39392486214637756,0.06724492460489273,-1.1230641603469849,-0.02337905578315258,0.0
52.000,0.8399594593793154,0.14491560868918896,-0.25397557206451893,0.3788893576711416,0.0,0.39716076478362083,-0.072949287481606,-0.9299137592315674,0.011137922992929816,0.0
52.100,0.745214257389307,0.2432042770087719,-0.4263444133102894,0.35968364402651787,0.0,0.4003966674208641,-0.21314349956810474,-0.7367633581161499,0.04565490176901221,0.0
52.200,0.6504690553992987,0.34149294532835484,-0.5987132545560598,0.3404779303818941,0.0,0.4036325700581074,-0.3533377116546035,-0.5436129570007324,0.08017188054509461,0.0
52.300,0.5557238534092903,0.4397816136479378,-0.7710820958018303,0.32127221673727036,0.0,0.40686847269535065,-0.4935319237411022,-0.35046255588531494,0.114688859321177,0.0
52.400,0.46097865141928196,0.5380702819675207,-0.9434509370476007,0.3020665030926466,0.0,0.4101043753325939,-0.633726135827601,-0.15731215476989746,0.1492058380972594,0.0
52.500,0.3662334494292736,0.6363589502871037,-1.1158197782933712,0.28286078944802284,0.0,0.4133402779698372,-0.7739203479140997,0.03583824634552002,0.1837228168733418,0.0
52.600,0.27148824743926525,0.7346476186066866,-1.2881886195391417,0.2636550758033991,0.0,0.41657618060708046,-0.9141145600005984,0.2289886474609375,0.2182397956494242,0.0
52.700,0.1767430454492569,0.8329362869262695,-1.460557460784912,0.24444936215877533,0.0,0.41981208324432373,-1.0543087720870972,0.422139048576355,0.2527567744255066,0.0
52.800,0.2867257719238599,0.7545511623223623,-1.2890333582957585,0.2678457523385684,0.0,0.48130837082862854,-0.9423927764097849,0.25619752208391827,0.22249444698294005,0.0
52.900,0.3967084983984629,0.6761660377184551,-1.117509255806605,0.2912421425183614,0.0,0.5428046584129333,-0.8304767807324728,0.09025599559148156,0.1922321195403735,0.0
53.000,0.506691224873066,0.5977809131145477,-0.9459851533174515,0.31463853269815445,0.0,0.6043009459972382,-0.7185607850551605,-0.0756855309009552,0.16196979209780693,0.0
53.100,0.6166739513476689,0.5193957885106405,-0.774461050828298,0.33803492287794745,0.0,0.665797233581543,-0.6066447893778484,-0.24162705739339185,0.13170746465524039,0.0
53.200,0.7266566778222721,0.44101066390673316,-0.6029369483391444,0.36143131305774057,0.0,0.7272935211658478,-0.494728793700536,-0.40756858388582873,0.10144513721267381,0.0
53.300,0.836639404296875,0.3626255393028259,-0.43141284584999084,0.38482770323753357,0.0,0.7887898087501526,-0.3828127980232239,-0.5735101103782654,0.07118280977010727,0.0
53.400,0.8566685199737549,0.29749889597296714,-0.36083833426237105,0.3873145759105682,0.0,0.6397617168724536,-0.3170389704406261,-0.7465555191040039,0.03601803630590439,0.0
53.500,0.8766976356506347,0.23237225264310837,-0.29026382267475126,0.3898014485836029,0.0,0.49073362499475476,-0.25126514285802837,-0.9196009278297425,0.0008532628417015076,0.0
53.600,0.8967267513275147,0.16724560931324958,-0.2196893110871315,0.3922883212566376,0.0,0.3417055331170559,-0.1854913152754307,-1.092646336555481,-0.03431151062250137,0.0
53.700,0.9167558670043945,0.10211896598339082,-0.14911479949951173,0.39477519392967225,0.0,0.19267744123935693,-0.11971748769283291,-1.2656917452812195,-0.06947628408670425,0.0
53.800,0.9367849826812744,0.03699232265353203,-0.07854028791189194,0.3972620666027069,0.0,0.043649349361658096,-0.053943660110235214,-1.438737154006958,-0.10464105755090714,0.0
53.900,0.8338652040277209,0.148420692554542,-0.2716360283749444,0.3775079505784171,0.0,0.1690759350146566,-0.10699013833488737,-1.3294614127704076,-0.07123182713985443,0.0
54.000,0.7309454253741673,0.25984906245555195,-0.4647317688379969,0.3577538345541273,0.0,0.2945025206676551,-0.16003661655953952,-1.220185671533857,-0.03782259672880173,0.0
54.100,0.6280256467206138,0.3712774323565619,-0.6578275093010494,0.33799971852983746,0.0,0.4199291063206536,-0.21308309478419166,-1.1109099302973067,-0.0044133663177490234,0.0
54.200,0.5251058680670602,0.48270580225757187,-0.8509232497641018,0.3182456025055477,0.0,0.5453556919736521,-0.2661295730088438,-1.001634189060756,0.02899586409330368,0.0
54.300,0.42218608941350666,0.5941341721585819,-1.0440189902271544,0.29849148648125784,0.0,0.6707822776266507,-0.319176051233496,-0.8923584478242057,0.062405094504356384,0.0
54.400,0.31926631075995315,0.7055625420595918,-1.2371147306902068,0.27873737045696806,0.0,0.7962088632796491,-0.3722225294581481,-0.7830827065876552,0.09581432491540909,0.0
54.500,0.21634653210639954,0.8169909119606018,-1.4302104711532593,0.2589832544326782,0.0,0.9216354489326477,-0.4252690076828003,-0.6738069653511047,0.1292235553264618,0.0
54.600,0.19878147542476654,0.8111489415168762,-1.4401822090148926,0.2794092893600464,0.0,0.8517610430717468,-0.5089319348335266,-0.6695104241371155,0.06168261170387268,0.0
