maximpopov11/Real-Steel/ros_ws/angles.csv
timestamp,left_joint_0,left_joint_1,left_joint_2,left_joint_3,left_joint_4,right_joint_0,right_joint_1,right_joint_2,right_joint_3,right_joint_4
0.000,0.8124596476554871,-0.039466213434934616,0.03344731032848358,0.5349076986312866,0.0,0.28971391916275024,-0.6217122077941895,0.3953360319137573,1.0494333505630493,0.0
0.100,0.8073337191627139,-0.008504324725696021,-0.0015488125029064354,0.5247173791839963,0.0,0.29333292018799556,-0.6232597175098601,0.3985951713153294,1.0424600953147525,0.0
0.200,0.8022077906699407,0.022457563983542574,-0.03654493533429645,0.514527059736706,0.0,0.2969519212132409,-0.6248072272255307,0.40185431071690153,1.0354868400664556,0.0
0.300,0.7970818621771676,0.05341945269278117,-0.07154105816568647,0.5043367402894157,0.0,0.30057092223848614,-0.6263547369412014,0.4051134501184736,1.0285135848181588,0.0
0.400,0.7919559336843944,0.08438134140201976,-0.10653718099707649,0.4941464208421253,0.0,0.30418992326373145,-0.627902246656872,0.4083725895200457,1.021540329569862,0.0
0.500,0.7868300051916213,0.11534323011125835,-0.1415333038284665,0.48395610139483497,0.0,0.30780892428897677,-0.6294497563725426,0.41163172892161776,1.0145670743215651,0.0
0.600,0.7817040766988482,0.14630511882049696,-0.17652942665985652,0.47376578194754465,0.0,0.3114279253142221,-0.6309972660882133,0.4148908683231899,1.0075938190732683,0.0
0.700,0.7765781482060751,0.17726700752973557,-0.21152554949124652,0.46357546250025433,0.0,0.31504692633946735,-0.6325447758038839,0.41815000772476196,1.0006205638249714,0.0
0.800,0.7714522197133019,0.20822889623897414,-0.24652167232263655,0.45338514305296396,0.0,0.31866592736471266,-0.6340922855195545,0.42140914712633404,0.9936473085766747,0.0
0.900,0.7663262912205288,0.23919078494821272,-0.2815177951540266,0.44319482360567364,0.0,0.322284928389958,-0.6356397952352252,0.42466828652790617,0.9866740533283779,0.0
1.000,0.7612003627277556,0.2701526736574513,-0.31651391798541656,0.4330045041583833,0.0,0.3259039294152033,-0.6371873049508958,0.42792742592947824,0.979700798080081,0.0
1.100,0.7560744342349824,0.30111456236669,-0.35151004081680665,0.422814184711093,0.0,0.32952293044044856,-0.6387348146665663,0.4311865653310503,0.9727275428317842,0.0
1.200,0.7509485057422093,0.33207645107592854,-0.3865061636481966,0.4126238652638027,0.0,0.3331419314656939,-0.640282324382237,0.4344457047326224,0.9657542875834874,0.0
1.300,0.7458225772494361,0.36303833978516714,-0.42150228647958665,0.40243354581651236,0.0,0.3367609324909392,-0.6418298340979076,0.4377048441341945,0.9587810323351905,0.0
1.400,0.740696648756663,0.39400022849440575,-0.4564984093109766,0.39224322636922204,0.0,0.3403799335161845,-0.6433773438135783,0.4409639835357666,0.9518077770868937,0.0
1.500,0.7355707202638898,0.42496211720364435,-0.4914945321423667,0.38205290692193167,0.0,0.3439989345414298,-0.6449248535292489,0.4442231229373387,0.9448345218385968,0.0
1.600,0.7304447917711168,0.4559240059128829,-0.5264906549737567,0.37186258747464135,0.0,0.3476179355666751,-0.6464723632449195,0.44748226233891075,0.9378612665903001,0.0
1.700,0.7253188632783436,0.4868858946221215,-0.5614867778051468,0.361672268027351,0.0,0.3512369365919204,-0.6480198729605902,0.4507414017404829,0.9308880113420033,0.0
1.800,0.7201929347855704,0.5178477833313601,-0.5964829006365368,0.3514819485800607,0.0,0.3548559376171657,-0.6495673826762608,0.45400054114205496,0.9239147560937064,0.0
1.900,0.7150670062927973,0.5488096720405987,-0.6314790234679267,0.34129162913277034,0.0,0.358474938642411,-0.6511148923919314,0.45725968054362703,0.9169415008454096,0.0
2.000,0.7099410778000241,0.5797715607498373,-0.6664751462993167,0.33110130968548,0.0,0.3620939396676563,-0.6526624021076021,0.46051881994519916,0.9099682455971128,0.0
2.100,0.704815149307251,0.6107334494590759,-0.7014712691307068,0.3209109902381897,0.0,0.3657129406929016,-0.6542099118232727,0.46377795934677124,0.9029949903488159,0.0
2.200,0.6846966317721775,0.6224826233727592,-0.7177683115005493,0.35597290311540875,0.0,0.37019458413124084,-0.6494950822421482,0.4573579898902348,0.9068103943552289,0.0
2.300,0.6645781142371041,0.6342317972864423,-0.7340653538703918,0.3910348159926278,0.0,0.3746762275695801,-0.6447802526610238,0.4509380204336984,0.910625798361642,0.0
2.400,0.6444595967020307,0.6459809712001255,-0.7503623962402344,0.4260967288698469,0.0,0.3791578710079193,-0.6400654230798993,0.44451805097716196,0.914441202368055,0.0
2.500,0.6243410791669574,0.6577301451138088,-0.7666594386100769,0.46115864174706594,0.0,0.38363951444625854,-0.635350593498775,0.4380980815206255,0.9182566063744682,0.0
2.600,0.6042225616318839,0.669479319027492,-0.7829564809799194,0.49622055462428505,0.0,0.3881211578845978,-0.6306357639176505,0.43167811206408907,0.9220720103808812,0.0
2.700,0.5841040440968105,0.6812284929411752,-0.799253523349762,0.5312824675015041,0.0,0.392602801322937,-0.6259209343365261,0.4252581426075527,0.9258874143872943,0.0
2.800,0.5639855265617371,0.6929776668548584,-0.8155505657196045,0.5663443803787231,0.0,0.39708444476127625,-0.6212061047554016,0.41883817315101624,0.9297028183937073,0.0
2.900,0.5649053591948289,0.6720092600354781,-0.7719924518695245,0.5690540167001578,0.0,0.40004245936870575,-0.6220099421647879,0.41953324469236225,0.9261002127940838,0.0
3.000,0.5658251918279208,0.651040853216098,-0.7284343380194443,0.5717636530215924,0.0,0.40300047397613525,-0.6228137795741742,0.4202283162337083,0.9224976071944604,0.0
3.100,0.5667450244610126,0.6300724463967177,-0.6848762241693643,0.574473289343027,0.0,0.40595848858356476,-0.6236176169835604,0.42092338777505434,0.918895001594837,0.0
3.200,0.5676648570941045,0.6091040395773374,-0.6413181103192843,0.5771829256644616,0.0,0.40891650319099426,-0.6244214543929467,0.4216184593164004,0.9152923959952134,0.0
3.300,0.5685846897271963,0.5881356327579572,-0.5977599964692042,0.5798925619858962,0.0,0.41187451779842377,-0.625225291802333,0.4223135308577464,0.91168979039559,0.0
3.400,0.5695045223602881,0.5671672259385769,-0.5542018826191242,0.5826021983073308,0.0,0.41483253240585327,-0.6260291292117193,0.42300860239909244,0.9080871847959665,0.0
3.500,0.5704243549933801,0.5461988191191967,-0.5106437687690442,0.5853118346287653,0.0,0.4177905470132828,-0.6268329666211054,0.4237036739404385,0.9044845791963431,0.0
3.600,0.5713441876264719,0.5252304122998164,-0.4670856549189641,0.5880214709502,0.0,0.4207485616207123,-0.6276368040304917,0.4243987454817845,0.9008819735967196,0.0
3.700,0.5722640202595637,0.5042620054804362,-0.4235275410688841,0.5907311072716346,0.0,0.4237065762281418,-0.628440641439878,0.42509381702313054,0.8972793679970962,0.0
3.800,0.5731838528926556,0.4832935986610559,-0.37996942721880395,0.5934407435930692,0.0,0.4266645908355713,-0.6292444788492643,0.4257888885644766,0.8936767623974726,0.0
3.900,0.5741036855257474,0.4623251918416757,-0.33641131336872393,0.5961503799145038,0.0,0.4296226054430008,-0.6300483162586505,0.4264839601058226,0.8900741567978492,0.0
4.000,0.5750235181588393,0.4413567850222954,-0.29285319951864386,0.5988600162359384,0.0,0.4325806200504303,-0.6308521536680368,0.4271790316471687,0.8864715511982257,0.0
4.100,0.5759433507919312,0.4203883782029152,-0.24929508566856384,0.601569652557373,0.0,0.4355386346578598,-0.6316559910774231,0.4278741031885147,0.8828689455986023,0.0
4.200,0.576863183425023,0.39941997138353497,-0.20573697181848383,0.6042792888788077,0.0,0.4384966492652893,-0.6324598284868094,0.4285691747298607,0.8792663399989789,0.0
4.300,0.5777830160581149,0.37845156456415474,-0.1621788579684038,0.6069889252002423,0.0,0.4414546638727188,-0.6332636658961956,0.4292642462712068,0.8756637343993554,0.0
4.400,0.5787028486912067,0.35748315774477446,-0.11862074411832368,0.6096985615216769,0.0,0.4444126784801483,-0.6340675033055819,0.4299593178125528,0.872061128799732,0.0
4.500,0.5796226813242986,0.3365147509253942,-0.07506263026824367,0.6124081978431115,0.0,0.4473706930875778,-0.6348713407149682,0.4306543893538989,0.8684585232001084,0.0
4.600,0.5805425139573904,0.31554634410601395,-0.03150451641816365,0.6151178341645461,0.0,0.4503287076950073,-0.6356751781243545,0.4313494608952449,0.864855917600485,0.0
4.700,0.5814623465904822,0.29457793728663373,0.012053597431916363,0.6178274704859807,0.0,0.45328672230243683,-0.6364790155337408,0.4320445324365909,0.8612533120008615,0.0
4.800,0.5823821792235742,0.27360953046725345,0.0556117112819966,0.6205371068074153,0.0,0.45624473690986633,-0.6372828529431269,0.432739603977937,0.8576507064012381,0.0
4.900,0.583302011856666,0.2526411236478732,0.09916982513207662,0.6232467431288499,0.0,0.45920275151729584,-0.6380866903525132,0.433434675519283,0.8540481008016146,0.0
5.000,0.5842218444897578,0.231672716828493,0.14272793898215663,0.6259563794502845,0.0,0.46216076612472534,-0.6388905277618995,0.434129747060629,0.8504454952019912,0.0
5.100,0.5851416771228497,0.21070431000911272,0.18628605283223654,0.6286660157717191,0.0,0.46511878073215485,-0.6396943651712858,0.4348248186019751,0.8468428896023676,0.0
5.200,0.5860615097559415,0.18973590318973244,0.22984416668231678,0.6313756520931537,0.0,0.46807679533958435,-0.640498202580672,0.4355198901433211,0.8432402840027442,0.0
5.300,0.5869813423890334,0.16876749637035227,0.2734022805323968,0.6340852884145883,0.0,0.47103480994701385,-0.6413020399900583,0.43621496168466717,0.8396376784031208,0.0
5.400,0.5879011750221252,0.14779908955097198,0.3169603943824768,0.636794924736023,0.0,0.47399282455444336,-0.6421058773994446,0.4369100332260132,0.8360350728034973,0.0
5.500,0.5691801565034049,0.15189188718795776,0.35519446219716755,0.6551194787025452,0.0,0.4744983783790043,-0.6417471213000161,0.43628433985369547,0.836223691701889,0.0
5.600,0.5504591379846845,0.15598468482494354,0.39342853001185824,0.6734440326690674,0.0,0.47500393220356535,-0.6413883652005877,0.43565864648137775,0.8364123106002808,0.0
5.700,0.5317381194659642,0.16007748246192932,0.431662597826549,0.6917685866355896,0.0,0.4755094860281263,-0.6410296091011592,0.43503295310906004,0.8366009294986725,0.0
5.800,0.5130171009472438,0.1641702800989151,0.46989666564123966,0.7100931406021118,0.0,0.4760150398526873,-0.6406708530017308,0.43440725973674227,0.8367895483970642,0.0
5.900,0.49429608242852346,0.16826307773590088,0.5081307334559304,0.728417694568634,0.0,0.47652059367724825,-0.6403120969023023,0.43378156636442455,0.8369781672954559,0.0
6.000,0.47557506390980314,0.17235587537288666,0.5463648012706211,0.7467422485351562,0.0,0.4770261475018093,-0.6399533408028739,0.43315587299210684,0.8371667861938477,0.0
6.100,0.45685404539108276,0.17644867300987244,0.5845988690853119,0.7650668025016785,0.0,0.47753170132637024,-0.6395945847034454,0.4325301796197891,0.8373554050922394,0.0
6.200,0.43813302687236244,0.18054147064685822,0.6228329369000025,0.7833913564682007,0.0,0.4780372551509312,-0.639235828604017,0.4319044862474714,0.8375440239906311,0.0
6.300,0.419412008353642,0.184634268283844,0.6610670047146934,0.8017159104347229,0.0,0.47854280897549223,-0.6388770725045886,0.4312787928751537,0.8377326428890228,0.0
6.400,0.4006909898349217,0.18872706592082977,0.699301072529384,0.8200404644012451,0.0,0.4790483628000532,-0.6385183164051601,0.430653099502836,0.8379212617874146,0.0
6.500,0.38196997131620136,0.19281986355781555,0.7375351403440749,0.8383650183677673,0.0,0.47955391662461416,-0.6381595603057316,0.4300274061305182,0.8381098806858063,0.0
6.600,0.36324895279748104,0.19691266119480133,0.7757692081587655,0.8566895723342896,0.0,0.48005947044917513,-0.6378008042063031,0.4294017127582005,0.838298499584198,0.0
6.700,0.3445279342787606,0.2010054588317871,0.8140032759734563,0.8750141263008118,0.0,0.48056502427373615,-0.6374420481068748,0.4287760193858828,0.8384871184825897,0.0
6.800,0.3258069157600403,0.2050982564687729,0.852237343788147,0.893338680267334,0.0,0.4810705780982971,-0.6370832920074463,0.42815032601356506,0.8386757373809814,0.0
6.900,0.310543417930603,0.22125950704018274,0.8583173751831055,0.9228240052858988,0.0,0.46914337078730267,-0.6344456573327383,0.4167183041572571,0.8599474529425303,0.0
7.000,0.29527992010116577,0.2374207576115926,0.864397406578064,0.9523093303044637,0.0,0.45721616347630817,-0.6318080226580302,0.4052862823009491,0.8812191685040792,0.0
7.100,0.2800164222717285,0.25358200818300247,0.8704774379730225,0.9817946553230286,0.0,0.4452889561653137,-0.6291703879833221,0.3938542604446411,0.902490884065628,0.0
7.200,0.26475292444229126,0.2697432587544123,0.876557469367981,1.0112799803415935,0.0,0.4333617488543193,-0.6265327533086141,0.38242223858833313,0.9237625996271769,0.0
7.300,0.249489426612854,0.28590450932582223,0.8826375007629395,1.0407653053601582,0.0,0.42143454154332477,-0.623895118633906,0.37099021673202515,0.9450343151887258,0.0
7.400,0.23422592878341675,0.30206575989723206,0.888717532157898,1.0702506303787231,0.0,0.4095073342323303,-0.621257483959198,0.35955819487571716,0.9663060307502747,0.0
7.500,0.23252625266710916,0.306136687596639,0.8870905836423238,1.0767919719219208,0.0,0.4014320655001534,-0.6154890971051322,0.31324176407522625,0.9745011544889874,0.0
7.600,0.2308265765508016,0.31020761529604596,0.8854636351267496,1.0833333134651184,0.0,0.3933567967679765,-0.6097207102510664,0.26692533327473533,0.9826962782277001,0.0
7.700,0.22912690043449402,0.3142785429954529,0.8838366866111755,1.089874655008316,0.0,0.3852815280357997,-0.6039523233970007,0.22060890247424444,0.9908914019664129,0.0
7.800,0.22742722431818643,0.3183494706948598,0.8822097380956014,1.0964159965515137,0.0,0.3772062593036228,-0.5981839365429349,0.17429247167375353,0.9990865257051256,0.0
7.900,0.22572754820187887,0.3224203983942668,0.8805827895800272,1.1029573380947113,0.0,0.3691309905714459,-0.592415549688869,0.12797604087326261,1.0072816494438384,0.0
8.000,0.2240278720855713,0.3264913260936737,0.8789558410644531,1.109498679637909,0.0,0.361055721839269,-0.5866471628348032,0.08165961007277173,1.0154767731825511,0.0
8.100,0.2223281959692637,0.33056225379308063,0.877328892548879,1.1160400211811066,0.0,0.35298045310709214,-0.5808787759807374,0.03534317927228081,1.0236718969212637,0.0
8.200,0.22062851985295615,0.3346331814924876,0.8757019440333048,1.1225813627243042,0.0,0.34490518437491524,-0.5751103891266717,-0.010973251528210104,1.0318670206599765,0.0
8.300,0.21892884373664856,0.33870410919189453,0.8740749955177307,1.1291227042675018,0.0,0.33682991564273834,-0.5693420022726059,-0.05728968232870102,1.0400621443986893,0.0
8.400,0.21722916762034097,0.34277503689130145,0.8724480470021566,1.1356640458106995,0.0,0.32875464691056144,-0.5635736154185401,-0.10360611312919193,1.048257268137402,0.0
8.500,0.21552949150403342,0.34684596459070843,0.8708210984865824,1.142205387353897,0.0,0.32067937817838454,-0.5578052285644743,-0.14992254392968285,1.0564523918761148,0.0
8.600,0.21382981538772583,0.35091689229011536,0.8691941499710083,1.1487467288970947,0.0,0.3126041094462077,-0.5520368417104086,-0.1962389747301737,1.0646475156148274,0.0
8.700,0.21213013927141824,0.3549878199895223,0.8675672014554342,1.1552880704402924,0.0,0.3045288407140308,-0.5462684548563428,-0.24255540553066468,1.0728426393535402,0.0
8.800,0.2104304631551107,0.35905874768892926,0.86594025293986,1.16182941198349,0.0,0.2964535719818539,-0.5405000680022769,-0.28887183633115554,1.081037763092253,0.0
8.900,0.2087307870388031,0.3631296753883362,0.8643133044242859,1.1683707535266876,0.0,0.288378303249677,-0.5347316811482111,-0.3351882671316465,1.0892328868309658,0.0
9.000,0.20703111092249551,0.3672006030877431,0.8626863559087118,1.1749120950698853,0.0,0.28030303451750016,-0.5289632942941453,-0.38150469793213737,1.0974280105696783,0.0
9.100,0.20533143480618796,0.3712715307871501,0.8610594073931376,1.1814534366130829,0.0,0.27222776578532326,-0.5231949074400796,-0.42782112873262823,1.105623134308391,0.0
9.200,0.20363175868988037,0.375342458486557,0.8594324588775635,1.1879947781562805,0.0,0.26415249705314636,-0.5174265205860138,-0.4741375595331192,1.1138182580471039,0.0
9.300,0.20193208257357279,0.37941338618596393,0.8578055103619894,1.1945361196994781,0.0,0.25607722832096946,-0.511658133731948,-0.5204539903336102,1.1220133817858167,0.0
9.400,0.2002324064572652,0.3834843138853709,0.8561785618464152,1.2010774612426758,0.0,0.2480019595887926,-0.5058897468778822,-0.566770421134101,1.1302085055245294,0.0
9.500,0.19853273034095764,0.38755524158477783,0.8545516133308411,1.2076188027858734,0.0,0.2399266908566157,-0.5001213600238165,-0.613086851934592,1.138403629263242,0.0
9.600,0.19683305422465006,0.3916261692841848,0.852924664815267,1.214160144329071,0.0,0.2318514221244388,-0.49435297316975063,-0.6594032827350829,1.1465987530019548,0.0
9.700,0.1951333781083425,0.3956970969835917,0.8512977162996928,1.2207014858722687,0.0,0.22377615339226195,-0.48858458631568485,-0.7057197135355737,1.1547938767406676,0.0
9.800,0.1934337019920349,0.39976802468299866,0.8496707677841187,1.2272428274154663,0.0,0.21570088466008505,-0.4828161994616191,-0.7520361443360646,1.1629890004793804,0.0
9.900,0.19173402587572735,0.4038389523824056,0.8480438192685446,1.233784168958664,0.0,0.20762561592790815,-0.47704781260755325,-0.7983525751365554,1.171184124218093,0.0
10.000,0.19003434975941977,0.40790988008181256,0.8464168707529703,1.2403255105018616,0.0,0.19955034719573128,-0.47127942575348747,-0.8446690059370465,1.1793792479568057,0.0
10.100,0.18833467364311218,0.4119808077812195,0.8447899222373962,1.2468668520450592,0.0,0.19147507846355438,-0.4655110388994217,-0.8909854367375374,1.1875743716955185,0.0
10.200,0.1866349975268046,0.4160517354806264,0.8431629737218221,1.2534081935882568,0.0,0.18339980973137748,-0.4597426520453559,-0.9373018675380282,1.1957694954342313,0.0
10.300,0.184935321410497,0.4201226631800334,0.8415360252062479,1.2599495351314545,0.0,0.1753245409992006,-0.45397426519129014,-0.9836182983385193,1.203964619172944,0.0
10.400,0.18323564529418945,0.4241935908794403,0.8399090766906738,1.266490876674652,0.0,0.1672492722670237,-0.4482058783372243,-1.0299347291390102,1.2121597429116566,0.0
10.500,0.18153596917788187,0.4282645185788473,0.8382821281750997,1.2730322182178497,0.0,0.15917400353484684,-0.44243749148315853,-1.076251159939501,1.2203548666503694,0.0
10.600,0.1798362930615743,0.43233544627825415,0.8366551796595255,1.2795735597610474,0.0,0.15109873480266994,-0.43666910462909275,-1.122567590739992,1.2285499903890822,0.0
10.700,0.17813661694526672,0.43640637397766113,0.8350282311439514,1.286114901304245,0.0,0.1430234660704931,-0.430900717775027,-1.1688840215404828,1.2367451141277948,0.0
10.800,0.17643694082895917,0.4404773016770681,0.8334012826283773,1.2926562428474426,0.0,0.1349481973383162,-0.42513233092096114,-1.2152004523409736,1.2449402378665075,0.0
10.900,0.17473726471265158,0.444548229376475,0.8317743341128031,1.2991975843906403,0.0,0.1268729286061393,-0.41936394406689537,-1.2615168831414647,1.2531353616052203,0.0
11.000,0.173037588596344,0.44861915707588196,0.830147385597229,1.305738925933838,0.0,0.1187976598739624,-0.4135955572128296,-1.3078333139419556,1.261330485343933,0.0
11.100,0.1773870954146752,0.45539252918500167,0.7816015287087514,1.299351692199707,0.0,0.11837567102450591,-0.41321014211728024,-1.3091410260934095,1.26048966554495,0.0
11.200,0.18173660223300642,0.4621659012941214,0.7330556718202738,1.2929644584655762,0.0,0.11795368217504941,-0.41282472702173084,-1.3104487382448637,1.259648845745967,0.0
11.300,0.1860861090513376,0.4689392734032411,0.6845098149317961,1.2865772247314453,0.0,0.11753169332559292,-0.4124393119261815,-1.3117564503963177,1.2588080259469838,0.0
11.400,0.1904356158696688,0.4757126455123608,0.6359639580433185,1.2801899909973145,0.0,0.11710970447613643,-0.41205389683063215,-1.3130641625477717,1.257967206148001,0.0
11.500,0.19478512268800002,0.4824860176214805,0.5874181011548409,1.2738027572631836,0.0,0.11668771562667993,-0.41166848173508275,-1.314371874699226,1.2571263863490179,0.0
11.600,0.19913462950633123,0.48925938973060024,0.5388722442663633,1.2674155235290527,0.0,0.11626572677722344,-0.4112830666395334,-1.3156795868506799,1.2562855665500348,0.0
11.700,0.20348413632466242,0.4960327618397199,0.4903263873778857,1.2610282897949219,0.0,0.11584373792776695,-0.41089765154398405,-1.3169872990021338,1.2554447467510517,0.0
11.800,0.20783364314299363,0.5028061339488397,0.441780530489408,1.254641056060791,0.0,0.11542174907831046,-0.4105122364484347,-1.3182950111535878,1.2546039269520686,0.0
11.900,0.21218314996132484,0.5095795060579593,0.39323467360093045,1.2482538223266602,0.0,0.11499976022885396,-0.4101268213528853,-1.319602723305042,1.2537631071530855,0.0
12.000,0.21653265677965605,0.5163528781670791,0.3446888167124528,1.2418665885925293,0.0,0.11457777137939747,-0.40974140625733596,-1.320910435456496,1.2529222873541026,0.0
12.100,0.22088216359798724,0.5231262502761987,0.2961429598239752,1.2354793548583984,0.0,0.11415578252994098,-0.4093559911617866,-1.32221814760795,1.2520814675551195,0.0
12.200,0.22523167041631845,0.5298996223853185,0.24759710293549753,1.2290921211242676,0.0,0.11373379368048447,-0.4089705760662372,-1.3235258597594042,1.2512406477561364,0.0
12.300,0.22958117723464966,0.5366729944944382,0.19905124604701996,1.2227048873901367,0.0,0.11331180483102798,-0.40858516097068787,-1.3248335719108582,1.2503998279571533,0.0
12.400,0.23393068405298087,0.5434463666035578,0.1505053891585424,1.2163176536560059,0.0,0.1128898159815715,-0.4081997458751385,-1.3261412840623121,1.2495590081581702,0.0
12.500,0.23828019087131208,0.5502197387126776,0.10195953227006482,1.209930419921875,0.0,0.11246782713211499,-0.4078143307795891,-1.3274489962137663,1.2487181883591871,0.0
12.600,0.24262969768964326,0.5569931108217974,0.053413675381587034,1.2035431861877441,0.0,0.1120458382826585,-0.40742891568403977,-1.3287567083652203,1.247877368560204,0.0
12.700,0.24697920450797448,0.563766482930917,0.004867818493109466,1.1971559524536133,0.0,0.11162384943320201,-0.4070435005884904,-1.3300644205166743,1.2470365487612212,0.0
12.800,0.2513287113263057,0.5705398550400367,-0.0436780383953681,1.1907687187194824,0.0,0.11120186058374551,-0.406658085492941,-1.3313721326681285,1.246195728962238,0.0
12.900,0.25567821814463687,0.5773132271491564,-0.09222389528384567,1.1843814849853516,0.0,0.11077987173428902,-0.4062726703973917,-1.3326798448195825,1.245354909163255,0.0
13.000,0.2600277249629681,0.5840865992582761,-0.14076975217232346,1.1779942512512207,0.0,0.11035788288483253,-0.40588725530184233,-1.3339875569710364,1.2445140893642719,0.0
13.100,0.2643772317812993,0.5908599713673959,-0.18931560906080103,1.1716070175170898,0.0,0.10993589403537604,-0.405501840206293,-1.3352952691224904,1.2436732695652888,0.0
13.200,0.2687267385996305,0.5976333434765155,-0.2378614659492786,1.165219783782959,0.0,0.10951390518591954,-0.4051164251107436,-1.3366029812739446,1.2428324497663057,0.0
13.300,0.2730762454179617,0.6044067155856352,-0.28640732283775616,1.1588325500488281,0.0,0.10909191633646305,-0.40473101001519424,-1.3379106934253986,1.2419916299673228,0.0
13.400,0.2774257522362929,0.611180087694755,-0.33495317972623395,1.1524453163146973,0.0,0.10866992748700656,-0.4043455949196449,-1.3392184055768526,1.2411508101683397,0.0
13.500,0.28177525905462414,0.6179534598038747,-0.3834990366147115,1.1460580825805664,0.0,0.10824793863755006,-0.4039601798240955,-1.3405261177283068,1.2403099903693566,0.0
13.600,0.2861247658729553,0.6247268319129944,-0.4320448935031891,1.1396708488464355,0.0,0.10782594978809357,-0.40357476472854614,-1.3418338298797607,1.2394691705703735,0.0
13.700,0.28326744586229324,0.6149980465571085,-0.38685816824436187,1.1414123137791952,0.0,0.10731944714983305,-0.3955340216557185,-1.3468220074971518,1.228805696964264,0.0
13.800,0.28041012585163116,0.6052692612012227,-0.34167144298553465,1.1431537787119548,0.0,0.10681294451157251,-0.38749327858289084,-1.3518101851145425,1.2181422233581543,0.0
13.900,0.2775528058409691,0.5955404758453369,-0.2964847177267075,1.1448952436447144,0.0,0.106306441873312,-0.3794525355100632,-1.3567983627319335,1.2074787497520447,0.0
14.000,0.274695485830307,0.5858116904894511,-0.25129799246788026,1.146636708577474,0.0,0.10579993923505147,-0.37141179243723554,-1.3617865403493246,1.196815276145935,0.0
14.100,0.27183816581964493,0.5760829051335653,-0.20611126720905304,1.1483781735102336,0.0,0.10529343659679095,-0.36337104936440784,-1.3667747179667156,1.1861518025398254,0.0
14.200,0.26898084580898285,0.5663541197776795,-0.16092454195022582,1.1501196384429933,0.0,0.10478693395853042,-0.3553303062915802,-1.3717628955841064,1.175488328933716,0.0
14.300,0.26612352579832077,0.5566253344217936,-0.1157378166913986,1.1518611033757529,0.0,0.1042804313202699,-0.34728956321875254,-1.3767510732014974,1.1648248553276062,0.0
14.400,0.2632662057876587,0.5468965490659078,-0.07055109143257143,1.1536025683085123,0.0,0.10377392868200938,-0.3392488201459249,-1.3817392508188884,1.1541613817214966,0.0
14.500,0.2604088857769966,0.537167763710022,-0.025364366173744213,1.1553440332412719,0.0,0.10326742604374886,-0.33120807707309724,-1.3867274284362794,1.1434979081153869,0.0
14.600,0.25755156576633453,0.5274389783541361,0.019822359085083008,1.1570854981740315,0.0,0.10276092340548833,-0.3231673340002696,-1.3917156060536702,1.1328344345092773,0.0
14.700,0.25469424575567245,0.5177101929982504,0.06500908434391017,1.1588269631067911,0.0,0.10225442076722781,-0.31512659092744194,-1.3967037836710612,1.1221709609031678,0.0
14.800,0.2518369257450104,0.5079814076423645,0.11019580960273745,1.1605684280395507,0.0,0.10174791812896729,-0.30708584785461424,-1.4016919612884522,1.111507487297058,0.0
14.900,0.2489796057343483,0.4982526222864787,0.15538253486156461,1.1623098929723104,0.0,0.10124141549070675,-0.2990451047817866,-1.4066801389058432,1.1008440136909485,0.0
15.000,0.24612228572368622,0.48852383693059287,0.2005692601203919,1.16405135790507,0.0,0.10073491285244623,-0.29100436170895894,-1.411668316523234,1.0901805400848388,0.0
15.100,0.24326496571302414,0.47879505157470703,0.24575598537921906,1.1657928228378296,0.0,0.10022841021418571,-0.2829636186361313,-1.416656494140625,1.0795170664787292,0.0
15.200,0.24040764570236206,0.4690662662188212,0.2909427106380462,1.1675342877705892,0.0,0.0997219075759252,-0.27492287556330364,-1.421644671758016,1.0688535928726197,0.0
15.300,0.23755032569169998,0.45933748086293535,0.3361294358968735,1.1692757527033488,0.0,0.09921540493766468,-0.266882132490476,-1.4266328493754068,1.05819011926651,0.0
15.400,0.2346930056810379,0.44960869550704957,0.38131616115570066,1.1710172176361084,0.0,0.09870890229940414,-0.25884138941764834,-1.4316210269927978,1.0475266456604004,0.0
15.500,0.23183568567037582,0.43987991015116373,0.4265028864145278,1.172758682568868,0.0,0.09820239966114362,-0.2508006463448207,-1.4366092046101888,1.0368631720542907,0.0
15.600,0.22897836565971375,0.43015112479527795,0.4716896116733551,1.1745001475016277,0.0,0.0976958970228831,-0.242759903271993,-1.4415973822275798,1.0261996984481812,0.0
15.700,0.22612104564905167,0.4204223394393921,0.5168763369321823,1.1762416124343873,0.0,0.09718939438462257,-0.23471916019916536,-1.4465855598449706,1.0155362248420716,0.0
15.800,0.2232637256383896,0.4106935540835063,0.5620630621910094,1.177983077367147,0.0,0.09668289174636205,-0.2266784171263377,-1.4515737374623616,1.0048727512359619,0.0
15.900,0.2204064056277275,0.40096476872762044,0.6072497874498368,1.1797245422999063,0.0,0.09617638910810153,-0.21863767405351,-1.4565619150797526,0.9942092776298523,0.0
16.000,0.21754908561706543,0.3912359833717346,0.652436512708664,1.181466007232666,0.0,0.09566988646984101,-0.21059693098068236,-1.4615500926971436,0.9835458040237426,0.0
16.100,0.21469176560640335,0.38150719801584876,0.6976232379674911,1.1832074721654255,0.0,0.09516338383158048,-0.2025561879078547,-1.4665382703145344,0.9728823304176331,0.0
16.200,0.21183444559574127,0.371778412659963,0.7428099632263183,1.1849489370981852,0.0,0.09465688119331996,-0.19451544483502706,-1.4715264479319254,0.9622188568115234,0.0
16.300,0.2089771255850792,0.36204962730407714,0.7879966884851457,1.1866904020309448,0.0,0.09415037855505944,-0.1864747017621994,-1.4765146255493165,0.9515553832054138,0.0
16.400,0.20611980557441711,0.3523208419481913,0.8331834137439729,1.1884318669637044,0.0,0.0936438759167989,-0.17843395868937173,-1.4815028031667072,0.9408919095993042,0.0
16.500,0.20326248556375504,0.3425920565923055,0.8783701390028,1.190173331896464,0.0,0.09313737327853838,-0.17039321561654408,-1.4864909807840982,0.9302284359931946,0.0
16.600,0.20040516555309296,0.3328632712364197,0.9235568642616272,1.1919147968292236,0.0,0.09263087064027786,-0.16235247254371643,-1.4914791584014893,0.919564962387085,0.0
16.700,0.19953260570764542,0.3321090489625931,0.9206181466579437,1.1884669661521912,0.0,0.08825687691569328,-0.17633415758609772,-1.4907176494598389,0.9575738310813904,0.0
16.800,0.19866004586219788,0.3313548266887665,0.9176794290542603,1.1850191354751587,0.0,0.0838828831911087,-0.190315842628479,-1.4899561405181885,0.9955826997756958,0.0
16.900,0.21118862926959991,0.31819282472133636,0.9089288711547852,1.154897928237915,0.0,0.0919446088373661,-0.200631745159626,-1.4742624759674072,1.0078070163726807,0.0
17.000,0.22371721267700195,0.30503082275390625,0.9001783132553101,1.1247767210006714,0.0,0.1000063344836235,-0.210947647690773,-1.458568811416626,1.0200313329696655,0.0
17.100,0.21656407415866852,0.32725071907043457,0.8987890481948853,1.1267540454864502,0.0,0.09986373782157898,-0.19385197758674622,-1.461836576461792,1.003011703491211,0.0
17.200,0.20213903486728668,0.3366829752922058,0.9101594686508179,1.164198875427246,0.0,0.09986409544944763,-0.1938527524471283,-1.4618339538574219,1.003013014793396,0.0
17.300,0.19313661009073257,0.3475206196308136,0.9192514419555664,1.1914417743682861,0.0,0.10039566829800606,-0.20873182266950607,-1.4545409679412842,1.0279040932655334,0.0
17.400,0.18413418531417847,0.3583582639694214,0.9283434152603149,1.2186846733093262,0.0,0.10092724114656448,-0.22361089289188385,-1.4472479820251465,1.052795171737671,0.0
17.500,0.1799478456377983,0.36877454817295074,0.9306362867355347,1.2463383078575134,0.0,0.1013169139623642,-0.22149218618869781,-1.443041980266571,1.0608119368553162,0.0
17.600,0.17576150596141815,0.3791908323764801,0.9329291582107544,1.2739919424057007,0.0,0.10170658677816391,-0.21937347948551178,-1.4388359785079956,1.0688287019729614,0.0
17.700,0.17576150596141815,0.3791908323764801,0.9329291582107544,1.2739919424057007,0.0,0.09960451908409595,-0.19974254071712494,-1.4511069357395172,1.0313516557216644,0.0
17.800,0.17576150596141815,0.3791908323764801,0.9329291582107544,1.2739919424057007,0.0,0.097502451390028,-0.1801116019487381,-1.4633778929710388,0.9938746094703674,0.0
17.900,0.17576150596141815,0.3791908323764801,0.9329291582107544,1.2739919424057007,0.0,0.09540038369596004,-0.16048066318035126,-1.4756488502025604,0.9563975632190704,0.0
18.000,0.17576150596141815,0.3791908323764801,0.9329291582107544,1.2739919424057007,0.0,0.09329831600189209,-0.14084972441196442,-1.487919807434082,0.9189205169677734,0.0
18.100,0.16361590226491293,0.386761208375295,0.9451853036880493,1.2995218833287556,0.0,0.09015677372614543,-0.14671133955319723,-1.4895937045415242,0.9349634647369385,0.0
18.200,0.15147029856840769,0.3943315843741099,0.9574414491653442,1.3250518242518108,0.0,0.08701523145039876,-0.15257295469443002,-1.4912676016489665,0.9510064125061035,0.0
18.300,0.13932469487190247,0.4019019603729248,0.9696975946426392,1.3505817651748657,0.0,0.0838736891746521,-0.15843456983566284,-1.4929414987564087,0.9670493602752686,0.0
18.400,0.15162727236747742,0.3895053565502167,0.9610646963119507,1.3189508020877838,0.0,0.08692896738648415,-0.16892041265964508,-1.4832980036735535,0.9872487485408783,0.0
18.500,0.16392984986305237,0.37710875272750854,0.9524317979812622,1.287319839000702,0.0,0.08998424559831619,-0.17940625548362732,-1.4736545085906982,1.007448136806488,0.0
18.600,0.17623242735862732,0.3647121489048004,0.9437988996505737,1.25568887591362,0.0,0.09303952381014824,-0.18989209830760956,-1.464011013507843,1.0276475250720978,0.0
18.700,0.18853500485420227,0.3523155450820923,0.9351660013198853,1.224057912826538,0.0,0.09609480202198029,-0.2003779411315918,-1.4543675184249878,1.0478469133377075,0.0
18.800,0.20299399892489114,0.33934521675109863,0.9259184201558431,1.1893136103947957,0.0,0.09427304317553838,-0.19441230595111847,-1.4588401317596436,1.0416836738586426,0.0
18.900,0.21745299299558005,0.326374888420105,0.9166708389918009,1.1545693079630535,0.0,0.09245128432909648,-0.18844667077064514,-1.4633127450942993,1.0355204343795776,0.0
19.000,0.23191198706626892,0.31340456008911133,0.9074232578277588,1.119825005531311,0.0,0.09062952548265457,-0.18248103559017181,-1.467785358428955,1.0293571949005127,0.0
19.100,0.22886089980602264,0.31236955523490906,0.8978415727615356,1.1118484735488892,0.0,0.09062937647104263,-0.1824805587530136,-1.4677866697311401,1.0293562412261963,0.0
19.200,0.22886089980602264,0.31236955523490906,0.8978415727615356,1.1118484735488892,0.0,0.09062941372394562,-0.1824808120727539,-1.4677863121032715,1.0293567180633545,0.0
19.300,0.22467959140028274,0.31660622358322144,0.9022698828152248,1.1244780336107527,0.0,0.09322252230984825,-0.1999529344694955,-1.4469466039112635,1.0610324144363403,0.0
19.400,0.2204982829945428,0.3208428919315338,0.906698192868914,1.137107593672616,0.0,0.09581563089575086,-0.2174250568662371,-1.4261068957192558,1.0927081108093262,0.0
19.500,0.2163169745888029,0.3250795602798462,0.9111265029226031,1.1497371537344796,0.0,0.09840873948165349,-0.23489717926297868,-1.4052671875272478,1.124383807182312,0.0
19.600,0.21213566618306295,0.32931622862815857,0.9155548129762922,1.1623667137963432,0.0,0.1010018480675561,-0.25236930165972027,-1.38442747933524,1.1560595035552979,0.0
19.700,0.20795435777732305,0.33355289697647095,0.9199831230299813,1.1749962738582067,0.0,0.10359495665345873,-0.2698414240564619,-1.363587771143232,1.1877351999282837,0.0
19.800,0.20377304937158314,0.3377895653247833,0.9244114330836705,1.18762583392007,0.0,0.10618806523936135,-0.28731354645320345,-1.3427480629512243,1.2194108963012695,0.0
19.900,0.1995917409658432,0.3420262336730957,0.9288397431373596,1.2002553939819336,0.0,0.10878117382526398,-0.30478566884994507,-1.3219083547592163,1.2510865926742554,0.0
20.000,0.19022148102521896,0.3523230403661728,0.9339109510183334,1.2255392670631409,0.0,0.10739412903785706,-0.2984197214245796,-1.3446741104125977,1.2233220636844635,0.0
20.100,0.18085122108459473,0.3626198470592499,0.9389821588993073,1.2508231401443481,0.0,0.10600708425045013,-0.2920537739992142,-1.367439866065979,1.1955575346946716,0.0
20.200,0.1714809611439705,0.37291665375232697,0.9440533667802811,1.2761070132255554,0.0,0.10462003946304321,-0.2856878265738487,-1.3902056217193604,1.1677930057048798,0.0
20.300,0.16211070120334625,0.38321346044540405,0.9491245746612549,1.3013908863067627,0.0,0.10323299467563629,-0.2793218791484833,-1.4129713773727417,1.140028476715088,0.0
20.400,0.16485720053315162,0.38016623109579084,0.9474042177200317,1.2939858078956603,0.0,0.11135943606495857,-0.2873209238052368,-1.3665364772081374,1.142981117963791,0.0
20.500,0.167603699862957,0.3771190017461777,0.9456838607788086,1.2865807294845581,0.0,0.11948587745428085,-0.2953199684619904,-1.3201015770435334,1.1459337592124939,0.0
20.600,0.17035019919276237,0.3740717723965645,0.9439635038375854,1.2791756510734558,0.0,0.12761231884360313,-0.3033190131187439,-1.273666676878929,1.148886400461197,0.0
20.700,0.17309669852256776,0.3710245430469513,0.9422431468963623,1.2717705726623536,0.0,0.13573876023292542,-0.3113180577754974,-1.227231776714325,1.1518390417098998,0.0
20.800,0.17584319785237312,0.3679773136973381,0.9405227899551392,1.2643654942512512,0.0,0.1438652016222477,-0.319317102432251,-1.1807968765497208,1.154791682958603,0.0
20.900,0.1785896971821785,0.3649300843477249,0.938802433013916,1.2569604158401488,0.0,0.15199164301156998,-0.3273161470890045,-1.1343619763851165,1.157744324207306,0.0
21.000,0.18133619651198388,0.36188285499811174,0.9370820760726929,1.2495553374290467,0.0,0.16011808440089226,-0.3353151917457581,-1.0879270762205124,1.1606969654560089,0.0
21.100,0.18408269584178924,0.3588356256484985,0.9353617191314697,1.2421502590179443,0.0,0.16824452579021454,-0.3433142364025116,-1.0414921760559082,1.163649606704712,0.0
21.200,0.18682919517159463,0.35578839629888537,0.9336413621902466,1.2347451806068421,0.0,0.17637096717953682,-0.3513132810592651,-0.995057275891304,1.1666022479534148,0.0
21.300,0.1895756945014,0.35274116694927216,0.9319210052490234,1.2273401021957397,0.0,0.1844974085688591,-0.3593123257160187,-0.9486223757266998,1.169554889202118,0.0
21.400,0.19232219383120536,0.34969393759965894,0.9302006483078002,1.2199350237846374,0.0,0.19262384995818138,-0.36731137037277223,-0.9021874755620956,1.172507530450821,0.0
21.500,0.19506869316101075,0.3466467082500458,0.9284802913665772,1.2125299453735352,0.0,0.20075029134750366,-0.3753104150295258,-0.8557525753974915,1.1754601716995239,0.0
21.600,0.1978151924908161,0.3435994789004326,0.926759934425354,1.2051248669624328,0.0,0.20887673273682594,-0.3833094596862793,-0.8093176752328872,1.178412812948227,0.0
21.700,0.2005616918206215,0.3405522495508194,0.9250395774841309,1.1977197885513307,0.0,0.21700317412614822,-0.3913085043430328,-0.7628827750682832,1.1813654541969298,0.0
21.800,0.20330819115042686,0.3375050202012062,0.9233192205429077,1.1903147101402283,0.0,0.2251296155154705,-0.3993075489997864,-0.7164478749036789,1.184318095445633,0.0
21.900,0.20605469048023223,0.334457790851593,0.9215988636016845,1.1829096317291259,0.0,0.23325605690479279,-0.40730659365653993,-0.6700129747390746,1.187270736694336,0.0
22.000,0.20880118981003762,0.33141056150197984,0.9198785066604614,1.1755045533180237,0.0,0.24138249829411507,-0.4153056383132935,-0.6235780745744706,1.190223377943039,0.0
22.100,0.21154768913984298,0.3283633321523666,0.9181581497192383,1.1680994749069213,0.0,0.24950893968343735,-0.423304682970047,-0.5771431744098663,1.193176019191742,0.0
22.200,0.21429418846964837,0.32531610280275347,0.9164377927780152,1.1606943964958192,0.0,0.25763538107275963,-0.4313037276268005,-0.5307082742452622,1.1961286604404449,0.0
22.300,0.21704068779945374,0.32226887345314026,0.914717435836792,1.1532893180847168,0.0,0.2657618224620819,-0.4393027722835541,-0.48427337408065796,1.199081301689148,0.0
22.400,0.21912719971603817,0.3208771099646886,0.9137444065676795,1.1479563315709431,0.0,0.2616702127787802,-0.4686137917968962,-0.52029088139534,1.2049935791227553,0.0
22.500,0.2212137116326226,0.319485346476237,0.912771377298567,1.1426233450571697,0.0,0.2575786030954785,-0.4979248113102383,-0.556308388710022,1.2109058565563626,0.0
22.600,0.22330022354920706,0.31809358298778534,0.9117983480294546,1.137290358543396,0.0,0.2534869934121768,-0.5272358308235804,-0.592325896024704,1.21681813398997,0.0
22.700,0.2253867354657915,0.3167018194993337,0.9108253187603421,1.1319573720296223,0.0,0.24939538372887504,-0.5565468503369225,-0.628343403339386,1.2227304114235773,0.0
22.800,0.22747324738237593,0.3153100560108821,0.9098522894912295,1.1266243855158489,0.0,0.24530377404557335,-0.5858578698502647,-0.664360910654068,1.2286426888571844,0.0
22.900,0.22955975929896036,0.3139182925224304,0.9088792602221171,1.1212913990020752,0.0,0.24121216436227164,-0.6151688893636067,-0.70037841796875,1.2345549662907918,0.0
23.000,0.23164627121554482,0.31252652903397876,0.9079062309530046,1.1159584124883015,0.0,0.23712055467896992,-0.6444799088769488,-0.736395925283432,1.240467243724399,0.0
23.100,0.23373278313212925,0.31113476554552716,0.9069332016838921,1.110625425974528,0.0,0.2330289449956682,-0.673790928390291,-0.772413432598114,1.2463795211580064,0.0
23.200,0.23581929504871368,0.3097430020570755,0.9059601724147797,1.1052924394607544,0.0,0.22893733531236649,-0.7031019479036331,-0.808430939912796,1.2522917985916138,0.0
23.300,0.23790580696529812,0.30835123856862384,0.9049871431456672,1.0999594529469807,0.0,0.22484572562906477,-0.7324129674169753,-0.844448447227478,1.258204076025221,0.0
23.400,0.23999231888188255,0.30695947508017224,0.9040141138765547,1.0946264664332073,0.0,0.22075411594576305,-0.7617239869303174,-0.88046595454216,1.2641163534588284,0.0
23.500,0.242078830798467,0.3055677115917206,0.9030410846074423,1.0892934799194336,0.0,0.21666250626246136,-0.7910350064436594,-0.916483461856842,1.2700286308924358,0.0
23.600,0.24416534271505144,0.3041759481032689,0.9020680553383298,1.08396049340566,0.0,0.21257089657915962,-0.8203460259570016,-0.952500969171524,1.2759409083260431,0.0
23.700,0.24625185463163587,0.3027841846148173,0.9010950260692172,1.0786275068918865,0.0,0.20847928689585793,-0.8496570454703437,-0.988518476486206,1.2818531857596502,0.0
23.800,0.24833836654822034,0.30139242112636566,0.9001219968001047,1.0732945203781128,0.0,0.20438767721255618,-0.8789680649836858,-1.024535983800888,1.2877654631932576,0.0
23.900,0.25042487846480477,0.300000657637914,0.8991489675309923,1.0679615338643391,0.0,0.2002960675292545,-0.9082790844970279,-1.06055349111557,1.293677740626865,0.0
24.000,0.2525113903813892,0.2986088941494624,0.8981759382618798,1.0626285473505657,0.0,0.19620445784595278,-0.93759010401037,-1.096570998430252,1.2995900180604723,0.0
24.100,0.25459790229797363,0.29721713066101074,0.8972029089927673,1.057295560836792,0.0,0.19211284816265106,-0.9669011235237122,-1.132588505744934,1.3055022954940796,0.0
24.200,0.25628005266189574,0.2951647788286209,0.8952651202678681,1.0511371195316315,0.0,0.2079390063881874,-0.951244729757309,-1.1345846772193908,1.2638112485408783,0.0
24.300,0.25796220302581785,0.2931124269962311,0.8933273315429687,1.044978678226471,0.0,0.22376516461372375,-0.9355883359909057,-1.1365808486938476,1.222120201587677,0.0
24.400,0.25964435338974,0.29106007516384125,0.8913895428180695,1.0388202369213104,0.0,0.2395913228392601,-0.9199319422245026,-1.1385770201683045,1.1804291546344756,0.0
24.500,0.2613265037536621,0.2890077233314514,0.8894517540931701,1.03266179561615,0.0,0.25541748106479645,-0.9042755484580993,-1.1405731916427613,1.1387381076812744,0.0
24.600,0.26300865411758423,0.2869553714990616,0.8875139653682709,1.0265033543109894,0.0,0.2712436392903328,-0.8886191546916962,-1.142569363117218,1.0970470607280731,0.0
24.700,0.26469080448150634,0.28490301966667175,0.8855761766433716,1.0203449130058289,0.0,0.28706979751586914,-0.872962760925293,-1.1445655345916748,1.0553560137748719,0.0
24.800,0.26637295484542844,0.2828506678342819,0.8836383879184723,1.0141864717006683,0.0,0.3028959557414055,-0.8573063671588897,-1.1465617060661315,1.0136649668216706,0.0
24.900,0.2680551052093506,0.2807983160018921,0.881700599193573,1.0080280303955078,0.0,0.31872211396694183,-0.8416499733924866,-1.1485578775405885,0.9719739198684691,0.0
25.000,0.2697372555732727,0.27874596416950226,0.8797628104686737,1.0018695890903473,0.0,0.3345482721924782,-0.8259935796260833,-1.1505540490150452,0.9302828729152679,0.0
25.100,0.2714194059371948,0.2766936123371124,0.8778250217437744,0.9957111477851868,0.0,0.3503744304180145,-0.8103371858596802,-1.152550220489502,0.8885918259620667,0.0
25.200,0.26911016305287677,0.27871211369832355,0.8811035950978597,1.0055082241694133,0.0,0.35439075032869977,-0.8007829984029134,-1.1486210823059082,0.8460409045219421,0.0
25.300,0.2668009201685588,0.2807306150595347,0.884382168451945,1.0153053005536397,0.0,0.35840707023938495,-0.7912288109461466,-1.1446919441223145,0.8034899830818176,0.0
25.400,0.2644916772842407,0.28274911642074585,0.8876607418060303,1.0251023769378662,0.0,0.3624233901500702,-0.7816746234893799,-1.1407628059387207,0.7609390616416931,0.0
25.500,0.2646784257321131,0.28279440034003483,0.8879569825671968,1.025443746930077,0.0,0.37797612235659644,-0.7970235688345773,-1.0960486886047183,0.7637513052849543,0.0
25.600,0.2648651741799854,0.2828396842593238,0.8882532233283633,1.0257851169222878,0.0,0.3935288545631227,-0.8123725141797747,-1.0513345712707156,0.7665635489282154,0.0
25.700,0.26505192262785776,0.28288496817861286,0.8885494640895298,1.0261264869144984,0.0,0.40908158676964895,-0.8277214595249721,-1.0066204539367132,0.7693757925714765,0.0
25.800,0.26523867107573007,0.28293025209790185,0.8888457048506964,1.0264678569067092,0.0,0.4246343189761752,-0.8430704048701695,-0.9619063366027105,0.7721880362147376,0.0
25.900,0.26542541952360243,0.28297553601719083,0.8891419456118629,1.02680922689892,0.0,0.44018705118270146,-0.8584193502153669,-0.917192219268708,0.7750002798579988,0.0
26.000,0.2656121679714748,0.2830208199364798,0.8894381863730294,1.0271505968911308,0.0,0.4557397833892277,-0.8737682955605643,-0.8724781019347054,0.77781252350126,0.0
26.100,0.2657989164193471,0.28306610385576886,0.8897344271341959,1.0274919668833415,0.0,0.47129251559575397,-0.8891172409057617,-0.827763984600703,0.7806247671445211,0.0
26.200,0.2659856648672195,0.28311138777505784,0.8900306678953624,1.0278333368755521,0.0,0.4868452478022802,-0.9044661862509591,-0.7830498672667003,0.7834370107877822,0.0
26.300,0.26617241331509184,0.28315667169434683,0.890326908656529,1.028174706867763,0.0,0.5023979800088065,-0.9198151315961565,-0.7383357499326979,0.7862492544310433,0.0
26.400,0.26635916176296415,0.2832019556136358,0.8906231494176955,1.0285160768599737,0.0,0.5179507122153327,-0.935164076941354,-0.6936216325986952,0.7890614980743045,0.0
26.500,0.2665459102108365,0.28324723953292485,0.8909193901788621,1.0288574468521845,0.0,0.533503444421859,-0.9505130222865513,-0.6489075152646928,0.7918737417175656,0.0
26.600,0.2667326586587088,0.28329252345221384,0.8912156309400286,1.0291988168443953,0.0,0.5490561766283852,-0.9658619676317487,-0.6041933979306903,0.7946859853608268,0.0
26.700,0.2669194071065812,0.2833378073715028,0.8915118717011952,1.029540186836606,0.0,0.5646089088349115,-0.9812109129769462,-0.5594792805966876,0.797498229004088,0.0
26.800,0.26710615555445355,0.2833830912907918,0.8918081124623617,1.0298815568288167,0.0,0.5801616410414377,-0.9965598583221436,-0.5147651632626852,0.800310472647349,0.0
26.900,0.26729290400232586,0.28342837521008085,0.8921043532235282,1.0302229268210275,0.0,0.5957143732479641,-1.011908803667341,-0.47005104592868263,0.8031227162906102,0.0
27.000,0.2674796524501982,0.28347365912936984,0.8924005939846947,1.0305642968132382,0.0,0.6112671054544903,-1.0272577490125383,-0.4253369285946801,0.8059349599338713,0.0
27.100,0.2676664008980706,0.2835189430486588,0.8926968347458613,1.030905666805449,0.0,0.6268198376610166,-1.042606694357736,-0.38062281126067754,0.8087472035771325,0.0
27.200,0.2678531493459429,0.2835642269679478,0.8929930755070278,1.0312470367976598,0.0,0.6423725698675429,-1.057955639702933,-0.335908693926675,0.8115594472203936,0.0
27.300,0.26803989779381526,0.28360951088723685,0.8932893162681943,1.0315884067898704,0.0,0.6579253020740691,-1.0733045850481306,-0.29119457659267245,0.8143716908636547,0.0
27.400,0.26822664624168757,0.28365479480652583,0.8935855570293608,1.0319297767820812,0.0,0.6734780342805953,-1.088653530393328,-0.2464804592586699,0.8171839345069158,0.0
27.500,0.26841339468955994,0.2837000787258148,0.8938817977905273,1.032271146774292,0.0,0.6890307664871216,-1.1040024757385254,-0.20176634192466736,0.819996178150177,0.0
27.600,0.26217275361220044,0.29386841257413227,0.8956593871116638,1.0482981999715169,0.0,0.666289488474528,-1.1110344330469768,-0.19280704855918884,0.8354255557060242,0.0
27.700,0.2559321125348409,0.30403674642244977,0.8974369764328003,1.064325253168742,0.0,0.6435482104619344,-1.118066390355428,-0.18384775519371033,0.8508549332618713,0.0
27.800,0.24969147145748138,0.3142050802707672,0.8992145657539368,1.0803523063659668,0.0,0.6208069324493408,-1.1250983476638794,-0.1748884618282318,0.8662843108177185,0.0
27.900,0.2643195688724518,0.30858123302459717,0.8990973830223083,1.0596487522125244,0.0,0.6138986349105835,-1.1439945697784424,-0.16672830283641815,0.8398847579956055,0.0
28.000,0.26101547479629517,0.30804138630628586,0.8984101414680481,1.0639581382274628,0.0,0.6442805975675583,-1.1459138989448547,-0.1772576868534088,0.8052405267953873,0.0
28.100,0.25771138072013855,0.30750153958797455,0.8977228999137878,1.0682675242424011,0.0,0.6746625602245331,-1.147833228111267,-0.18778707087039948,0.7705962955951691,0.0
28.200,0.25440728664398193,0.30696169286966324,0.8970356583595276,1.0725769102573395,0.0,0.7050445228815079,-1.1497525572776794,-0.19831645488739014,0.7359520643949509,0.0
28.300,0.2511031925678253,0.30642184615135193,0.8963484168052673,1.0768862962722778,0.0,0.7354264855384827,-1.1516718864440918,-0.2088458389043808,0.7013078331947327,0.0
28.400,0.25061073899269104,0.3063150942325592,0.8946442008018494,1.0756219029426575,0.0,0.7592088282108307,-1.1579959392547607,-0.22235331684350967,0.6850802898406982,0.0
28.500,0.25011828541755676,0.3062083423137665,0.8929399847984314,1.074357509613037,0.0,0.7829911708831787,-1.1643199920654297,-0.23586079478263855,0.6688527464866638,0.0
28.600,0.24943040683865547,0.3057256117463112,0.8944508582353592,1.0734632909297943,0.0,0.8133083283901215,-1.1660401821136475,-0.2473388910293579,0.6367719769477844,0.0
28.700,0.24874252825975418,0.3052428811788559,0.895961731672287,1.0725690722465515,0.0,0.8436254858970642,-1.1677603721618652,-0.25881698727607727,0.604691207408905,0.0
28.800,0.2480546496808529,0.3047601506114006,0.8974726051092148,1.0716748535633087,0.0,0.873942643404007,-1.169480562210083,-0.27029508352279663,0.5726104378700256,0.0
28.900,0.2473667711019516,0.3042774200439453,0.8989834785461426,1.070780634880066,0.0,0.9042598009109497,-1.1712007522583008,-0.281773179769516,0.5405296683311462,0.0
29.000,0.2473667711019516,0.3042774200439453,0.8989834785461426,1.070780634880066,0.0,0.9263529181480408,-1.1785436868667603,-0.28815701603889465,0.501710961262385,0.0
29.100,0.2473667711019516,0.3042774200439453,0.8989834785461426,1.070780634880066,0.0,0.9484460353851318,-1.1858866214752197,-0.2945408523082733,0.4628922541936239,0.0
29.200,0.2473667711019516,0.3042774200439453,0.8989834785461426,1.070780634880066,0.0,0.9705391526222229,-1.1932295560836792,-0.300924688577652,0.42407354712486267,0.0
29.300,0.24779552894253884,0.30408010751970355,0.8989212474515361,1.0700257093675676,0.0,0.9456601710088791,-1.1741860797328334,-0.3381844316759417,0.4158337058559541,0.0
29.400,0.24822428678312608,0.3038827949954617,0.8988590163569297,1.069270783855069,0.0,0.9207811893955353,-1.1551426033819876,-0.3754441747742314,0.4075938645870455,0.0
29.500,0.24865304462371335,0.30368548247121996,0.8987967852623232,1.0685158583425707,0.0,0.8959022077821917,-1.1360991270311418,-0.4127039178725212,0.3993540233181369,0.0
29.600,0.2490818024643006,0.3034881699469782,0.8987345541677167,1.0677609328300721,0.0,0.8710232261688479,-1.117055650680296,-0.4499636609708109,0.3911141820492283,0.0
29.700,0.24951056030488783,0.30329085742273637,0.8986723230731103,1.0670060073175738,0.0,0.8461442445555041,-1.09801217432945,-0.48722340406910064,0.3828743407803197,0.0
29.800,0.24993931814547507,0.3030935448984946,0.8986100919785038,1.0662510818050754,0.0,0.8212652629421604,-1.0789686979786042,-0.5244831471673904,0.37463449951141115,0.0
29.900,0.2503680759860623,0.30289623237425284,0.8985478608838974,1.0654961562925769,0.0,0.7963862813288165,-1.0599252216277584,-0.5617428902656801,0.3663946582425025,0.0
30.000,0.2507968338266496,0.302698919850011,0.8984856297892909,1.0647412307800785,0.0,0.7715072997154728,-1.0408817452769126,-0.5990026333639699,0.3581548169735939,0.0
30.100,0.25122559166723685,0.30250160732576925,0.8984233986946845,1.0639863052675802,0.0,0.746628318102129,-1.0218382689260668,-0.6362623764622597,0.3499149757046853,0.0
30.200,0.25165434950782406,0.30230429480152743,0.898361167600078,1.0632313797550816,0.0,0.7217493364887853,-1.002794792575221,-0.6735221195605493,0.34167513443577674,0.0
30.300,0.25208310734841133,0.30210698227728566,0.8982989365054715,1.0624764542425833,0.0,0.6968703548754416,-0.9837513162243751,-0.7107818626588391,0.33343529316686815,0.0
30.400,0.25251186518899854,0.3019096697530439,0.8982367054108651,1.0617215287300847,0.0,0.6719913732620978,-0.9647078398735293,-0.7480416057571289,0.32519545189795956,0.0
30.500,0.2529406230295858,0.3017123572288021,0.8981744743162586,1.0609666032175864,0.0,0.647112391648754,-0.9456643635226833,-0.7853013488554186,0.316955610629051,0.0
30.600,0.2533693808701731,0.3015150447045603,0.8981122432216522,1.060211677705088,0.0,0.6222334100354102,-0.9266208871718375,-0.8225610919537083,0.3087157693601424,0.0
30.700,0.2537981387107603,0.30131773218031854,0.8980500121270457,1.0594567521925895,0.0,0.5973544284220664,-0.9075774108209917,-0.859820835051998,0.3004759280912338,0.0
30.800,0.25422689655134756,0.3011204196560767,0.8979877810324391,1.0587018266800912,0.0,0.5724754468087228,-0.888533934470146,-0.8970805781502877,0.29223608682232516,0.0
30.900,0.25465565439193477,0.30092310713183495,0.8979255499378327,1.0579469011675926,0.0,0.547596465195379,-0.8694904581193001,-0.9343403212485775,0.2839962455534166,0.0
31.000,0.25508441223252204,0.3007257946075932,0.8978633188432262,1.0571919756550943,0.0,0.5227174835820352,-0.8504469817684542,-0.9716000643468673,0.275756404284508,0.0
31.100,0.2555131700731093,0.30052848208335137,0.8978010877486198,1.056437050142596,0.0,0.4978385019686914,-0.8314035054176084,-1.0088598074451571,0.2675165630155994,0.0
31.200,0.2559419279136965,0.3003311695591096,0.8977388566540133,1.0556821246300974,0.0,0.47295952035534766,-0.8123600290667626,-1.0461195505434466,0.2592767217466908,0.0
31.300,0.2563706857542838,0.30013385703486783,0.8976766255594069,1.054927199117599,0.0,0.44808053874200393,-0.7933165527159168,-1.0833792936417364,0.2510368804777822,0.0
31.400,0.25679944359487106,0.299936544510626,0.8976143944648004,1.0541722736051005,0.0,0.42320155712866014,-0.7742730763650709,-1.1206390367400263,0.2427970392088736,0.0
31.500,0.25722820143545827,0.29973923198638425,0.897552163370194,1.0534173480926021,0.0,0.39832257551531636,-0.7552296000142251,-1.157898779838316,0.23455719793996502,0.0
31.600,0.25765695927604554,0.2995419194621424,0.8974899322755875,1.0526624225801038,0.0,0.3734435939019727,-0.7361861236633793,-1.1951585229366057,0.22631735667105646,0.0
31.700,0.25808571711663275,0.29934460693790066,0.897427701180981,1.0519074970676052,0.0,0.3485646122886289,-0.7171426473125335,-1.2324182660348955,0.21807751540214787,0.0
31.800,0.25851447495722,0.2991472944136589,0.8973654700863746,1.0511525715551069,0.0,0.3236856306752851,-0.6980991709616876,-1.2696780091331852,0.20983767413323925,0.0
31.900,0.2589432327978073,0.29894998188941707,0.8973032389917681,1.0503976460426085,0.0,0.2988066490619413,-0.6790556946108418,-1.306937752231475,0.20159783286433067,0.0
32.000,0.2593719906383945,0.2987526693651753,0.8972410078971617,1.04964272053011,0.0,0.27392766744859753,-0.660012218259996,-1.3441974953297646,0.19335799159542208,0.0
32.100,0.25980074847898177,0.29855535684093354,0.8971787768025552,1.0488877950176116,0.0,0.24904868583525386,-0.6409687419091502,-1.3814572384280543,0.1851181503265135,0.0
32.200,0.260229506319569,0.2983580443166917,0.8971165457079487,1.048132869505113,0.0,0.22416970422191007,-0.6219252655583043,-1.418716981526344,0.17687830905760488,0.0
32.300,0.26065826416015625,0.29816073179244995,0.8970543146133423,1.0473779439926147,0.0,0.19929072260856628,-0.6028817892074585,-1.4559767246246338,0.1686384677886963,0.0
32.400,0.25492938980460167,0.3019462823867798,0.8986556977033615,1.0617918968200684,0.0,0.19846513494849205,-0.5878509730100632,-1.453272670507431,0.13045272044837475,0.0
32.500,0.2492005154490471,0.3057318329811096,0.9002570807933807,1.076205849647522,0.0,0.19763954728841782,-0.5728201568126678,-1.4505686163902283,0.09226697310805321,0.0
32.600,0.2434716410934925,0.30951738357543945,0.9018584638834,1.0906198024749756,0.0,0.19681395962834358,-0.5577893406152725,-1.4478645622730255,0.05408122576773167,0.0
32.700,0.23774276673793793,0.3133029341697693,0.9034598469734192,1.1050337553024292,0.0,0.19598837196826935,-0.5427585244178772,-1.4451605081558228,0.015895478427410126,0.0
32.800,0.23723524808883667,0.31312352418899536,0.9019041657447815,1.103680431842804,0.0,0.2001936063170433,-0.5316800177097321,-1.448404848575592,-0.016302699223160744,0.0
32.900,0.2367277294397354,0.31294411420822144,0.9003484845161438,1.1023271083831787,0.0,0.20439884066581726,-0.5206015110015869,-1.4516491889953613,-0.04850087687373161,0.0
33.000,0.2420472502708435,0.3086107671260834,0.8996659815311432,1.0865538716316223,0.0,0.21131883561611176,-0.5146494507789612,-1.4590376019477844,-0.07783911935985088,0.0
33.100,0.2473667711019516,0.3042774200439453,0.8989834785461426,1.070780634880066,0.0,0.21823883056640625,-0.5086973905563354,-1.4664260149002075,-0.10717736184597015,0.0
33.200,0.24874252825975418,0.3052428811788559,0.895961731672287,1.0725690722465515,0.0,0.2225196734070778,-0.5144884288311005,-1.473681926727295,-0.13244140893220901,0.0
33.300,0.25011828541755676,0.3062083423137665,0.8929399847984314,1.074357509613037,0.0,0.22680051624774933,-0.5202794671058655,-1.4809378385543823,-0.15770545601844788,0.0
33.400,0.2540764808654785,0.30182084441185,0.8929722905158997,1.0584090948104858,0.0,0.22801059484481812,-0.5088967531919479,-1.484426498413086,-0.20192229002714157,0.0
33.500,0.25803467631340027,0.29743334650993347,0.8930045962333679,1.0424606800079346,0.0,0.2292206734418869,-0.4975140392780304,-1.4879151582717896,-0.24613912403583527,0.0
33.600,0.2664504796266556,0.28767793625593185,0.8887539505958557,1.0233215987682343,0.0,0.2469865344464779,-0.48343198001384735,-1.4886031746864319,-0.2795114479959011,0.0
33.700,0.2748662829399109,0.27792252600193024,0.8845033049583435,1.004182517528534,0.0,0.2647523954510689,-0.4693499207496643,-1.4892911911010742,-0.31288377195596695,0.0
33.800,0.2832820862531662,0.2681671157479286,0.8802526593208313,0.9850434362888336,0.0,0.28251825645565987,-0.45526786148548126,-1.4899792075157166,-0.3462560959160328,0.0
33.900,0.2916978895664215,0.258411705493927,0.8760020136833191,0.9659043550491333,0.0,0.30028411746025085,-0.4411858022212982,-1.4906672239303589,-0.37962841987609863,0.0
34.000,0.27466576794783276,0.2707765996456146,0.8825897177060446,1.0027566353480022,0.0,0.29782548546791077,-0.44328951835632324,-1.4911902745564778,-0.3969925840695699,0.0
34.100,0.25763364632924396,0.28314149379730225,0.8891774217287699,1.0396089156468709,0.0,0.2953668534755707,-0.44539323449134827,-1.491713325182597,-0.4143567482630412,0.0
34.200,0.2406015247106552,0.29550638794898987,0.8957651257514954,1.0764611959457397,0.0,0.2929082214832306,-0.4474969506263733,-1.4922363758087158,-0.43172091245651245,0.0
34.300,0.24191839354378836,0.29348684208733694,0.8955683708190918,1.074610880443028,0.0,0.25281914097390007,-0.44094314745494295,-1.508976629802159,-0.4534383075577872,0.0
34.400,0.24323526237692153,0.291467296225684,0.8953716158866882,1.0727605649403162,0.0,0.2127300604645695,-0.43438934428351267,-1.5257168837956019,-0.475155702659062,0.0
34.500,0.24455213121005467,0.2894477503640311,0.8951748609542847,1.0709102494376046,0.0,0.17264097995523897,-0.42783554111208233,-1.542457137789045,-0.4968730977603367,0.0
34.600,0.24586900004318782,0.2874282045023782,0.8949781060218811,1.069059933934893,0.0,0.13255189944590842,-0.42128173794065205,-1.5591973917824882,-0.5185904928616115,0.0
34.700,0.24718586887632096,0.2854086586407253,0.8947813510894775,1.0672096184321813,0.0,0.09246281893657787,-0.4147279347692217,-1.5759376457759313,-0.5403078879628863,0.0
34.800,0.24850273770945414,0.28338911277907236,0.894584596157074,1.0653593029294695,0.0,0.052373738427247324,-0.4081741315977914,-1.5926778997693742,-0.562025283064161,0.0
34.900,0.24981960654258728,0.28136956691741943,0.8943878412246704,1.0635089874267578,0.0,0.012284657917916775,-0.4016203284263611,-1.6094181537628174,-0.5837426781654358,0.0
35.000,0.24981960654258728,0.28136956691741943,0.8943878412246704,1.0635089874267578,0.0,0.005733408557716757,-0.3874324858188629,-1.6042031049728394,-0.6137188673019409,0.0
35.100,0.24981960654258728,0.28136956691741943,0.8943878412246704,1.0635089874267578,0.0,-0.0008178408024832606,-0.37324464321136475,-1.5989880561828613,-0.643695056438446,0.0
35.200,0.25381773710250854,0.27777355909347534,0.8890607059001923,1.0472825169563293,0.0,-0.0020691045210696757,-0.37323586642742157,-1.5966833233833313,-0.6828807294368744,0.0
35.300,0.2578158676624298,0.27417755126953125,0.8837335705757141,1.0310560464859009,0.0,-0.0033203682396560907,-0.3732270896434784,-1.5943785905838013,-0.7220664024353027,0.0
35.400,0.24812249839305878,0.2839375038941701,0.8900933067003886,1.0567594369252522,0.0,0.00024507706984877586,-0.37905047337214154,-1.5972997744878132,-0.7377806305885315,0.0
35.500,0.23842912912368774,0.293697456518809,0.8964530428250631,1.0824628273646038,0.0,0.0038105223793536425,-0.38487385710080463,-1.6002209583918254,-0.7534948587417603,0.0
35.600,0.2287357598543167,0.3034574091434479,0.9028127789497375,1.108166217803955,0.0,0.007375967688858509,-0.3906972408294678,-1.6031421422958374,-0.769209086894989,0.0
35.700,0.24315519630908966,0.2963124215602875,0.8999715447425842,1.081477165222168,0.0,-0.0053977989591658115,-0.3875628411769867,-1.5885907411575317,-0.7932690382003784,0.0
35.800,0.2307194471359253,0.30740950504938763,0.9044398665428162,1.1095378001530964,0.0,-0.003434283348421256,-0.38312451044718426,-1.590274969736735,-0.8158098459243774,0.0
35.900,0.21828369796276093,0.31850658853848773,0.9089081883430481,1.1375984350840251,0.0,-0.0014707677376767005,-0.3786861797173818,-1.5919591983159382,-0.8383506536483765,0.0
36.000,0.20584794878959656,0.3296036720275879,0.91337651014328,1.1656590700149536,0.0,0.0004927478730678558,-0.37424784898757935,-1.5936434268951416,-0.8608914613723755,0.0
36.100,0.19581913451353708,0.34613272547721863,0.9198940594991049,1.201770027478536,0.0,-0.0006677238270640373,-0.37585339943567914,-1.5916972557703655,-0.8692232569058737,0.0
36.200,0.18579032023747763,0.36266177892684937,0.9264116088549296,1.2378809849421184,0.0,-0.0018281955271959305,-0.37745894988377887,-1.5897510846455891,-0.8775550524393717,0.0
36.300,0.17576150596141815,0.3791908323764801,0.9329291582107544,1.2739919424057007,0.0,-0.0029886672273278236,-0.37906450033187866,-1.587804913520813,-0.8858868479728699,0.0
36.400,0.1870206266641617,0.36734857559204104,0.9250706791877746,1.2388821601867677,0.0,-0.007216108590364457,-0.37743399739265443,-1.5819358825683594,-0.890191400051117,0.0
36.500,0.1982797473669052,0.3555063188076019,0.9172122001647949,1.2037723779678344,0.0,-0.01144354995340109,-0.3758034944534302,-1.5760668516159058,-0.8944959521293641,0.0
36.600,0.20953886806964875,0.34366406202316285,0.9093537211418152,1.1686625957489014,0.0,-0.01567099131643772,-0.3741729915142059,-1.5701978206634521,-0.898800504207611,0.0
36.700,0.22079798877239226,0.33182180523872373,0.9014952421188355,1.1335528135299682,0.0,-0.019898432679474356,-0.3725424885749817,-1.5643287897109985,-0.9031050562858581,0.0
36.800,0.2320571094751358,0.31997954845428467,0.8936367630958557,1.0984430313110352,0.0,-0.024125874042510986,-0.37091198563575745,-1.558459758758545,-0.9074096083641052,0.0
36.900,0.23149577528238297,0.3164481967687607,0.8990475833415985,1.107659637928009,0.0,-0.009332836605608463,-0.364479124546051,-1.5791189670562744,-0.9052304625511169,0.0
37.000,0.23093444108963013,0.3129168450832367,0.9044584035873413,1.116876244544983,0.0,0.00546020083129406,-0.3580462634563446,-1.599778175354004,-0.9030513167381287,0.0
37.100,0.21498313546180725,0.32098814845085144,0.909674346446991,1.1470434665679932,0.0,-0.007174409925937653,-0.36462292075157166,-1.5821948051452637,-0.9054884910583496,0.0
37.200,0.2187674567103386,0.31532083451747894,0.9026975333690643,1.1241647601127625,0.0,-0.011515741236507893,-0.3538880795240402,-1.5764753818511963,-0.9142433404922485,0.0
37.300,0.22255177795886993,0.30965352058410645,0.8957207202911377,1.1012860536575317,0.0,-0.015857072547078133,-0.3431532382965088,-1.570755958557129,-0.9229981899261475,0.0
37.400,0.22117625176906586,0.30936890840530396,0.8935015797615051,1.0991119146347046,0.0,-0.015857072547078133,-0.3431532382965088,-1.570755958557129,-0.9229981899261475,0.0
37.500,0.2170809805393219,0.3147217035293579,0.8984598517417908,1.1202372312545776,0.0,-0.009449735865928233,-0.3432490825653076,-1.5796120166778564,-0.9228359460830688,0.0
37.600,0.21298570930957794,0.32007449865341187,0.9034181237220764,1.1413625478744507,0.0,-0.0030423991847783327,-0.34334492683410645,-1.588468074798584,-0.9226737022399902,0.0
37.700,0.21396996080875397,0.3204849362373352,0.9067210555076599,1.1441397666931152,0.0,0.0009004403837025166,-0.3514500856399536,-1.5941592454910278,-0.9014205932617188,0.0
37.800,0.2268228903412819,0.31185825169086456,0.9020168781280518,1.1116623282432556,0.0,-0.0009163033682852983,-0.36852891743183136,-1.5908855199813843,-0.894505113363266,0.0
37.900,0.23967581987380981,0.3032315671443939,0.8973127007484436,1.079184889793396,0.0,-0.0027330471202731133,-0.3856077492237091,-1.5876117944717407,-0.8875896334648132,0.0
38.000,0.2403249740600586,0.30343079566955566,0.8983515202999115,1.0804269909858704,0.0,-0.0010997698991559446,-0.39738139510154724,-1.5902653336524963,-0.8553548455238342,0.0
38.100,0.24097412824630737,0.3036300241947174,0.8993903398513794,1.0816690921783447,0.0,0.0005335073219612241,-0.4091550409793854,-1.592918872833252,-0.8231200575828552,0.0
38.200,0.24464210867881775,0.3012518088022868,0.8972891966501871,1.0719191233317058,0.0,-0.00621052513209482,-0.4248884717623393,-1.586668848991394,-0.781979481379191,0.0
38.300,0.24831008911132812,0.29887359340985614,0.895188053448995,1.0621691544850667,0.0,-0.012954557586150864,-0.44062190254529315,-1.5804188251495361,-0.740838905175527,0.0
38.400,0.2519780695438385,0.29649537801742554,0.8930869102478027,1.0524191856384277,0.0,-0.01969859004020691,-0.45635533332824707,-1.5741688013076782,-0.6996983289718628,0.0
38.500,0.24644596129655838,0.30053093284368515,0.8951454013586044,1.0679168701171875,0.0,-0.01692284573800862,-0.47153183817863464,-1.5777770280838013,-0.661846324801445,0.0
38.600,0.24091385304927826,0.30456648766994476,0.8972038924694061,1.0834145545959473,0.0,-0.014147101435810328,-0.4867083430290222,-1.5813852548599243,-0.6239943206310272,0.0
38.700,0.23538174480199814,0.3086020424962044,0.8992623835802078,1.098912239074707,0.0,-0.011371357133612037,-0.5018848478794098,-1.5849934816360474,-0.5861423164606094,0.0
38.800,0.22984963655471802,0.312637597322464,0.9013208746910095,1.1144099235534668,0.0,-0.008595612831413746,-0.5170613527297974,-1.5886017084121704,-0.5482903122901917,0.0
38.900,0.2318148732185364,0.31075639128684995,0.9005192399024964,1.1073649168014525,0.0,-0.0014607015997171397,-0.5318896889686584,-1.5940807104110717,-0.5053146719932556,0.0
39.000,0.23378010988235473,0.308875185251236,0.8997176051139831,1.1003199100494385,0.0,0.0056742096319794665,-0.5467180252075196,-1.5995597124099732,-0.46233903169631957,0.0
39.100,0.2357453465461731,0.30699397921562194,0.89891597032547,1.0932749032974243,0.0,0.012809120863676072,-0.5615463614463806,-1.6050387144088745,-0.41936339139938356,0.0
39.200,0.23771058320999144,0.30511277318000796,0.8981143355369567,1.0862298965454102,0.0,0.01994403209537268,-0.5763746976852417,-1.610517716407776,-0.3763877511024475,0.0
39.300,0.23967581987380981,0.3032315671443939,0.8973127007484436,1.079184889793396,0.0,0.027078943327069283,-0.5912030339241028,-1.6159967184066772,-0.3334121108055115,0.0
39.400,0.2425524353981018,0.300493186712265,0.8957641661167145,1.0721717715263366,0.0,0.06000615675002337,-0.5985346496105194,-1.5994799852371215,-0.3086427733302116,0.0
39.500,0.2454290509223938,0.2977548062801361,0.8942156314849854,1.0651586532592774,0.0,0.09293337017297745,-0.605866265296936,-1.5829632520675658,-0.2838734358549118,0.0
39.600,0.24830566644668578,0.2950164258480072,0.8926670968532562,1.058145534992218,0.0,0.12586058359593152,-0.6131978809833527,-1.5664465188980103,-0.25910409837961196,0.0
39.700,0.2511822819709778,0.2922780454158783,0.8911185622215271,1.0511324167251588,0.0,0.15878779701888562,-0.6205294966697693,-1.5499297857284546,-0.23433476090431213,0.0
39.800,0.2540588974952698,0.2895396649837494,0.889570027589798,1.0441192984580994,0.0,0.1917150104418397,-0.6278611123561859,-1.533413052558899,-0.2095654234290123,0.0
39.900,0.25693551301956175,0.28680128455162046,0.8880214929580689,1.03710618019104,0.0,0.22464222386479377,-0.6351927280426025,-1.5168963193893432,-0.18479608595371247,0.0
40.000,0.25981212854385377,0.2840629041194916,0.8864729583263398,1.0300930619239808,0.0,0.25756943728774784,-0.6425243437290191,-1.5003795862197875,-0.16002674847841264,0.0
40.100,0.26268874406814574,0.28132452368736266,0.8849244236946106,1.0230799436569213,0.0,0.29049665071070196,-0.6498559594154358,-1.483862853050232,-0.13525741100311278,0.0
40.200,0.26556535959243777,0.2785861432552338,0.8833758890628814,1.0160668253898621,0.0,0.32342386413365604,-0.6571875751018524,-1.4673461198806763,-0.11048807352781295,0.0
40.300,0.26844197511672974,0.27584776282310486,0.8818273544311523,1.0090537071228027,0.0,0.3563510775566101,-0.664519190788269,-1.4508293867111206,-0.08571873605251312,0.0
40.400,0.2661811590194702,0.2769937336444855,0.8825471639633179,1.0138090610504151,0.0,0.32868455052375795,-0.6715937376022338,-1.4576456069946289,-0.05401812046766281,0.0
40.500,0.26392034292221067,0.2781397044658661,0.8832669734954834,1.0185644149780273,0.0,0.3010180234909058,-0.6786682844161988,-1.4644618272781371,-0.02231750488281249,0.0
40.600,0.2616595268249512,0.2792856752872467,0.8839867830276489,1.0233197689056397,0.0,0.27335149645805357,-0.6857428312301636,-1.4712780475616456,0.009383110702037803,0.0
40.700,0.25939871072769166,0.2804316461086273,0.8847065925598144,1.0280751228332519,0.0,0.2456849694252014,-0.6928173780441285,-1.4780942678451539,0.04108372628688814,0.0
40.800,0.25713789463043213,0.28157761693000793,0.88542640209198,1.0328304767608643,0.0,0.21801844239234924,-0.6998919248580933,-1.484910488128662,0.07278434187173843,0.0
40.900,0.2565318605592174,0.282264668133951,0.8857419779223781,1.0342489288699241,0.0,0.24661412354438536,-0.7179205571451495,-1.4515144882663604,0.08554760727190203,0.0
41.000,0.25592582648800266,0.2829517193378941,0.8860575537527761,1.0356673809789843,0.0,0.2752098046964215,-0.7359491894322057,-1.4181184884040587,0.09831087267206562,0.0
41.100,0.2553197924167879,0.2836387705418371,0.8863731295831742,1.0370858330880441,0.0,0.30380548584845757,-0.7539778217192619,-1.3847224885417568,0.1110741380722292,0.0
41.200,0.2547137583455732,0.2843258217457802,0.8866887054135723,1.0385042851971042,0.0,0.3324011670004937,-0.7720064540063181,-1.3513264886794552,0.12383740347239279,0.0
41.300,0.25410772427435846,0.2850128729497233,0.8870042812439703,1.0399227373061641,0.0,0.3609968481525298,-0.7900350862933744,-1.3179304888171535,0.1366006688725564,0.0
41.400,0.2535016902031437,0.28569992415366635,0.8873198570743683,1.0413411894152242,0.0,0.3895925293045659,-0.8080637185804306,-1.2845344889548518,0.14936393427271996,0.0
41.500,0.252895656131929,0.28638697535760943,0.8876354329047664,1.0427596415242841,0.0,0.41818821045660204,-0.8260923508674868,-1.25113848909255,0.16212719967288355,0.0
41.600,0.2522896220607142,0.28707402656155245,0.8879510087351645,1.044178093633344,0.0,0.44678389160863813,-0.844120983154543,-1.2177424892302482,0.17489046507304715,0.0
41.700,0.25168358798949947,0.28776107776549553,0.8882665845655626,1.0455965457424041,0.0,0.4753795727606743,-0.8621496154415992,-1.1843464893679465,0.18765373047321074,0.0
41.800,0.25107755391828473,0.2884481289694386,0.8885821603959606,1.047014997851464,0.0,0.5039752539127104,-0.8801782477286554,-1.1509504895056448,0.20041699587337433,0.0
41.900,0.25047151984707,0.2891351801733817,0.8888977362263587,1.0484334499605241,0.0,0.5325709350647465,-0.8982068800157117,-1.117554489643343,0.21318026127353792,0.0
42.000,0.24986548577585527,0.28982223137732477,0.8892133120567568,1.049851902069584,0.0,0.5611666162167825,-0.9162355123027679,-1.0841584897810412,0.2259435266737015,0.0
42.100,0.24925945170464053,0.29050928258126785,0.8895288878871549,1.051270354178644,0.0,0.5897622973688188,-0.9342641445898241,-1.0507624899187396,0.2387067920738651,0.0
42.200,0.2486534176334258,0.29119633378521087,0.8898444637175529,1.052688806287704,0.0,0.6183579785208548,-0.9522927768768803,-1.0173664900564379,0.2514700574740287,0.0
42.300,0.24804738356221107,0.29188338498915395,0.890160039547951,1.054107258396764,0.0,0.646953659672891,-0.9703214091639365,-0.9839704901941361,0.26423332287419227,0.0
42.400,0.24744134949099633,0.292570436193097,0.8904756153783491,1.055525710505824,0.0,0.675549340824927,-0.9883500414509927,-0.9505744903318344,0.27699658827435586,0.0
42.500,0.2468353154197816,0.2932574873970401,0.8907911912087472,1.0569441626148839,0.0,0.7041450219769632,-1.006378673738049,-0.9171784904695327,0.2897598536745194,0.0
42.600,0.24622928134856686,0.2939445386009832,0.8911067670391452,1.058362614723944,0.0,0.7327407031289993,-1.024407306025105,-0.8837824906072309,0.30252311907468304,0.0
42.700,0.24562324727735213,0.2946315898049262,0.8914223428695432,1.0597810668330039,0.0,0.7613363842810354,-1.0424359383121613,-0.8503864907449291,0.31528638447484664,0.0
42.800,0.24501721320613737,0.2953186410088693,0.8917379186999413,1.0611995189420638,0.0,0.7899320654330715,-1.0604645705992175,-0.8169904908826274,0.32804964987501023,0.0
42.900,0.24441117913492263,0.29600569221281237,0.8920534945303394,1.0626179710511239,0.0,0.8185277465851076,-1.0784932028862737,-0.7835944910203257,0.34081291527517377,0.0
43.000,0.2438051450637079,0.29669274341675544,0.8923690703607374,1.0640364231601838,0.0,0.8471234277371438,-1.0965218351733301,-0.750198491158024,0.3535761806753374,0.0
43.100,0.24319911099249317,0.2973797946206985,0.8926846461911355,1.0654548752692439,0.0,0.8757191088891798,-1.1145504674603863,-0.7168024912957223,0.366339446075501,0.0
43.200,0.24259307692127843,0.29806684582464155,0.8930002220215336,1.0668733273783038,0.0,0.904314790041216,-1.1325790997474425,-0.6834064914334205,0.37910271147566454,0.0
43.300,0.2419870428500637,0.2987538970285846,0.8933157978519317,1.0682917794873636,0.0,0.932910471193252,-1.1506077320344987,-0.6500104915711188,0.39186597687582814,0.0
43.400,0.24138100877884897,0.2994409482325277,0.8936313736823297,1.0697102315964238,0.0,0.9615061523452882,-1.168636364321555,-0.616614491708817,0.4046292422759918,0.0
43.500,0.2407749747076342,0.3001279994364708,0.8939469495127278,1.0711286837054836,0.0,0.9901018334973243,-1.1866649966086111,-0.5832184918465153,0.4173925076761553,0.0
43.600,0.24016894063641947,0.30081505064041386,0.8942625253431259,1.0725471358145438,0.0,1.0186975146493604,-1.2046936288956673,-0.5498224919842136,0.4301557730763189,0.0
43.700,0.23956290656520474,0.3015021018443569,0.894578101173524,1.0739655879236036,0.0,1.0472931958013965,-1.2227222611827235,-0.5164264921219118,0.4429190384764825,0.0
43.800,0.23895687249399,0.30218915304829996,0.894893677003922,1.0753840400326637,0.0,1.0758888769534327,-1.2407508934697797,-0.48303049225961003,0.4556823038766461,0.0
43.900,0.23835083842277527,0.30287620425224304,0.8952092528343201,1.0768024921417236,0.0,1.1044845581054688,-1.258779525756836,-0.44963449239730835,0.4684455692768097,0.0
44.000,0.23933580186631945,0.30242509532857825,0.8950683452464916,1.0750675466325548,0.0,1.0738490908234208,-1.2459416720602248,-0.4846535921096802,0.4774647068094324,0.0
44.100,0.24032076530986363,0.30197398640491346,0.8949274376586631,1.073332601123386,0.0,1.0432136235413727,-1.2331038183636136,-0.519672691822052,0.48648384434205516,0.0
44.200,0.2413057287534078,0.3015228774812486,0.8947865300708346,1.071597655614217,0.0,1.0125781562593248,-1.2202659646670024,-0.5546917915344238,0.4955029818746779,0.0
44.300,0.24229069219695198,0.30107176855758383,0.8946456224830063,1.0698627101050482,0.0,0.9819426889772769,-1.2074281109703913,-0.5897108912467957,0.5045221194073006,0.0
44.400,0.24327565564049614,0.30062065963391904,0.8945047148951778,1.0681277645958795,0.0,0.9513072216952289,-1.1945902572737799,-0.6247299909591675,0.5135412569399234,0.0
44.500,0.24426061908404031,0.30016955071025425,0.8943638073073493,1.0663928190867107,0.0,0.9206717544131808,-1.1817524035771687,-0.6597490906715393,0.5225603944725461,0.0
44.600,0.2452455825275845,0.29971844178658946,0.8942228997195208,1.0646578735775418,0.0,0.8900362871311329,-1.1689145498805575,-0.6947681903839111,0.5315795320051688,0.0
44.700,0.24623054597112867,0.2992673328629247,0.8940819921316924,1.062922928068373,0.0,0.859400819849085,-1.1560766961839464,-0.729787290096283,0.5405986695377915,0.0
44.800,0.24721550941467285,0.29881622393925983,0.8939410845438639,1.061187982559204,0.0,0.828765352567037,-1.1432388424873352,-0.7648063898086548,0.5496178070704142,0.0
44.900,0.24820047285821703,0.29836511501559504,0.8938001769560354,1.0594530370500352,0.0,0.798129885284989,-1.130400988790724,-0.7998254895210266,0.5586369446030369,0.0
45.000,0.2491854363017612,0.29791400609193025,0.893659269368207,1.0577180915408664,0.0,0.767494418002941,-1.1175631350941129,-0.8348445892333984,0.5676560821356597,0.0
45.100,0.25017039974530536,0.29746289716826546,0.8935183617803786,1.0559831460316975,0.0,0.736858950720893,-1.1047252813975017,-0.8698636889457703,0.5766752196682824,0.0
45.200,0.25115536318884957,0.29701178824460067,0.8933774541925501,1.0542482005225287,0.0,0.706223483438845,-1.0918874277008905,-0.9048827886581421,0.5856943572009051,0.0
45.300,0.2521403266323937,0.2965606793209358,0.8932365466047216,1.05251325501336,0.0,0.6755880161567971,-1.0790495740042791,-0.9399018883705139,0.5947134947335279,0.0
45.400,0.2531252900759379,0.29610957039727104,0.8930956390168932,1.0507783095041912,0.0,0.6449525488747491,-1.066211720307668,-0.9749209880828857,0.6037326322661506,0.0
45.500,0.2541102535194821,0.29565846147360625,0.8929547314290647,1.0490433639950223,0.0,0.6143170815927012,-1.0533738666110568,-1.0099400877952576,0.6127517697987733,0.0
45.600,0.2550952169630263,0.29520735254994146,0.8928138238412363,1.0473084184858534,0.0,0.5836816143106531,-1.0405360129144456,-1.0449591875076294,0.6217709073313961,0.0
45.700,0.25608018040657043,0.29475624362627667,0.8926729162534078,1.0455734729766846,0.0,0.5530461470286052,-1.0276981592178345,-1.0799782872200012,0.6307900448640187,0.0
45.800,0.2570651438501146,0.2943051347026118,0.8925320086655794,1.0438385274675157,0.0,0.5224106797465572,-1.0148603055212233,-1.114997386932373,0.6398091823966415,0.0
45.900,0.2580501072936588,0.29385402577894704,0.8923911010777509,1.0421035819583468,0.0,0.49177521246450917,-1.0020224518246121,-1.1500164866447449,0.6488283199292642,0.0
46.000,0.25903507073720294,0.29340291685528225,0.8922501934899224,1.040368636449178,0.0,0.46113974518246115,-0.989184598128001,-1.1850355863571167,0.6578474574618869,0.0
46.100,0.26002003418074715,0.29295180793161746,0.8921092859020939,1.0386336909400091,0.0,0.43050427790041323,-0.9763467444313898,-1.2200546860694885,0.6668665949945096,0.0
46.200,0.2610049976242913,0.29250069900795267,0.8919683783142655,1.0368987454308405,0.0,0.3998688106183652,-0.9635088907347785,-1.2550737857818604,0.6758857325271324,0.0
46.300,0.2619899610678355,0.2920495900842879,0.8918274707264371,1.0351637999216716,0.0,0.3692333433363173,-0.9506710370381674,-1.2900928854942322,0.6849048700597551,0.0
46.400,0.26297492451137966,0.29159848116062304,0.8916865631386086,1.0334288544125028,0.0,0.3385978760542693,-0.9378331833415561,-1.325111985206604,0.6939240075923778,0.0
46.500,0.26395988795492387,0.29114737223695825,0.8915456555507801,1.031693908903334,0.0,0.30796240877222136,-0.9249953296449449,-1.3601310849189758,0.7029431451250006,0.0
46.600,0.264944851398468,0.29069626331329346,0.8914047479629517,1.029958963394165,0.0,0.27732694149017334,-0.9121574759483337,-1.3951501846313477,0.7119622826576233,0.0
46.700,0.26478343942891,0.288758155444394,0.890517330687979,1.029158633688222,0.0,0.2766111752261286,-0.8833407111789869,-1.3625160507533862,0.7330701973127283,0.0
46.800,0.2646220274593519,0.2868200475754945,0.8896299134130063,1.0283583039822786,0.0,0.2758954089620839,-0.8545239464096401,-1.3298819168754246,0.7541781119678331,0.0
46.900,0.2644606154897939,0.28488193970659503,0.8887424961380337,1.0275579742763354,0.0,0.2751796426980392,-0.8257071816402933,-1.2972477829974631,0.7752860266229381,0.0
47.000,0.2642992035202358,0.28294383183769556,0.887855078863061,1.026757644570392,0.0,0.27446387643399445,-0.7968904168709465,-1.2646136491195015,0.796393941278043,0.0
47.100,0.26413779155067774,0.2810057239687961,0.8869676615880884,1.025957314864449,0.0,0.27374811016994977,-0.7680736521015996,-1.23197951524154,0.817501855933148,0.0
47.200,0.2639763795811197,0.27906761609989666,0.8860802443131156,1.0251569851585056,0.0,0.27303234390590503,-0.7392568873322528,-1.1993453813635784,0.8386097705882528,0.0
47.300,0.26381496761156165,0.2771295082309972,0.885192827038143,1.0243566554525625,0.0,0.2723165776418603,-0.710440122562906,-1.166711247485617,0.8597176852433578,0.0
47.400,0.2636535556420036,0.2751914003620977,0.8843054097631703,1.0235563257466191,0.0,0.27160081137781555,-0.6816233577935592,-1.1340771136076553,0.8808255998984627,0.0
47.500,0.26349214367244556,0.27325329249319824,0.8834179924881976,1.022755996040676,0.0,0.2708850451137709,-0.6528065930242124,-1.1014429797296938,0.9019335145535676,0.0
47.600,0.2633307317028875,0.27131518462429877,0.882530575213225,1.0219556663347327,0.0,0.27016927884972614,-0.6239898282548656,-1.0688088458517324,0.9230414292086726,0.0
47.700,0.26316931973332947,0.2693770767553993,0.8816431579382523,1.0211553366287895,0.0,0.2694535125856814,-0.5951730634855188,-1.0361747119737708,0.9441493438637775,0.0
47.800,0.26300790776377136,0.2674389688864998,0.8807557406632797,1.0203550069228462,0.0,0.2687377463216367,-0.5663562987161719,-1.0035405780958093,0.9652572585188823,0.0
47.900,0.2628464957942133,0.26550086101760034,0.879868323388307,1.019554677216903,0.0,0.268021980057592,-0.5375395339468252,-0.9709064442178478,0.9863651731739873,0.0
48.000,0.2626850838246553,0.26356275314870087,0.8789809061133343,1.0187543475109597,0.0,0.26730621379354724,-0.5087227691774783,-0.9382723103398862,1.0074730878290923,0.0
48.100,0.26252367185509723,0.2616246452798014,0.8780934888383617,1.0179540178050166,0.0,0.26659044752950256,-0.47990600440813147,-0.9056381764619247,1.0285810024841973,0.0
48.200,0.2623622598855392,0.2596865374109019,0.877206071563389,1.0171536880990732,0.0,0.2658746812654578,-0.45108923963878467,-0.8730040425839631,1.049688917139302,0.0
48.300,0.26220084791598114,0.2577484295420025,0.8763186542884164,1.0163533583931301,0.0,0.2651589150014131,-0.42227247486943786,-0.8403699087060017,1.070796831794407,0.0
48.400,0.2620394359464231,0.255810321673103,0.8754312370134436,1.0155530286871868,0.0,0.26444314873736835,-0.39345571010009095,-0.80773577482804,1.091904746449512,0.0
48.500,0.26187802397686505,0.25387221380420355,0.874543819738471,1.0147526989812437,0.0,0.26372738247332367,-0.36463894533074415,-0.7751016409500785,1.113012661104617,0.0
48.600,0.26171661200730695,0.2519341059353041,0.8736564024634983,1.0139523692753003,0.0,0.26301161620927893,-0.33582218056139745,-0.7424675070721171,1.134120575759722,0.0
48.700,0.2615552000377489,0.2499959980664046,0.8727689851885256,1.0131520395693572,0.0,0.2622958499452342,-0.30700541579205065,-0.7098333731941555,1.1552284904148267,0.0
48.800,0.26139378806819086,0.24805789019750513,0.871881567913553,1.0123517098634138,0.0,0.2615800836811895,-0.27818865102270374,-0.677199239316194,1.1763364050699316,0.0
48.900,0.2612323760986328,0.24611978232860565,0.8709941506385803,1.0115513801574707,0.0,0.2608643174171448,-0.24937188625335693,-0.6445651054382324,1.1974443197250366,0.0
49.000,0.26097136984268826,0.24640118516981602,0.8715263952811559,1.0129269907871883,0.0,0.26611708849668503,-0.2580516350766023,-0.5976314793030421,1.1895809570948284,0.0
49.100,0.26071036358674365,0.24668258801102638,0.8720586399237314,1.0143026014169056,0.0,0.2713698595762253,-0.2667313838998477,-0.5506978531678518,1.1817175944646199,0.0
49.200,0.2604493573307991,0.24696399085223675,0.8725908845663071,1.0156782120466232,0.0,0.27662263065576553,-0.27541113272309303,-0.5037642270326614,1.1738542318344116,0.0
49.300,0.26018835107485455,0.2472453936934471,0.8731231292088827,1.0170538226763408,0.0,0.2818754017353058,-0.2840908815463384,-0.45683060089747113,1.1659908692042034,0.0
49.400,0.25992734481890994,0.24752679653465748,0.8736553738514582,1.0184294333060582,0.0,0.28712817281484604,-0.2927706303695838,-0.40989697476228076,1.1581275065739949,0.0
49.500,0.2596663385629654,0.24780819937586784,0.8741876184940338,1.0198050439357758,0.0,0.2923809438943863,-0.30145037919282913,-0.36296334862709045,1.1502641439437866,0.0
49.600,0.25940533230702084,0.2480896022170782,0.8747198631366094,1.0211806545654933,0.0,0.29763371497392654,-0.3101301280160745,-0.3160297224919001,1.1424007813135784,0.0
49.700,0.25914432605107623,0.24837100505828857,0.8752521077791849,1.0225562651952107,0.0,0.3028864860534668,-0.31880987683931983,-0.26909609635670984,1.1345374186833699,0.0
49.800,0.2588833197951317,0.24865240789949894,0.8757843524217606,1.0239318758249283,0.0,0.30813925713300705,-0.32748962566256523,-0.22216247022151947,1.1266740560531616,0.0
49.900,0.25862231353918713,0.2489338107407093,0.8763165970643362,1.0253074864546459,0.0,0.3133920282125473,-0.33616937448581063,-0.1752288440863291,1.1188106934229534,0.0
50.000,0.2583613072832425,0.24921521358191967,0.8768488417069117,1.0266830970843632,0.0,0.31864479929208755,-0.3448491233090559,-0.12829521795113885,1.1109473307927449,0.0
50.100,0.258100301027298,0.24949661642313004,0.8773810863494873,1.0280587077140808,0.0,0.3238975703716278,-0.35352887213230133,-0.08136159181594849,1.1030839681625366,0.0
50.200,0.2578392947713534,0.2497780192643404,0.8779133309920629,1.0294343183437984,0.0,0.32915034145116806,-0.3622086209555467,-0.03442796568075823,1.0952206055323284,0.0
50.300,0.2575782885154088,0.25005942210555077,0.8784455756346384,1.0308099289735158,0.0,0.3344031125307083,-0.3708883697787921,0.012505660454432244,1.0873572429021199,0.0
50.400,0.25731728225946426,0.25034082494676113,0.878977820277214,1.0321855396032333,0.0,0.33965588361024857,-0.37956811860203743,0.0594392865896225,1.0794938802719116,0.0
50.500,0.2570562760035197,0.2506222277879715,0.8795100649197897,1.033561150232951,0.0,0.3449086546897888,-0.3882478674252828,0.10637291272481275,1.0716305176417034,0.0
50.600,0.2567952697475751,0.25090363062918186,0.8800423095623652,1.0349367608626683,0.0,0.35016142576932907,-0.3969276162485282,0.15330653886000323,1.0637671550114949,0.0
50.700,0.25653426349163055,0.2511850334703922,0.8805745542049408,1.0363123714923859,0.0,0.3554141968488693,-0.40560736507177353,0.20024016499519348,1.0559037923812866,0.0
50.800,0.256273257235686,0.2514664363116026,0.8811067988475164,1.0376879821221034,0.0,0.3606669679284096,-0.4142871138950189,0.24717379113038374,1.0480404297510784,0.0
50.900,0.2560122509797414,0.25174783915281296,0.8816390434900919,1.0390635927518208,0.0,0.36591973900794983,-0.4229668627182643,0.2941074172655742,1.0401770671208699,0.0
51.000,0.25575124472379684,0.2520292419940233,0.8821712881326675,1.0404392033815384,0.0,0.3711725100874901,-0.43164661154150963,0.34104104340076447,1.0323137044906616,0.0
51.100,0.2554902384678523,0.2523106448352337,0.8827035327752432,1.041814814011256,0.0,0.37642528116703033,-0.440326360364755,0.3879746695359547,1.0244503418604534,0.0
51.200,0.2552292322119077,0.25259204767644405,0.8832357774178187,1.0431904246409733,0.0,0.3816780522465706,-0.4490061091880004,0.4349082956711452,1.0165869792302449,0.0
51.300,0.25496822595596313,0.2528734505176544,0.8837680220603943,1.044566035270691,0.0,0.38693082332611084,-0.4576858580112457,0.48184192180633545,1.0087236166000366,0.0
51.400,0.2680078049500783,0.2365935891866684,0.8751864234606425,1.0132232109705608,0.0,0.38866810997327167,-0.45771849155426025,0.4853843152523041,1.0055505633354187,0.0
51.500,0.28104738394419354,0.22031372785568237,0.8666048248608907,0.9818803866704305,0.0,0.39040539662043255,-0.4577511250972748,0.4889267086982727,1.0023775100708008,0.0
51.600,0.2940869629383087,0.20403386652469635,0.8580232262611389,0.9505375623703003,0.0,0.3921426832675934,-0.4577837586402893,0.49246910214424133,0.9992044568061829,0.0
51.700,0.2940869629383087,0.20403386652469635,0.8580232262611389,0.9505375623703003,0.0,0.3944070339202881,-0.47447167336940765,0.5061419159173965,0.9810255169868469,0.0
51.800,0.2940869629383087,0.20403386652469635,0.8580232262611389,0.9505375623703003,0.0,0.3966713845729828,-0.491159588098526,0.5198147296905518,0.962846577167511,0.0
51.900,0.2959549129009247,0.2000100016593933,0.8408334255218506,0.9201279282569885,0.0,0.4033762216567993,-0.4861406981945038,0.5101432204246521,0.9650285840034485,0.0
52.000,0.2963582191028093,0.19960293605139381,0.8406472723735007,0.9194629866825906,0.0,0.39762442676644577,-0.473885331842068,0.4629092545885789,0.9616066280164217,0.0
52.100,0.2967615253046939,0.19919587044339432,0.8404611192251507,0.9187980451081929,0.0,0.3918726318760922,-0.4616299654896322,0.41567528875250565,0.9581846720293948,0.0
52.200,0.2971648315065785,0.19878880483539482,0.8402749660768007,0.918133103533795,0.0,0.3861208369857387,-0.4493745991371964,0.36844132291643245,0.9547627160423681,0.0
52.300,0.2975681377084632,0.1983817392273953,0.8400888129284507,0.9174681619593972,0.0,0.3803690420953851,-0.4371192327847606,0.3212073570803592,0.9513407600553412,0.0
52.400,0.2979714439103478,0.1979746736193958,0.8399026597801008,0.9168032203849993,0.0,0.37461724720503153,-0.4248638664323248,0.273973391244286,0.9479188040683144,0.0
52.500,0.2983747501122324,0.1975676080113963,0.8397165066317508,0.9161382788106015,0.0,0.368865452314678,-0.41260850007988903,0.2267394254082128,0.9444968480812875,0.0
52.600,0.298778056314117,0.1971605424033968,0.8395303534834009,0.9154733372362036,0.0,0.36311365742432444,-0.4003531337274533,0.17950545957213954,0.9410748920942608,0.0
52.700,0.29918136251600164,0.19675347679539731,0.8393442003350509,0.9148083956618058,0.0,0.3573618625339709,-0.38809776737501744,0.13227149373606634,0.937652936107234,0.0
52.800,0.29958466871788625,0.19634641118739782,0.839158047186701,0.9141434540874079,0.0,0.35161006764361735,-0.3758424010225817,0.08503752789999314,0.9342309801202071,0.0
52.900,0.2999879749197709,0.1959393455793983,0.8389718940383509,0.9134785125130102,0.0,0.34585827275326375,-0.3635870346701459,0.03780356206391988,0.9308090241331803,0.0
53.000,0.30039128112165553,0.1955322799713988,0.838785740890001,0.9128135709386123,0.0,0.3401064778629102,-0.3513316683177101,-0.009430403772153428,0.9273870681461535,0.0
53.100,0.30079458732354014,0.1951252143633993,0.838599587741651,0.9121486293642145,0.0,0.33435468297255666,-0.33907630196527433,-0.05666436960822652,0.9239651121591267,0.0
53.200,0.30119789352542475,0.1947181487553998,0.8384134345933011,0.9114836877898166,0.0,0.3286028880822031,-0.32682093561283854,-0.10389833544429983,0.9205431561720998,0.0
53.300,0.30160119972730937,0.1943110831474003,0.8382272814449511,0.9108187462154188,0.0,0.32285109319184957,-0.31456556926040274,-0.15113230128037303,0.917121200185073,0.0
53.400,0.302004505929194,0.1939040175394008,0.8380411282966012,0.9101538046410209,0.0,0.31709929830149597,-0.30231020290796695,-0.19836626711644623,0.9136992441980463,0.0
53.500,0.30240781213107865,0.19349695193140132,0.8378549751482511,0.9094888630666231,0.0,0.3113475034111425,-0.29005483655553116,-0.24560023295251943,0.9102772882110194,0.0
53.600,0.30281111833296326,0.1930898863234018,0.8376688219999012,0.9088239214922252,0.0,0.3055957085207889,-0.27779947020309537,-0.29283419878859274,0.9068553322239926,0.0
53.700,0.30321442453484787,0.1926828207154023,0.8374826688515512,0.9081589799178275,0.0,0.29984391363043533,-0.2655441038506596,-0.3400681646246658,0.9034333762369657,0.0
53.800,0.3036177307367325,0.1922757551074028,0.8372965157032013,0.9074940383434296,0.0,0.2940921187400818,-0.2532887374982238,-0.38730213046073914,0.900011420249939,0.0
53.900,0.3040210369386171,0.1918686894994033,0.8371103625548514,0.9068290967690317,0.0,0.28834032384972824,-0.24103337114578802,-0.43453609629681234,0.8965894642629122,0.0
54.000,0.3044243431405017,0.1914616238914038,0.8369242094065014,0.9061641551946339,0.0,0.2825885289593747,-0.2287780047933522,-0.48177006213288565,0.8931675082758853,0.0
54.100,0.3048276493423863,0.19105455828340429,0.8367380562581515,0.905499213620236,0.0,0.2768367340690211,-0.2165226384409164,-0.529004027968959,0.8897455522888585,0.0
54.200,0.305230955544271,0.1906474926754048,0.8365519031098014,0.9048342720458382,0.0,0.2710849391786676,-0.2042672720884806,-0.5762379938050319,0.8863235963018317,0.0
54.300,0.3056342617461556,0.1902404270674053,0.8363657499614515,0.9041693304714403,0.0,0.265333144288314,-0.19201190573604487,-0.6234719596411051,0.8829016403148049,0.0
54.400,0.3060375679480402,0.1898333614594058,0.8361795968131015,0.9035043888970425,0.0,0.25958134939796046,-0.17975653938360903,-0.6707059254771786,0.879479684327778,0.0
54.500,0.3064408741499248,0.1894262958514063,0.8359934436647516,0.9028394473226447,0.0,0.2538295545076069,-0.16750117303117323,-0.7179398913132518,0.8760577283407512,0.0
54.600,0.30684418035180944,0.1890192302434068,0.8358072905164016,0.9021745057482469,0.0,0.24807775961725337,-0.1552458066787375,-0.765173857149325,0.8726357723537245,0.0
54.700,0.30724748655369405,0.1886121646354073,0.8356211373680517,0.901509564173849,0.0,0.2423259647268998,-0.1429904403263017,-0.8124078229853982,0.8692138163666976,0.0
54.800,0.3076507927555787,0.18820509902740779,0.8354349842197016,0.9008446225994512,0.0,0.23657416983654625,-0.13073507397386586,-0.8596417888214714,0.8657918603796708,0.0
54.900,0.30805409895746333,0.1877980334194083,0.8352488310713517,0.9001796810250533,0.0,0.23082237494619268,-0.11847970762143006,-0.9068757546575446,0.8623699043926439,0.0
55.000,0.30845740515934794,0.1873909678114088,0.8350626779230017,0.8995147394506555,0.0,0.22507058005583913,-0.10622434126899433,-0.9541097204936178,0.8589479484056172,0.0
55.100,0.30886071136123255,0.1869839022034093,0.8348765247746518,0.8988497978762576,0.0,0.21931878516548559,-0.09396897491655853,-1.001343686329691,0.8555259924185904,0.0
55.200,0.30926401756311717,0.1865768365954098,0.8346903716263018,0.8981848563018598,0.0,0.213566990275132,-0.08171360856412269,-1.0485776521657644,0.8521040364315635,0.0
55.300,0.3096673237650018,0.1861697709874103,0.8345042184779519,0.897519914727462,0.0,0.20781519538477847,-0.06945824221168695,-1.0958116180018376,0.8486820804445367,0.0
55.400,0.31007062996688645,0.1857627053794108,0.8343180653296018,0.8968549731530642,0.0,0.20206340049442492,-0.05720287585925116,-1.1430455838379106,0.8452601244575099,0.0
55.500,0.31047393616877106,0.18535563977141128,0.8341319121812519,0.8961900315786663,0.0,0.19631160560407138,-0.044947509506815364,-1.1902795496739837,0.8418381684704831,0.0
55.600,0.31087724237065567,0.1849485741634118,0.8339457590329019,0.8955250900042685,0.0,0.1905598107137178,-0.03269214315437957,-1.2375135155100572,0.8384162124834562,0.0
55.700,0.3112805485725403,0.1845415085554123,0.833759605884552,0.8948601484298706,0.0,0.18480801582336426,-0.02043677680194378,-1.2847474813461304,0.8349942564964294,0.0
55.800,0.31388892233371735,0.18705497878162483,0.8225817539189991,0.8951585904548043,0.0,0.190104614747198,-0.0321170249953866,-1.2386525038041567,0.8396966567164973,0.0
55.900,0.3164972960948944,0.1895684490078374,0.8114039019534462,0.895457032479738,0.0,0.19540121367103175,-0.04379727318882942,-1.192557526262183,0.8443990569365653,0.0
56.000,0.31910566985607147,0.19208191923404994,0.8002260499878934,0.8957554745046716,0.0,0.2006978125948655,-0.055477521382272243,-1.1464625487202091,0.8491014571566331,0.0
56.100,0.32171404361724854,0.1945953894602625,0.7890481980223405,0.8960539165296053,0.0,0.20599441151869924,-0.06715776957571507,-1.1003675711782355,0.853803857376701,0.0
56.200,0.3243224173784256,0.19710885968647504,0.7778703460567876,0.8963523585545389,0.0,0.21129101044253298,-0.07883801776915789,-1.0542725936362618,0.8585062575967688,0.0
56.300,0.32693079113960266,0.1996223299126876,0.7666924940912347,0.8966508005794726,0.0,0.21658760936636673,-0.09051826596260071,-1.0081776160942881,0.8632086578168368,0.0
56.400,0.3295391649007797,0.20213580013890015,0.7555146421256819,0.8969492426044062,0.0,0.22188420829020047,-0.10219851415604353,-0.9620826385523144,0.8679110580369046,0.0
56.500,0.3321475386619568,0.2046492703651127,0.744336790160129,0.8972476846293399,0.0,0.22718080721403422,-0.11387876234948635,-0.9159876610103407,0.8726134582569725,0.0
56.600,0.33475591242313385,0.20716274059132525,0.7331589381945761,0.8975461266542736,0.0,0.232477406137868,-0.12555901054292917,-0.8698926834683669,0.8773158584770403,0.0
56.700,0.3373642861843109,0.20967621081753782,0.7219810862290232,0.8978445686792073,0.0,0.2377740050617017,-0.137239258736372,-0.8237977059263932,0.8820182586971083,0.0
56.800,0.339972659945488,0.21218968104375036,0.7108032342634703,0.8981430107041409,0.0,0.24307060398553548,-0.14891950692981482,-0.7777027283844195,0.8867206589171761,0.0
56.900,0.34258103370666504,0.21470315126996292,0.6996253822979175,0.8984414527290746,0.0,0.2483672029093692,-0.16059975512325764,-0.7316077508424458,0.891423059137244,0.0
57.000,0.3451894074678421,0.21721662149617546,0.6884475303323645,0.8987398947540083,0.0,0.253663801833203,-0.17228000331670046,-0.685512773300472,0.8961254593573118,0.0
57.100,0.34779778122901917,0.219730091722388,0.6772696783668116,0.899038336778942,0.0,0.2589604007570367,-0.18396025151014328,-0.6394177957584983,0.9008278595773798,0.0
57.200,0.35040615499019623,0.22224356194860057,0.6660918264012587,0.8993367788038755,0.0,0.26425699968087046,-0.1956404997035861,-0.5933228182165247,0.9055302597974476,0.0
57.300,0.3530145287513733,0.22475703217481313,0.6549139744357059,0.8996352208288092,0.0,0.2695535986047042,-0.20732074789702892,-0.547227840674551,0.9102326600175155,0.0
57.400,0.35562290251255035,0.22727050240102567,0.643736122470153,0.8999336628537429,0.0,0.27485019752853795,-0.21900099609047174,-0.5011328631325772,0.9149350602375834,0.0
57.500,0.3582312762737274,0.2297839726272382,0.6325582705046001,0.9002321048786766,0.0,0.2801467964523717,-0.23068124428391457,-0.45503788559060354,0.9196374604576513,0.0
57.600,0.3608396500349045,0.23229744285345078,0.6213804185390472,0.9005305469036102,0.0,0.28544339537620544,-0.2423614924773574,-0.40894290804862976,0.9243398606777191,0.0
57.700,0.36344802379608154,0.2348109130796633,0.6102025665734944,0.9008289889285439,0.0,0.29073999430003916,-0.2540417406708002,-0.3628479305066561,0.929042260897787,0.0
57.800,0.3660563975572586,0.23732438330587588,0.5990247146079415,0.9011274309534776,0.0,0.29603659322387293,-0.26572198886424303,-0.3167529529646822,0.9337446611178549,0.0
57.900,0.36866477131843567,0.23983785353208842,0.5878468626423886,0.9014258729784113,0.0,0.3013331921477067,-0.27740223705768585,-0.27065797542270853,0.9384470613379228,0.0
58.000,0.37127314507961273,0.24235132375830098,0.5766690106768357,0.9017243150033449,0.0,0.3066297910715404,-0.2890824852511287,-0.22456299788073486,0.9431494615579906,0.0
58.100,0.3738815188407898,0.24486479398451352,0.5654911587112829,0.9020227570282785,0.0,0.31192638999537414,-0.3007627334445715,-0.1784680203387612,0.9478518617780585,0.0
