maximpopov11/Real-Steel/ros_ws/goodwordisaac.csv
timestamp,left_shoulder_pitch_joint,left_shoulder_roll_joint,left_shoulder_yaw_joint,left_elbow_joint,left_wrist_roll_joint,left_wrist_pitch_joint,right_shoulder_pitch_joint,right_shoulder_roll_joint,right_shoulder_yaw_joint,right_elbow_joint,right_wrist_roll_joint,right_wrist_pitch_joint
0.000,1.1729857921600342,0.5228246450424194,1.0213507413864136,0.4560348391532898,0.0,0.0,1.1509528160095215,-0.566451370716095,-0.9539310336112976,-0.2520909309387207,0.0,0.0
0.100,1.2349470853805542,0.5719593167304993,0.8811007738113403,0.4756185710430145,0.0,0.0,1.1046515703201294,-0.6233247518539429,-0.9292616844177246,-0.2739746868610382,0.0,0.0
0.200,1.1680868864059448,0.5319356024265289,1.0033495426177979,0.4586923122406006,0.0,0.0,1.0908242464065552,-0.6412542164325714,-0.9222150444984436,-0.2822558581829071,0.0,0.0
0.300,1.1012266874313354,0.4919118881225586,1.1255983114242554,0.44176605343818665,0.0,0.0,1.076996922492981,-0.6591836810112,-0.9151684045791626,-0.290537029504776,0.0,0.0
0.400,1.1034984588623047,0.4946252703666687,1.1131707429885864,0.44666096568107605,0.0,0.0,1.0579804182052612,-0.6800186634063721,-0.9051316380500793,-0.2925666868686676,0.0,0.0
0.500,1.0561007261276245,0.4716242551803589,1.1880470514297485,0.4241003692150116,0.0,0.0,1.0400710105895996,-0.7030486464500427,-0.896297812461853,-0.30229172110557556,0.0,0.0
0.600,1.1487192312876384,0.5465555191040039,0.9894986152648926,0.4236500064531962,0.0,0.0,1.0350704193115234,-0.7081800699234009,-0.8936091661453247,-0.3021186689535777,0.0,0.0
0.700,1.241337736447652,0.6214867830276489,0.7909501791000366,0.4231996436913808,0.0,0.0,1.0300698280334473,-0.713311493396759,-0.8909205198287964,-0.3019456168015798,0.0,0.0
0.800,1.333956241607666,0.696418046951294,0.5924017429351807,0.42274928092956543,0.0,0.0,1.025069236755371,-0.7184429168701172,-0.8882318735122681,-0.3017725646495819,0.0,0.0
0.900,1.240647832552592,0.6196787655353546,0.7885398070017496,0.42288604378700256,0.0,0.0,1.0307447512944539,-0.7139651775360107,-0.8915438850720724,-0.30494088927904767,0.0,0.0
1.000,1.1473394234975178,0.5429394841194153,0.9846778710683186,0.4230228066444397,0.0,0.0,1.0364202658335369,-0.7094874382019043,-0.8948558966318766,-0.30810921390851337,0.0,0.0
1.100,1.0540310144424438,0.46620020270347595,1.1808159351348877,0.42315956950187683,0.0,0.0,1.0420957803726196,-0.7050096988677979,-0.8981679081916809,-0.3112775385379791,0.0,0.0
1.200,1.0964925289154053,0.4815177321434021,1.1112556457519531,0.4397904574871063,0.0,0.0,1.039110779762268,-0.708109974861145,-0.8965803384780884,-0.3112001419067383,0.0,0.0
1.300,1.0588533878326416,0.45518526434898376,1.181918978691101,0.4110426604747772,0.0,0.0,1.0567569732666016,-0.694331705570221,-0.9085537195205688,-0.31360337138175964,0.0,0.0
1.400,1.035013198852539,0.43612009286880493,1.2090212106704712,0.36689433455467224,0.0,0.0,1.0559096336364746,-0.6945591568946838,-0.9062900543212891,-0.32033056020736694,0.0,0.0
1.500,1.0339092016220093,0.4440179169178009,1.2131839990615845,0.3930571377277374,0.0,0.0,1.0646291971206665,-0.6900166273117065,-0.913520097732544,-0.32250508666038513,0.0,0.0
1.600,1.1083640456199646,0.5068200305104256,1.0558588951826096,0.3951118737459183,0.0,0.0,1.0624461472034454,-0.6923542320728302,-0.9123858064413071,-0.32252855598926544,0.0,0.0
1.700,1.18281888961792,0.5696221441030502,0.8985337913036346,0.3971666097640991,0.0,0.0,1.0602630972862244,-0.6946918368339539,-0.9112515151500702,-0.32255202531814575,0.0,0.0
1.800,1.2572737336158752,0.6324242576956749,0.7412086874246597,0.39922134578227997,0.0,0.0,1.0580800473690033,-0.6970294415950775,-0.9101172238588333,-0.32257549464702606,0.0,0.0
1.900,1.3317285776138306,0.6952263712882996,0.5838835835456848,0.4012760818004608,0.0,0.0,1.0558969974517822,-0.6993670463562012,-0.9089829325675964,-0.32259896397590637,0.0,0.0
2.000,1.3307291269302368,0.7030001878738403,0.581570565700531,0.38936617970466614,0.0,0.0,1.0608500242233276,-0.6982231140136719,-0.9125000238418579,-0.3315082788467407,0.0,0.0
2.100,1.3373539447784424,0.7066723108291626,0.5819905996322632,0.3706347346305847,0.0,0.0,1.0549176931381226,-0.7045339941978455,-0.909424364566803,-0.33142656087875366,0.0,0.0
2.200,1.3373539447784424,0.7066723108291626,0.5819905996322632,0.3706347346305847,0.0,0.0,1.0725150108337402,-0.6904594302177429,-0.9212630391120911,-0.33362576365470886,0.0,0.0
2.300,1.3485723733901978,0.7093263864517212,0.5803784132003784,0.3350556790828705,0.0,0.0,1.0754328966140747,-0.6921228766441345,-0.9255425930023193,-0.3357989192008972,0.0,0.0
2.400,1.3458209037780762,0.7034083604812622,0.5839552283287048,0.3584769666194916,0.0,0.0,1.0812301635742188,-0.6906228065490723,-0.9312947988510132,-0.337859183549881,0.0,0.0
2.500,1.3485705852508545,0.7005903720855713,0.5887138247489929,0.36916643381118774,0.0,0.0,1.0898499488830566,-0.6859464645385742,-0.9384562969207764,-0.3397285044193268,0.0,0.0
2.600,1.3425426483154297,0.6980765461921692,0.5875290632247925,0.38306277990341187,0.0,0.0,1.0899302959442139,-0.6907472014427185,-0.9413644075393677,-0.3419395983219147,0.0,0.0
2.700,1.3502817153930664,0.6936997175216675,0.5901510119438171,0.37589240074157715,0.0,0.0,1.0927715301513672,-0.6875763535499573,-0.9427747130393982,-0.3418080806732178,0.0,0.0
2.800,1.3449710607528687,0.6956053376197815,0.59220951795578,0.3944380283355713,0.0,0.0,1.1013178825378418,-0.6828625202178955,-0.9498764276504517,-0.34351062774658203,0.0,0.0
2.900,1.3523430824279785,0.6968164443969727,0.5880298018455505,0.36096280813217163,0.0,0.0,1.0920109748840332,-0.6926830410957336,-0.9435994625091553,-0.35076186060905457,0.0,0.0
3.000,1.357919454574585,0.6964418292045593,0.5851730108261108,0.33840981125831604,0.0,0.0,1.0891249179840088,-0.6958922147750854,-0.942172110080719,-0.3508351147174835,0.0,0.0
3.100,1.3599835634231567,0.7029466032981873,0.5871956944465637,0.33319470286369324,0.0,0.0,1.0803455114364624,-0.7055535912513733,-0.9378001093864441,-0.35088470578193665,0.0,0.0
3.200,1.3620290756225586,0.7079085111618042,0.5844271779060364,0.31487777829170227,0.0,0.0,1.0662267208099365,-0.7262448072433472,-0.9352766871452332,-0.3457051217556,0.0,0.0
3.300,1.3625555435816448,0.7097389698028564,0.5835058490435282,0.30911006530125934,0.0,0.0,0.8796820665399234,-0.6728625446557999,-1.0396527548631032,-0.37981243431568146,0.0,0.0
3.400,1.3630820115407307,0.7115694284439087,0.5825845201810201,0.30334235231081647,0.0,0.0,0.6931374122699102,-0.6194802820682526,-1.1440288225809734,-0.41391974687576294,0.0,0.0
3.500,1.363608479499817,0.7133998870849609,0.581663191318512,0.29757463932037354,0.0,0.0,0.506592757999897,-0.5660980194807053,-1.2484048902988434,-0.4480270594358444,0.0,0.0
3.600,1.364134947458903,0.7152303457260132,0.5807418624560038,0.2918069263299306,0.0,0.0,0.3200481037298839,-0.512715756893158,-1.3527809580167134,-0.4821343719959259,0.0,0.0
3.700,1.364661415417989,0.7170608043670654,0.5798205335934957,0.28603921333948773,0.0,0.0,0.13350344945987058,-0.45933349430561066,-1.4571570257345836,-0.5162416845560074,0.0,0.0
3.800,1.3651878833770752,0.7188912630081177,0.5788992047309875,0.2802715003490448,0.0,0.0,-0.05304120481014252,-0.40595123171806335,-1.5615330934524536,-0.5503489971160889,0.0,0.0
3.900,1.3645285765329997,0.7192355295022329,0.579145203034083,0.282272865374883,0.0,0.0,0.13332290699084598,-0.45942029853661853,-1.4567910432815552,-0.5173251032829285,0.0,0.0
4.000,1.363869269688924,0.719579795996348,0.5793912013371786,0.28427423040072125,0.0,0.0,0.3196870187918345,-0.5128893653551737,-1.3520489931106567,-0.48430120944976807,0.0,0.0
4.100,1.3632099628448486,0.7199240624904633,0.579637199640274,0.28627559542655945,0.0,0.0,0.506051130592823,-0.5663584321737289,-1.2473069429397583,-0.45127731561660767,0.0,0.0
4.200,1.3625506560007732,0.7202683289845785,0.5798831979433695,0.28827696045239765,0.0,0.0,0.6924152423938115,-0.6198274989922841,-1.1425648927688599,-0.41825342178344727,0.0,0.0
4.300,1.3618913491566975,0.7206125954786936,0.5801291962464651,0.2902783254782359,0.0,0.0,0.8787793541948001,-0.6732965658108394,-1.0378228425979614,-0.38522952795028687,0.0,0.0
4.400,1.361232042312622,0.7209568619728088,0.5803751945495605,0.2922796905040741,0.0,0.0,1.0651434659957886,-0.7267656326293945,-0.933080792427063,-0.35220563411712646,0.0,0.0
4.500,1.3612878918647766,0.7211955189704895,0.580261101325353,0.2915793259938558,0.0,0.0,0.8796027557303508,-0.6721063206593195,-1.0383028984069824,-0.38776302337646484,0.0,0.0
4.600,1.3613437414169312,0.7214341759681702,0.5801470081011454,0.2908789614836375,0.0,0.0,0.6940620454649131,-0.6174470086892446,-1.1435250043869019,-0.4233204126358032,0.0,0.0
4.700,1.3613995909690857,0.7216728329658508,0.5800329148769379,0.2901785969734192,0.0,0.0,0.5085213351994753,-0.5627876967191696,-1.2487471103668213,-0.4588778018951416,0.0,0.0
4.800,1.3614554405212402,0.7219114899635315,0.5799188216527303,0.28947823246320087,0.0,0.0,0.32298062493403756,-0.5081283847490947,-1.3539692163467407,-0.49443519115448,0.0,0.0
4.900,1.3615112900733948,0.7221501469612122,0.5798047284285227,0.2887778679529826,0.0,0.0,0.13743991466859973,-0.45346907277901966,-1.4591913223266602,-0.5299925804138184,0.0,0.0
5.000,1.3615671396255493,0.7223888039588928,0.5796906352043152,0.2880775034427643,0.0,0.0,-0.048100795596838,-0.3988097608089447,-1.5644134283065796,-0.5655499696731567,0.0,0.0
5.100,1.361452301343282,0.7219150165716807,0.5799188514550527,0.28948497772216797,0.0,0.0,0.13979741744697094,-0.45083254079024,-1.4601054787635803,-0.5311976969242096,0.0,0.0
5.200,1.3613374630610149,0.7214412291844686,0.5801470677057902,0.29089245200157166,0.0,0.0,0.3276956304907799,-0.5028553207715353,-1.355797529220581,-0.49684542417526245,0.0,0.0
5.300,1.3612226247787476,0.7209674417972565,0.5803752839565277,0.29229992628097534,0.0,0.0,0.5155938435345888,-0.5548781007528305,-1.2514895796775818,-0.4624931514263153,0.0,0.0
5.400,1.3611077864964802,0.7204936544100443,0.5806035002072653,0.29370740056037903,0.0,0.0,0.7034920565783978,-0.6069008807341257,-1.1471816301345825,-0.42814087867736816,0.0,0.0
5.500,1.3609929482142131,0.7200198670228323,0.5808317164580027,0.2951148748397827,0.0,0.0,0.8913902696222067,-0.6589236607154211,-1.0428736805915833,-0.393788605928421,0.0,0.0
5.600,1.3608781099319458,0.7195460796356201,0.5810599327087402,0.2965223491191864,0.0,0.0,1.0792884826660156,-0.7109464406967163,-0.938565731048584,-0.3594363331794739,0.0,0.0
5.700,1.36293363571167,0.7105237245559692,0.5830438137054443,0.3059777319431305,0.0,0.0,1.0791844129562378,-0.7159351706504822,-0.9415199160575867,-0.36130252480506897,0.0,0.0
5.800,1.3641927242279053,0.700491726398468,0.5857505798339844,0.32058194279670715,0.0,0.0,1.0761501789093018,-0.7192181944847107,-0.9400016069412231,-0.361172616481781,0.0,0.0
5.900,1.3648824294408162,0.7000943819681803,0.5855027635892233,0.3185063650210698,0.0,0.0,0.8888545160492262,-0.6667321721712748,-1.0438703894615173,-0.3972119291623433,0.0,0.0
6.000,1.3655721346537273,0.6996970375378927,0.585254947344462,0.31643078724543255,0.0,0.0,0.7015588531891506,-0.614246149857839,-1.1477391719818115,-0.43325124184290564,0.0,0.0
6.100,1.3662618398666382,0.699299693107605,0.5850071310997009,0.3143552094697952,0.0,0.0,0.5142631903290749,-0.5617601275444031,-1.2516079545021057,-0.469290554523468,0.0,0.0
6.200,1.366951545079549,0.6989023486773173,0.5847593148549398,0.3122796316941579,0.0,0.0,0.32696752746899926,-0.5092741052309673,-1.3554767370224,-0.5053298672040303,0.0,0.0
6.300,1.3676412502924602,0.6985050042470297,0.5845114986101786,0.31020405391852063,0.0,0.0,0.13967186460892356,-0.4567880829175313,-1.459345519542694,-0.5413691798845928,0.0,0.0
6.400,1.368330955505371,0.6981076598167419,0.5842636823654175,0.3081284761428833,0.0,0.0,-0.04762379825115204,-0.40430206060409546,-1.5632143020629883,-0.577408492565155,0.0,0.0
6.500,1.3692827224731445,0.7006990313529968,0.5828536748886108,0.2991446852684021,0.0,0.0,-0.07055240869522095,-0.40790069103240967,-1.5450023412704468,-0.5782354474067688,0.0,0.0
6.600,1.3692827224731445,0.7006990313529968,0.5828536748886108,0.2991446852684021,0.0,0.0,-0.07951191067695618,-0.4166771471500397,-1.5365395545959473,-0.5815785527229309,0.0,0.0
6.700,1.3656727075576782,0.704296350479126,0.5836546421051025,0.3069770634174347,0.0,0.0,-0.07452379912137985,-0.41815483570098877,-1.53901207447052,-0.5914942622184753,0.0,0.0
6.800,1.367375373840332,0.709679365158081,0.5808640718460083,0.2894280254840851,0.0,0.0,-0.10207023471593857,-0.41283562779426575,-1.5166759490966797,-0.5958760976791382,0.0,0.0
6.900,1.3648593425750732,0.7174432277679443,0.579589307308197,0.2844545543193817,0.0,0.0,-0.11558470129966736,-0.413004070520401,-1.504197597503662,-0.6032270789146423,0.0,0.0
7.000,1.364146113395691,0.7146108150482178,0.5809703469276428,0.2929411828517914,0.0,0.0,-0.09704774618148804,-0.41450783610343933,-1.5188466310501099,-0.6059191823005676,0.0,0.0
7.100,1.3687694072723389,0.7150911688804626,0.5838196277618408,0.2892093062400818,0.0,0.0,-0.10604625940322876,-0.41035598516464233,-1.5108338594436646,-0.6120816469192505,0.0,0.0
7.200,1.3733934164047241,0.7158905863761902,0.5809764862060547,0.26882195472717285,0.0,0.0,-0.11981070786714554,-0.4139844477176666,-1.4987906217575073,-0.6118260025978088,0.0,0.0
7.300,1.3769391775131226,0.7124155759811401,0.5801310539245605,0.2611522972583771,0.0,0.0,-0.11490976810455322,-0.42416319251060486,-1.5004901885986328,-0.6163672208786011,0.0,0.0
7.400,1.385878086090088,0.7140461802482605,0.5801467299461365,0.23775514960289001,0.0,0.0,-0.12407765537500381,-0.42820435762405396,-1.4919296503067017,-0.6166012287139893,0.0,0.0
7.500,1.383280634880066,0.7238529324531555,0.578363835811615,0.22958144545555115,0.0,0.0,-0.15186266601085663,-0.43504226207733154,-1.4671366214752197,-0.6144123077392578,0.0,0.0
7.600,1.383758306503296,0.7288609147071838,0.5763656497001648,0.21818611025810242,0.0,0.0,-0.1515066772699356,-0.4317775368690491,-1.4661338329315186,-0.6218311786651611,0.0,0.0
7.700,1.3771100044250488,0.7406134009361267,0.5761504769325256,0.22208742797374725,0.0,0.0,-0.1701665222644806,-0.4343681335449219,-1.4499139785766602,-0.6189335584640503,0.0,0.0
7.800,1.3737339973449707,0.7473763227462769,0.5756933689117432,0.2223718762397766,0.0,0.0,-0.14673075079917908,-0.4373387098312378,-1.4686671495437622,-0.6245821118354797,0.0,0.0
7.900,1.3655574321746826,0.7518653273582458,0.5727245807647705,0.22999298572540283,0.0,0.0,-0.1606868952512741,-0.44062477350234985,-1.4560205936431885,-0.6229641437530518,0.0,0.0
8.000,1.3702027797698975,0.7632663249969482,0.5719930529594421,0.20549044013023376,0.0,0.0,-0.16499678790569305,-0.4368079900741577,-1.4511398077011108,-0.6291947364807129,0.0,0.0
8.100,1.3741116523742676,0.7773277163505554,0.5708190202713013,0.17910738289356232,0.0,0.0,-0.17860500514507294,-0.4367341101169586,-1.4372152090072632,-0.634431779384613,0.0,0.0
8.200,1.3730435371398926,0.7875128984451294,0.5676520466804504,0.16380120813846588,0.0,0.0,-0.18514330685138702,-0.43569415807724,-1.429181456565857,-0.6320871114730835,0.0,0.0
8.300,1.38356614112854,0.7906798124313354,0.5668649077415466,0.13400524854660034,0.0,0.0,-0.2148526906967163,-0.43253323435783386,-1.3862870931625366,-0.6276134848594666,0.0,0.0
8.400,1.3882209062576294,0.8087829351425171,0.564013659954071,0.09912193566560745,0.0,0.0,-0.2234327793121338,-0.4277823567390442,-1.3730018138885498,-0.6302434802055359,0.0,0.0
8.500,1.3930163383483887,0.8093510866165161,0.5677109956741333,0.09570188075304031,0.0,0.0,-0.22694702446460724,-0.4322855770587921,-1.3674832582473755,-0.6301138401031494,0.0,0.0
8.600,1.3935604095458984,0.8086165274892535,0.5676609873771667,0.09505065317664828,0.0,0.0,-0.039630034140178155,-0.5159100379262651,-1.2948330215045385,-0.5950489299637931,0.0,0.0
8.700,1.3941044807434082,0.8078819683619908,0.5676109790802002,0.09439942560025624,0.0,0.0,0.14768695618425093,-0.5995344987937382,-1.2221827847617013,-0.5599840198244368,0.0,0.0
8.800,1.394648551940918,0.8071474092347282,0.5675609707832336,0.09374819802386421,0.0,0.0,0.33500394650868004,-0.6831589596612113,-1.1495325480188643,-0.5249191096850804,0.0,0.0
8.900,1.3951926231384277,0.8064128501074654,0.5675109624862671,0.09309697044747216,0.0,0.0,0.5223209368331091,-0.7667834205286843,-1.076882311276027,-0.48985419954572407,0.0,0.0
9.000,1.3957366943359375,0.8056782909802028,0.5674609541893005,0.09244574287108012,0.0,0.0,0.7096379271575383,-0.8504078813961574,-1.00423207453319,-0.4547892894063677,0.0,0.0
9.100,1.3962807655334473,0.8049437318529401,0.567410945892334,0.09179451529468809,0.0,0.0,0.8969549174819673,-0.9340323422636304,-0.931581837790353,-0.4197243792670114,0.0,0.0
9.200,1.396824836730957,0.8042091727256775,0.5673609375953674,0.09114328771829605,0.0,0.0,1.0842719078063965,-1.0176568031311035,-0.8589316010475159,-0.38465946912765503,0.0,0.0
9.300,1.4072461128234863,0.7880436778068542,0.5735317468643188,0.09660423547029495,0.0,0.0,1.0972594022750854,-0.9995870590209961,-0.8693940043449402,-0.3920592963695526,0.0,0.0
9.400,1.4095598459243774,0.7847541570663452,0.5797827243804932,0.10874826461076736,0.0,0.0,1.1067365407943726,-0.9860415458679199,-0.8769353032112122,-0.3973136246204376,0.0,0.0
9.500,1.410335898399353,0.778211236000061,0.5814550518989563,0.11741439253091812,0.0,0.0,1.1004432439804077,-0.9950711131095886,-0.8719361424446106,-0.39383894205093384,0.0,0.0
9.600,1.4150233268737793,0.7787055969238281,0.5849785804748535,0.11407347023487091,0.0,0.0,1.0937896966934204,-1.009814977645874,-0.870346188545227,-0.38990309834480286,0.0,0.0
9.700,1.4145339727401733,0.7830551266670227,0.5838960409164429,0.10826770216226578,0.0,0.0,1.0970176458358765,-1.0052932500839233,-0.8729364275932312,-0.3917408585548401,0.0,0.0
9.800,1.418688416481018,0.7879670262336731,0.5864151120185852,0.0992807000875473,0.0,0.0,1.093515396118164,-1.0155361890792847,-0.8738716840744019,-0.38948750495910645,0.0,0.0
9.900,1.410712718963623,0.802809476852417,0.5861569046974182,0.10264016687870026,0.0,0.0,1.1061409711837769,-1.003143072128296,-0.8877385854721069,-0.3964264988899231,0.0,0.0
10.000,1.408571720123291,0.796859085559845,0.5891292095184326,0.12097910046577454,0.0,0.0,1.1155656576156616,-0.9895578622817993,-0.8951870203018188,-0.4016968309879303,0.0,0.0
10.100,1.4031778573989868,0.8131532669067383,0.586828887462616,0.11181515455245972,0.0,0.0,1.1074016094207764,-1.007216215133667,-0.891282856464386,-0.4024317264556885,0.0,0.0
10.200,1.4058505296707153,0.8077132701873779,0.5933780670166016,0.12678538262844086,0.0,0.0,1.1074016094207764,-1.007216215133667,-0.891282856464386,-0.4024317264556885,0.0,0.0
10.300,1.4006630182266235,0.8217760920524597,0.591615617275238,0.12061239033937454,0.0,0.0,1.0891821384429932,-1.0329934358596802,-0.8754771947860718,-0.397333562374115,0.0,0.0
10.400,1.4010519981384277,0.8351563811302185,0.5872243642807007,0.0955405905842781,0.0,0.0,1.0592957735061646,-1.072731852531433,-0.8497001528739929,-0.38452672958374023,0.0,0.0
10.500,1.4083020687103271,0.8377376198768616,0.5892623662948608,0.08026515692472458,0.0,0.0,1.037219524383545,-1.1002355813980103,-0.8309249877929688,-0.3704882264137268,0.0,0.0
10.600,1.4127111434936523,0.8301127552986145,0.5894366502761841,0.07780670374631882,0.0,0.0,1.0460331439971924,-1.089758038520813,-0.8373571634292603,-0.38159647583961487,0.0,0.0
10.700,1.4127111434936523,0.8301127552986145,0.5894366502761841,0.07780670374631882,0.0,0.0,1.0347765684127808,-1.1035521030426025,-0.8277022838592529,-0.37436074018478394,0.0,0.0
10.800,1.4157435894012451,0.8135857582092285,0.5929076671600342,0.09539775550365448,0.0,0.0,1.0416291952133179,-1.1002179384231567,-0.8374003767967224,-0.37812376022338867,0.0,0.0
10.900,1.417731761932373,0.8000591397285461,0.5958574414253235,0.111649289727211,0.0,0.0,1.0302348136901855,-1.1140296459197998,-0.8275325894355774,-0.37071672081947327,0.0,0.0
11.000,1.4174809455871582,0.8201093673706055,0.5900651812553406,0.07796494662761688,0.0,0.0,1.010682225227356,-1.1370598077774048,-0.8102389574050903,-0.3578239977359772,0.0,0.0
11.100,1.4150785207748413,0.8322312235832214,0.5875802040100098,0.06587572395801544,0.0,0.0,0.9736636281013489,-1.178600549697876,-0.776197075843811,-0.33290231227874756,0.0,0.0
11.200,1.3614572286605835,0.7843058705329895,0.6611857414245605,0.036825794726610184,0.0,0.0,0.9791409969329834,-1.172911524772644,-0.7803398370742798,-0.3420213758945465,0.0,0.0
11.300,1.35900217294693,0.7997774481773376,0.6587718725204468,0.013574841897934675,0.0,0.0,0.8261371850967407,-1.0899004936218262,-0.8009983897209167,-0.35597269237041473,0.0,0.0
11.400,1.3565471172332764,0.8152490258216858,0.656358003616333,-0.009676110930740833,0.0,0.0,0.673133373260498,-1.0068894624710083,-0.8216569423675537,-0.36992400884628296,0.0,0.0
11.500,1.3528598546981812,0.8227870464324951,0.6549916863441467,-0.014774556271731853,0.0,0.0,0.6591621041297913,-1.0158714056015015,-0.8078653812408447,-0.36710280179977417,0.0,0.0
11.600,1.3722738027572632,0.7959811687469482,0.6622931957244873,-0.0069009349681437016,0.0,0.0,0.6611831188201904,-1.0135998725891113,-0.8069494366645813,-0.3793577551841736,0.0,0.0
11.700,1.3722738027572632,0.7959811687469482,0.6622931957244873,-0.0069009349681437016,0.0,0.0,0.6681550741195679,-1.0079659223556519,-0.8104356527328491,-0.3945681154727936,0.0,0.0
11.800,1.3701037168502808,0.8008610010147095,0.6614625453948975,-0.010703724808990955,0.0,0.0,0.6435732245445251,-1.0239460468292236,-0.7870739102363586,-0.3851378858089447,0.0,0.0
11.900,1.3722738027572632,0.7959811687469482,0.6622931957244873,-0.0069009349681437016,0.0,0.0,0.6640275716781616,-1.0103092193603516,-0.805403470993042,-0.3975811004638672,0.0,0.0
12.000,1.3599324226379395,0.8184390068054199,0.6598724722862244,-0.014465528540313244,0.0,0.0,0.6496052742004395,-1.0195181369781494,-0.791144073009491,-0.3943077623844147,0.0,0.0
12.100,1.3407505750656128,0.8518718481063843,0.6552259922027588,-0.026047490537166595,0.0,0.0,0.6288489103317261,-1.0330685377120972,-0.7723845839500427,-0.38153135776519775,0.0,0.0
12.200,1.325282096862793,0.8756215572357178,0.6519014239311218,-0.029255883768200874,0.0,0.0,0.6023586988449097,-1.0497629642486572,-0.7481183409690857,-0.36497172713279724,0.0,0.0
12.300,1.3203728199005127,0.8837472200393677,0.6502460241317749,-0.0326567217707634,0.0,0.0,0.5852159261703491,-1.057050108909607,-0.7285110354423523,-0.3537823259830475,0.0,0.0
12.400,1.3267688751220703,0.8818221092224121,0.6551489233970642,-0.034551311284303665,0.0,0.0,0.5743064880371094,-1.0635757446289062,-0.7183502912521362,-0.34682172536849976,0.0,0.0
12.500,1.3144633769989014,0.9044138789176941,0.6493386626243591,-0.050562284886837006,0.0,0.0,0.564089834690094,-1.0691817998886108,-0.7074187994003296,-0.34568992257118225,0.0,0.0
12.600,1.3164451122283936,0.9151304364204407,0.6495205760002136,-0.07151514291763306,0.0,0.0,0.5914502143859863,-1.0528550148010254,-0.7329191565513611,-0.36317524313926697,0.0,0.0
12.700,1.324522852897644,0.9138243198394775,0.6534561514854431,-0.08136976510286331,0.0,0.0,0.6030129194259644,-1.0453258752822876,-0.7422145009040833,-0.37592583894729614,0.0,0.0
12.800,1.3096668720245361,0.9383389949798584,0.6471700668334961,-0.09383567422628403,0.0,0.0,0.5991456508636475,-1.046873688697815,-0.7359086275100708,-0.38433027267456055,0.0,0.0
12.900,1.1263652739248107,0.865309055362429,0.7857683045523507,-0.12681550426142557,0.0,0.0,0.5938490033149719,-1.0499355282102312,-0.7305956142289298,-0.38248613476753235,0.0,0.0
13.000,0.943063675825085,0.7922791157449995,0.9243665422712053,-0.15979533429656712,0.0,0.0,0.5885523557662964,-1.0529973677226476,-0.7252826009477887,-0.38064199686050415,0.0,0.0
13.100,0.7597620777253594,0.71924917612757,1.06296477999006,-0.19277516433170863,0.0,0.0,0.5832557082176208,-1.0560592072350639,-0.7199695876666478,-0.37879785895347595,0.0,0.0
13.200,0.5764604796256338,0.6462192365101406,1.2015630177089145,-0.22575499436685018,0.0,0.0,0.5779590606689453,-1.05912104674748,-0.7146565743855068,-0.37695372104644775,0.0,0.0
13.300,0.39315888152590817,0.573189296892711,1.3401612554277693,-0.2587348244019917,0.0,0.0,0.5726624131202698,-1.0621828862598963,-0.7093435611043658,-0.37510958313941956,0.0,0.0
13.400,0.2098572834261827,0.5001593572752816,1.4787594931466237,-0.29171465443713324,0.0,0.0,0.5673657655715942,-1.0652447257723128,-0.7040305478232247,-0.37326544523239136,0.0,0.0
13.500,0.026555685326457024,0.4271294176578522,1.6173577308654785,-0.3246944844722748,0.0,0.0,0.5620691180229187,-1.068306565284729,-0.6987175345420837,-0.37142130732536316,0.0,0.0
13.600,0.01718761771917343,0.4306347668170929,1.6128007173538208,-0.32831883430480957,0.0,0.0,0.5246797204017639,-1.091327428817749,-0.6631582379341125,-0.3637222945690155,0.0,0.0
13.700,0.0076788561418652534,0.43065860867500305,1.6081606149673462,-0.3290252983570099,0.0,0.0,0.4598211944103241,-1.1243449449539185,-0.5979816913604736,-0.3317609429359436,0.0,0.0
13.800,-0.006586750037968159,0.4306200444698334,1.60118567943573,-0.32981517910957336,0.0,0.0,0.43532800674438477,-1.1319842338562012,-0.5665224194526672,-0.33104944229125977,0.0,0.0
13.900,-0.0254829004406929,0.4339165985584259,1.5916180610656738,-0.33308812975883484,0.0,0.0,0.3707410395145416,-1.1603206396102905,-0.5017279982566833,-0.29351547360420227,0.0,0.0
14.000,-0.030130479484796524,0.42965221405029297,1.5891412496566772,-0.3411463797092438,0.0,0.0,0.364050030708313,-1.1630909442901611,-0.49510690569877625,-0.28908270597457886,0.0,0.0
14.100,-0.058672331273555756,0.4290257394313812,1.5749648809432983,-0.34065547585487366,0.0,0.0,0.3574918508529663,-1.165352702140808,-0.48738187551498413,-0.29008808732032776,0.0,0.0
14.200,0.09134774655103683,0.4327024221420288,1.470033049583435,-0.3423656225204468,0.0,0.0,0.3644046187400818,-1.16209077835083,-0.49296271800994873,-0.300027459859848,0.0,0.0
14.300,0.07778500765562057,0.4307418167591095,1.4530649185180664,-0.34865498542785645,0.0,0.0,0.3844898045063019,-1.1532278060913086,-0.5115695595741272,-0.31869497895240784,0.0,0.0
14.400,0.05550755187869072,0.4343077540397644,1.4259132146835327,-0.3444419503211975,0.0,0.0,0.3779374957084656,-1.1555877923965454,-0.5038766264915466,-0.3197021186351776,0.0,0.0
14.500,0.0362204872071743,0.43342530727386475,1.4019142389297485,-0.34698590636253357,0.0,0.0,0.37125056982040405,-1.1579657793045044,-0.49608996510505676,-0.3206147849559784,0.0,0.0
14.600,0.031298089772462845,0.4261969327926636,1.3945035934448242,-0.360874742269516,0.0,0.0,0.4176015555858612,-1.1401162147521973,-0.5441995859146118,-0.35743409395217896,0.0,0.0
14.700,0.0025388060603290796,0.4344444274902344,1.3609540462493896,-0.35266292095184326,0.0,0.0,0.4111391007900238,-1.1430565118789673,-0.5378646850585938,-0.3531419634819031,0.0,0.0
14.800,-0.02843722514808178,0.43574145436286926,1.323194146156311,-0.3448532521724701,0.0,0.0,0.3911435008049011,-1.1490325927734375,-0.5144489407539368,-0.33918461203575134,0.0,0.0
14.900,-0.211478634737432,0.40231217443943024,1.3786415457725525,-0.3323560804128647,0.0,0.0,0.4073638767004013,-1.1417421102523804,-0.5303323268890381,-0.34997232258319855,0.0,0.0
15.000,-0.3945200443267822,0.3688828945159912,1.434088945388794,-0.3198589086532593,0.0,0.0,0.4235842525959015,-1.1344516277313232,-0.5462157130241394,-0.36076003313064575,0.0,0.0
15.100,-0.44676995277404785,0.44621882552192327,1.243161916732788,-0.3091226613947323,0.0,0.0,0.42297144588970004,-1.1347322804587228,-0.5456168623197646,-0.3603523685818627,0.0,0.0
15.200,-0.4990198612213135,0.5235547565278553,1.0522348880767822,-0.2983864141362054,0.0,0.0,0.4223586391834986,-1.1350129331861223,-0.5450180116153899,-0.3599447040330796,0.0,0.0
15.300,-0.5512697696685791,0.6008906875337873,0.8613078594207764,-0.28765016687767847,0.0,0.0,0.4217458324772971,-1.1352935859135218,-0.544419160911015,-0.35953703948429655,0.0,0.0
15.400,-0.6035196781158447,0.6782266185397193,0.6703808307647705,-0.2769139196191515,0.0,0.0,0.4211330257710956,-1.1355742386409216,-0.5438203102066403,-0.35912937493551345,0.0,0.0
15.500,-0.6557695865631104,0.7555625495456514,0.47945380210876465,-0.2661776723606246,0.0,0.0,0.4205202190648942,-1.135854891368321,-0.5432214595022655,-0.3587217103867304,0.0,0.0
15.600,-0.708019495010376,0.8328984805515833,0.2885267734527588,-0.25544142510209766,0.0,0.0,0.4199074123586927,-1.1361355440957206,-0.5426226087978908,-0.3583140458379473,0.0,0.0
15.700,-0.7602694034576416,0.9102344115575154,0.09759974479675293,-0.2447051778435707,0.0,0.0,0.41929460565249127,-1.1364161968231201,-0.542023758093516,-0.35790638128916424,0.0,0.0
15.800,-0.8125193119049072,0.9875703425634474,-0.09332728385925293,-0.23396893058504376,0.0,0.0,0.41868179894628976,-1.1366968495505196,-0.5414249073891413,-0.35749871674038114,0.0,0.0
15.900,-0.8647692203521729,1.0649062735693795,-0.2842543125152588,-0.22323268332651686,0.0,0.0,0.4180689922400883,-1.1369775022779192,-0.5408260566847665,-0.3570910521915981,0.0,0.0
16.000,-0.9170191287994385,1.1422422045753116,-0.47518134117126465,-0.2124964360679899,0.0,0.0,0.41745618553388686,-1.1372581550053187,-0.5402272059803918,-0.356683387642815,0.0,0.0
16.100,-0.9692690372467041,1.2195781355812436,-0.6661083698272705,-0.20176018880946295,0.0,0.0,0.4168433788276854,-1.1375388077327184,-0.5396283552760169,-0.35627572309403194,0.0,0.0
16.200,-1.0215189456939697,1.2969140665871755,-0.8570353984832764,-0.19102394155093602,0.0,0.0,0.41623057212148395,-1.137819460460118,-0.5390295045716422,-0.35586805854524883,0.0,0.0
16.300,-1.0737688541412354,1.3742499975931077,-1.0479624271392822,-0.18028769429240907,0.0,0.0,0.4156177654152825,-1.1381001131875175,-0.5384306538672674,-0.3554603939964658,0.0,0.0
16.400,-1.126018762588501,1.4515859285990396,-1.238889455795288,-0.16955144703388214,0.0,0.0,0.415004958709081,-1.138380765914917,-0.5378318031628927,-0.3550527294476827,0.0,0.0
16.500,-1.1782686710357666,1.5289218596049718,-1.429816484451294,-0.1588151997753552,0.0,0.0,0.41439215200287954,-1.1386614186423165,-0.5372329524585179,-0.35464506489889963,0.0,0.0
16.600,-1.2305185794830322,1.6062577906109037,-1.6207435131072998,-0.14807895251682826,0.0,0.0,0.4137793452966781,-1.138942071369716,-0.5366341017541432,-0.3542374003501165,0.0,0.0
16.700,-1.2827684879302979,1.6835937216168357,-1.8116705417633057,-0.13734270525830133,0.0,0.0,0.41316653859047664,-1.1392227240971156,-0.5360352510497683,-0.3538297358013335,0.0,0.0
16.800,-1.3350183963775635,1.7609296526227678,-2.0025975704193115,-0.1266064579997744,0.0,0.0,0.4125537318842752,-1.1395033768245153,-0.5354364003453936,-0.3534220712525504,0.0,0.0
16.900,-1.387268304824829,1.8382655836286999,-2.1935245990753174,-0.11587021074124745,0.0,0.0,0.4119409251780737,-1.1397840295519148,-0.5348375496410188,-0.3530144067037673,0.0,0.0
17.000,-1.4395182132720947,1.915601514634632,-2.3844516277313232,-0.10513396348272053,0.0,0.0,0.41132811847187223,-1.1400646822793143,-0.5342386989366441,-0.3526067421549842,0.0,0.0
17.100,-1.4917681217193604,1.992937445640564,-2.575378656387329,-0.09439771622419357,0.0,0.0,0.4107153117656708,-1.1403453350067139,-0.5336398482322693,-0.35219907760620117,0.0,0.0
17.200,-1.4410075053572655,1.9109624788165092,-2.384814602136612,-0.1021122220903635,0.0,0.0,0.411037914454937,-1.1401984930038451,-0.533955329656601,-0.35241368114948274,0.0,0.0
17.300,-1.3902468889951707,1.8289875119924546,-2.1942505478858947,-0.10982672795653343,0.0,0.0,0.4113605171442032,-1.1400516510009766,-0.5342708110809327,-0.3526282846927643,0.0,0.0
17.400,-1.3394862726330756,1.7470125451683998,-2.0036864936351777,-0.11754123382270336,0.0,0.0,0.4116831198334694,-1.1399048089981079,-0.5345862925052642,-0.3528428882360458,0.0,0.0
17.500,-1.2887256562709808,1.6650375783443452,-1.8131224393844603,-0.1252557396888733,0.0,0.0,0.4120057225227356,-1.1397579669952393,-0.5349017739295959,-0.3530574917793274,0.0,0.0
17.600,-1.237965039908886,1.5830626115202904,-1.6225583851337433,-0.13297024555504322,0.0,0.0,0.4123283252120018,-1.1396111249923706,-0.5352172553539276,-0.35327209532260895,0.0,0.0
17.700,-1.1872044235467911,1.5010876446962356,-1.431994330883026,-0.14068475142121314,0.0,0.0,0.412650927901268,-1.1394642829895019,-0.5355327367782593,-0.3534866988658905,0.0,0.0
17.800,-1.1364438071846963,1.419112677872181,-1.241430276632309,-0.14839925728738307,0.0,0.0,0.4129735305905342,-1.1393174409866333,-0.535848218202591,-0.3537013024091721,0.0,0.0
17.900,-1.0856831908226012,1.3371377110481262,-1.0508662223815917,-0.15611376315355302,0.0,0.0,0.4132961332798004,-1.1391705989837646,-0.5361636996269226,-0.3539159059524536,0.0,0.0
18.000,-1.0349225744605064,1.2551627442240716,-0.8603021681308747,-0.16382826901972294,0.0,0.0,0.4136187359690666,-1.139023756980896,-0.5364791810512543,-0.35413050949573516,0.0,0.0
18.100,-0.9841619580984116,1.1731877774000168,-0.6697381138801575,-0.17154277488589287,0.0,0.0,0.4139413386583328,-1.1388769149780273,-0.5367946624755859,-0.3543451130390167,0.0,0.0
18.200,-0.9334013417363166,1.091212810575962,-0.47917405962944004,-0.17925728075206282,0.0,0.0,0.41426394134759903,-1.1387300729751586,-0.5371101438999176,-0.3545597165822983,0.0,0.0
18.300,-0.8826407253742218,1.0092378437519074,-0.28861000537872306,-0.18697178661823272,0.0,0.0,0.41458654403686523,-1.13858323097229,-0.5374256253242493,-0.35477432012557986,0.0,0.0
18.400,-0.831880109012127,0.9272628769278526,-0.09804595112800607,-0.19468629248440267,0.0,0.0,0.41490914672613144,-1.1384363889694213,-0.5377411067485809,-0.35498892366886137,0.0,0.0
18.500,-0.7811194926500321,0.845287910103798,0.09251810312271092,-0.20240079835057256,0.0,0.0,0.41523174941539764,-1.1382895469665528,-0.5380565881729126,-0.35520352721214293,0.0,0.0
18.600,-0.7303588762879372,0.7633129432797432,0.28308215737342834,-0.21011530421674252,0.0,0.0,0.41555435210466385,-1.138142704963684,-0.5383720695972443,-0.3554181307554245,0.0,0.0
18.700,-0.6795982599258422,0.6813379764556884,0.4736462116241458,-0.21782981008291247,0.0,0.0,0.41587695479393005,-1.1379958629608153,-0.538687551021576,-0.35563273429870607,0.0,0.0
18.800,-0.6288376435637474,0.5993630096316338,0.6642102658748628,-0.22554431594908236,0.0,0.0,0.41619955748319626,-1.1378490209579468,-0.5390030324459076,-0.35584733784198763,0.0,0.0
18.900,-0.5780770272016525,0.517388042807579,0.8547743201255797,-0.23325882181525232,0.0,0.0,0.41652216017246246,-1.137702178955078,-0.5393185138702392,-0.35606194138526914,0.0,0.0
19.000,-0.5273164108395577,0.4354130759835244,1.0453383743762967,-0.24097332768142224,0.0,0.0,0.41684476286172867,-1.1375553369522096,-0.5396339952945709,-0.3562765449285507,0.0,0.0
19.100,-0.47655579447746277,0.3534381091594696,1.2359024286270142,-0.24868783354759216,0.0,0.0,0.4171673655509949,-1.1374084949493408,-0.5399494767189026,-0.3564911484718323,0.0,0.0
19.200,-0.562584638595581,0.3312126100063324,1.1526254415512085,-0.18902729451656342,0.0,0.0,0.43631452322006226,-1.1284795999526978,-0.5586188435554504,-0.3692280650138855,0.0,0.0
19.300,-0.48125190536181134,0.4203211466471354,1.0094944437344868,-0.14756345252195996,0.0,0.0,0.44260279337565106,-1.1252926190694172,-0.5642972588539124,-0.37519683440526325,0.0,0.0
19.400,-0.3999191721280416,0.5094296832879384,0.8663634459177654,-0.10609961052735647,0.0,0.0,0.4488910635312398,-1.122105638186137,-0.5699756741523743,-0.38116560379664105,0.0,0.0
19.500,-0.31858643889427185,0.5985382199287415,0.7232324481010437,-0.06463576853275299,0.0,0.0,0.4551793336868286,-1.1189186573028564,-0.5756540894508362,-0.3871343731880188,0.0,0.0
19.600,-0.4344360828399658,0.5719041228294373,0.6591057777404785,0.01007961854338646,0.0,0.0,0.5035830736160278,-1.090706467628479,-0.6167372465133667,-0.42394888401031494,0.0,0.0
19.700,-0.5974423587322235,0.4549431651830673,0.7660839557647705,0.08985191397368908,0.0,0.0,0.5300432741641998,-1.0757160782814026,-0.6408950388431549,-0.4439925253391266,0.0,0.0
19.800,-0.7604486346244812,0.3379822075366974,0.8730621337890625,0.1696242094039917,0.0,0.0,0.5565034747123718,-1.0607256889343262,-0.6650528311729431,-0.46403616666793823,0.0,0.0
19.900,-0.8233965635299683,0.32672974467277527,0.8482929468154907,0.27000394463539124,0.0,0.0,0.6341598033905029,-1.0091181993484497,-0.7298979759216309,-0.5185229778289795,0.0,0.0
20.000,-0.7616932988166809,0.43228302896022797,0.6600248962640762,0.3012988120317459,0.0,0.0,0.8037966191768646,-1.0895358324050903,-0.7250275015830994,-0.5223153531551361,0.0,0.0
20.100,-0.6999900341033936,0.5378363132476807,0.47175684571266174,0.3325936794281006,0.0,0.0,0.9734334349632263,-1.169953465461731,-0.7201570272445679,-0.5261077284812927,0.0,0.0
20.200,-0.7278648614883423,0.5147532224655151,0.4517829716205597,0.34688475728034973,0.0,0.0,1.0328419208526611,-1.0976414680480957,-0.7651656270027161,-0.5661777853965759,0.0,0.0
20.300,-0.7369588017463684,0.4829741418361664,0.4338458776473999,0.32502061128616333,0.0,0.0,1.0632920265197754,-1.0555849075317383,-0.7838668823242188,-0.5858662128448486,0.0,0.0
20.400,-0.6637427806854248,0.5186660885810852,0.34194228053092957,0.1950385421514511,0.0,0.0,1.1118525266647339,-0.9865627288818359,-0.8124458193778992,-0.6205871105194092,0.0,0.0
20.500,-0.6746065020561218,0.4848479628562927,0.3194056451320648,0.163051038980484,0.0,0.0,1.1239279508590698,-0.9646287560462952,-0.8155664801597595,-0.627259373664856,0.0,0.0
20.600,-0.6735906600952148,0.44792330265045166,0.2985600233078003,0.10580594837665558,0.0,0.0,1.1658118963241577,-0.9013585448265076,-0.8429135084152222,-0.6498448252677917,0.0,0.0
20.700,-0.6740708947181702,0.44322573287146433,0.2955778241157532,0.10114663732903344,0.0,0.0,0.9736258387565613,-0.8153734334877559,-0.913627028465271,-0.6893353462219238,0.0,0.0
20.800,-0.6745511293411255,0.438528163092477,0.29259562492370605,0.09648732628141131,0.0,0.0,0.7814397811889648,-0.7293883221490043,-0.9843405485153198,-0.7288258671760559,0.0,0.0
20.900,-0.6750313639640808,0.43383059331348967,0.28961342573165894,0.09182801523378917,0.0,0.0,0.5892537236213684,-0.6434032108102525,-1.0550540685653687,-0.768316388130188,0.0,0.0
21.000,-0.6755115985870361,0.4291330235345023,0.2866312265396118,0.08716870418616704,0.0,0.0,0.397067666053772,-0.557418099471501,-1.1257675886154175,-0.8078069090843201,0.0,0.0
21.100,-0.6759918332099915,0.42443545375551495,0.2836490273475647,0.0825093931385449,0.0,0.0,0.20488160848617554,-0.47143298813274925,-1.1964811086654663,-0.8472974300384521,0.0,0.0
21.200,-0.6764720678329468,0.4197378839765276,0.2806668281555176,0.07785008209092277,0.0,0.0,0.012695550918579102,-0.3854478767939976,-1.2671946287155151,-0.8867879509925842,0.0,0.0
21.300,-0.6769523024559021,0.4150403141975403,0.27768462896347046,0.07319077104330063,0.0,0.0,-0.17949050664901733,-0.29946276545524597,-1.337908148765564,-0.9262784719467163,0.0,0.0
21.400,-0.6914507150650024,0.3931310772895813,0.2608359158039093,0.06019832566380501,0.0,0.0,-0.14343611896038055,-0.3068894147872925,-1.3907475471496582,-0.9414278864860535,0.0,0.0
21.500,-0.7250935435295105,0.37610572576522827,0.2421775609254837,0.10402324795722961,0.0,0.0,-0.13037408888339996,-0.309174507856369,-1.4075469970703125,-0.9455552101135254,0.0,0.0
21.600,-0.7341137528419495,0.368156760931015,0.2353190779685974,0.11502907425165176,0.0,0.0,-0.0965009406208992,-0.30997151136398315,-1.4566749334335327,-0.9454969763755798,0.0,0.0
21.700,-0.7365984386867948,0.3679473367002275,0.2346637116538154,0.12017376389768389,0.0,0.0,0.09487951464123195,-0.39301088121202254,-1.37629896402359,-0.9091881381140815,0.0,0.0
21.800,-0.7390831245316399,0.36773791246944004,0.23400834533903334,0.125318453543716,0.0,0.0,0.2862599699033631,-0.47605025106006194,-1.2959229946136475,-0.8728792998525832,0.0,0.0
21.900,-0.7415678103764852,0.36752848823865253,0.2333529790242513,0.13046314318974814,0.0,0.0,0.4776404251654942,-0.5590896209081013,-1.2155470252037048,-0.8365704615910848,0.0,0.0
22.000,-0.7440524962213304,0.36731906400786507,0.23269761270946926,0.13560783283578026,0.0,0.0,0.6690208804276254,-0.6421289907561407,-1.1351710557937622,-0.8002616233295865,0.0,0.0
22.100,-0.7465371820661757,0.36710963977707756,0.23204224639468723,0.14075252248181236,0.0,0.0,0.8604013356897566,-0.7251683606041803,-1.0547950863838196,-0.7639527850680881,0.0,0.0
22.200,-0.7490218679110209,0.3669002155462901,0.23138688007990518,0.14589721212784448,0.0,0.0,1.0517817909518876,-0.8082077304522196,-0.974419116973877,-0.7276439468065898,0.0,0.0
22.300,-0.7515065537558662,0.3666907913155026,0.23073151376512316,0.1510419017738766,0.0,0.0,1.243162246214019,-0.8912471003002591,-0.8940431475639343,-0.6913351085450914,0.0,0.0
22.400,-0.7539912396007113,0.3664813670847151,0.2300761474503411,0.15618659141990873,0.0,0.0,1.43454270147615,-0.9742864701482984,-0.8136671781539917,-0.6550262702835932,0.0,0.0
22.500,-0.7564759254455566,0.3662719428539276,0.22942078113555908,0.16133128106594086,0.0,0.0,1.6259231567382812,-1.057325839996338,-0.7332912087440491,-0.6187174320220947,0.0,0.0
22.600,-0.7610158324241638,0.3664529025554657,0.22860461473464966,0.17133045196533203,0.0,0.0,1.6423109769821167,-1.0389115810394287,-0.736312985420227,-0.6234800815582275,0.0,0.0
22.700,-0.768496036529541,0.36099621653556824,0.23205263912677765,0.1924583613872528,0.0,0.0,1.6346958875656128,-1.0522916316986084,-0.739702045917511,-0.62192702293396,0.0,0.0
22.800,-0.7777612805366516,0.36163386702537537,0.23032914102077484,0.2130393236875534,0.0,0.0,1.6330865621566772,-1.0454249382019043,-0.7311724424362183,-0.6149348616600037,0.0,0.0
22.900,-0.7790420783890618,0.3616175750891368,0.2300129665268792,0.21672583123048147,0.0,0.0,1.4408749631709523,-0.9640148878097534,-0.8119295835494995,-0.6508990195062425,0.0,0.0
23.000,-0.780322876241472,0.36160128315289813,0.22969679203298357,0.22041233877340952,0.0,0.0,1.2486633641852274,-0.8826048374176025,-0.8926867246627808,-0.6868631773524814,0.0,0.0
23.100,-0.7816036740938822,0.36158499121665955,0.22938061753908792,0.22409884631633759,0.0,0.0,1.0564517651995025,-0.8011947870254517,-0.973443865776062,-0.7228273351987203,0.0,0.0
23.200,-0.7828844719462924,0.36156869928042096,0.2290644430451923,0.22778535385926565,0.0,0.0,0.8642401662137774,-0.7197847366333008,-1.0542010068893433,-0.7587914930449592,0.0,0.0
23.300,-0.7841652697987027,0.3615524073441823,0.22874826855129665,0.2314718614021937,0.0,0.0,0.6720285672280523,-0.6383746862411499,-1.1349581480026245,-0.794755650891198,0.0,0.0
23.400,-0.7854460676511129,0.3615361154079437,0.22843209405740103,0.23515836894512177,0.0,0.0,0.47981696824232745,-0.556964635848999,-1.2157152891159058,-0.8307198087374369,0.0,0.0
23.500,-0.7867268655035231,0.36151982347170514,0.22811591956350538,0.23884487648804983,0.0,0.0,0.2876053692566023,-0.47555458545684814,-1.296472430229187,-0.8666839665836759,0.0,0.0
23.600,-0.7880076633559333,0.3615035315354665,0.22779974506960976,0.24253138403097788,0.0,0.0,0.09539377027087759,-0.39414453506469727,-1.3772295713424683,-0.9026481244299147,0.0,0.0
23.700,-0.7892884612083435,0.3614872395992279,0.2274835705757141,0.24621789157390594,0.0,0.0,-0.09681782871484756,-0.3127344846725464,-1.4579867124557495,-0.9386122822761536,0.0,0.0
23.800,-0.7919015884399414,0.3625513017177582,0.22786180675029755,0.24445180594921112,0.0,0.0,-0.11473101377487183,-0.3064382076263428,-1.438256025314331,-0.9256784915924072,0.0,0.0
23.900,-0.8037946820259094,0.3595540225505829,0.2238428145647049,0.27569082379341125,0.0,0.0,-0.1281426101922989,-0.3073628842830658,-1.4234225749969482,-0.9153696894645691,0.0,0.0
24.000,-0.7989603281021118,0.3620831370353699,0.2259475439786911,0.26765578985214233,0.0,0.0,-0.10266370326280594,-0.30722442269325256,-1.458978533744812,-0.9128353595733643,0.0,0.0
24.100,-0.7871386408805847,0.3622482419013977,0.2286662757396698,0.23387067019939423,0.0,0.0,-0.0942918062210083,-0.31116271018981934,-1.4711099863052368,-0.9076915979385376,0.0,0.0
24.200,-0.8015997409820557,0.3659713864326477,0.22766968607902527,0.26871567964553833,0.0,0.0,-0.1035594791173935,-0.306562215089798,-1.462825059890747,-0.8969138264656067,0.0,0.0
24.300,-0.796747624874115,0.36567792296409607,0.22845600545406342,0.25794604420661926,0.0,0.0,-0.09458104521036148,-0.31408220529556274,-1.4722386598587036,-0.9007777571678162,0.0,0.0
24.400,-0.7941548228263855,0.36461177468299866,0.2280927449464798,0.25972163677215576,0.0,0.0,-0.082115039229393,-0.31189775466918945,-1.490639567375183,-0.8939715027809143,0.0,0.0
24.500,-0.8138716220855713,0.3657694458961487,0.22509676218032837,0.3033946752548218,0.0,0.0,-0.10822291672229767,-0.3090135157108307,-1.4587719440460205,-0.8890816569328308,0.0,0.0
24.600,-0.821379542350769,0.362461656332016,0.22211048007011414,0.3247682750225067,0.0,0.0,-0.12574364244937897,-0.30666425824165344,-1.4380431175231934,-0.884896457195282,0.0,0.0
24.700,-0.8112568855285645,0.3618941903114319,0.22345054149627686,0.3023550510406494,0.0,0.0,-0.11697055399417877,-0.3078814148902893,-1.448350191116333,-0.8870809674263,0.0,0.0
24.800,-0.7866640090942383,0.35760214924812317,0.22569327056407928,0.24524712562561035,0.0,0.0,-0.09107599407434464,-0.30459848046302795,-1.481134295463562,-0.8903613090515137,0.0,0.0
24.900,-0.7988739013671875,0.35643747448921204,0.223185196518898,0.2620866000652313,0.0,0.0,-0.08239196240901947,-0.3054688274860382,-1.491750717163086,-0.891802191734314,0.0,0.0
25.000,-0.8037098050117493,0.3539118468761444,0.22109699249267578,0.27017146348953247,0.0,0.0,-0.06502926349639893,-0.31636878848075867,-1.51301908493042,-0.8893441557884216,0.0,0.0
25.100,-0.8059084481663175,0.35372788045141434,0.22065948281023237,0.27477481961250305,0.0,0.0,0.12327024671766493,-0.3952023453182644,-1.4237237837579515,-0.8534426358011034,0.0,0.0
25.200,-0.8081070913208855,0.3535439140266842,0.22022197312778896,0.27937817573547363,0.0,0.0,0.3115697569317288,-0.4740359021557702,-1.334428482585483,-0.8175411158137851,0.0,0.0
25.300,-0.8103057344754537,0.35335994760195416,0.21978446344534555,0.2839815318584442,0.0,0.0,0.4998692671457926,-0.5528694589932759,-1.2451331814130149,-0.7816395958264669,0.0,0.0
25.400,-0.8125043776300218,0.35317598117722404,0.21934695376290214,0.2885848879814148,0.0,0.0,0.6881687773598565,-0.6317030158307817,-1.1558378802405462,-0.7457380758391486,0.0,0.0
25.500,-0.81470302078459,0.352992014752494,0.21890944408045876,0.2931882441043854,0.0,0.0,0.8764682875739204,-0.7105365726682875,-1.066542579068078,-0.7098365558518304,0.0,0.0
25.600,-0.8169016639391581,0.35280804832776386,0.21847193439801535,0.29779160022735596,0.0,0.0,1.0647677977879841,-0.7893701295057932,-0.9772472778956096,-0.6739350358645122,0.0,0.0
25.700,-0.8191003070937263,0.3526240819030338,0.21803442471557194,0.30239495635032654,0.0,0.0,1.253067308002048,-0.868203686343299,-0.8879519767231411,-0.6380335158771939,0.0,0.0
25.800,-0.8212989502482944,0.3524401154783037,0.21759691503312853,0.3069983124732971,0.0,0.0,1.441366818216112,-0.9470372431808047,-0.7986566755506728,-0.6021319958898756,0.0,0.0
25.900,-0.8234975934028625,0.3522561490535736,0.21715940535068512,0.3116016685962677,0.0,0.0,1.6296663284301758,-1.0258708000183105,-0.7093613743782043,-0.5662304759025574,0.0,0.0
26.000,-0.8284889459609985,0.3497295379638672,0.21524980664253235,0.3201465904712677,0.0,0.0,1.6484822034835815,-0.9929308891296387,-0.7004101872444153,-0.5673477053642273,0.0,0.0
26.100,-0.8950148224830627,0.3486216962337494,0.20756253600120544,0.4568917453289032,0.0,0.0,1.6384936571121216,-1.011221170425415,-0.7060366272926331,-0.5615255832672119,0.0,0.0
26.200,-0.9174177646636963,0.33874332904815674,0.20193089544773102,0.497903436422348,0.0,0.0,1.6431539058685303,-1.0030498504638672,-0.7037848830223083,-0.5617513656616211,0.0,0.0
26.300,-0.961591362953186,0.26035407185554504,0.3448301057020823,0.5191962917645773,0.0,0.0,1.6454453865687053,-0.9989957610766093,-0.7026183009147644,-0.5617902080217997,0.0,0.0
26.400,-1.0057649612426758,0.18196481466293335,0.4877293159564336,0.5404891471068064,0.0,0.0,1.6477368672688801,-0.9949416716893514,-0.7014517188072205,-0.5618290503819784,0.0,0.0
26.500,-1.0499385595321655,0.10357555747032166,0.6306285262107849,0.5617820024490356,0.0,0.0,1.6500283479690552,-0.9908875823020935,-0.7002851366996765,-0.561867892742157,0.0,0.0
26.600,-1.088671326637268,0.11069729179143906,0.63202303647995,0.6508894562721252,0.0,0.0,1.6417526006698608,-0.995302140712738,-0.6947919726371765,-0.559138298034668,0.0,0.0
26.700,-1.1365848779678345,0.1305796205997467,0.6368899941444397,0.7789217829704285,0.0,0.0,1.6355090141296387,-1.0055688619613647,-0.6971079707145691,-0.564434289932251,0.0,0.0
26.800,-1.135720705986023,0.1930853068828583,0.461872735619545,0.8150187611579895,0.0,0.0,1.6357083320617676,-1.0031903505325317,-0.6950970411300659,-0.5639201879501343,0.0,0.0
26.900,-1.1348565340042114,0.2555909931659699,0.28685547709465026,0.8511157393455505,0.0,0.0,1.6359076499938965,-1.0008118391036986,-0.6930861115455628,-0.5634060859680176,0.0,0.0
27.000,-1.1339923620224,0.3180966794490814,0.11183821856975562,0.8872127175331116,0.0,0.0,1.6361069679260254,-0.9984333276748657,-0.6910751819610595,-0.5628919839859009,0.0,0.0
27.100,-1.1331281900405883,0.380602365732193,-0.06317903995513918,0.9233096957206726,0.0,0.0,1.6363062858581543,-0.9960548162460328,-0.6890642523765564,-0.5623778820037841,0.0,0.0
27.200,-1.1322640180587769,0.44310805201530457,-0.23819629848003387,0.9594066739082336,0.0,0.0,1.6365056037902832,-0.9936763048171997,-0.6870533227920532,-0.5618637800216675,0.0,0.0
27.300,-1.17684805393219,0.41886696219444275,-0.23964495956897736,1.056861162185669,0.0,0.0,1.630527138710022,-0.9940165877342224,-0.680387556552887,-0.5590828657150269,0.0,0.0
27.400,-1.1885932683944702,0.4100738763809204,-0.23981468379497528,1.0892314910888672,0.0,0.0,1.6174514293670654,-1.0065765380859375,-0.6767980456352234,-0.5561230778694153,0.0,0.0
27.500,-1.1345483660697937,0.4303945004940033,-0.24010195583105087,0.9672591090202332,0.0,0.0,1.6210034489631653,-1.0004560947418213,-0.6752643287181854,-0.556199461221695,0.0,0.0
27.600,-1.0805034637451172,0.4507151246070862,-0.24038922786712646,0.8452867269515991,0.0,0.0,1.6245554685592651,-0.9943356513977051,-0.6737306118011475,-0.5562758445739746,0.0,0.0
27.700,-0.9999016523361206,0.4831785261631012,-0.23471912741661072,0.6541269421577454,0.0,0.0,1.6270962953567505,-0.9805200099945068,-0.6640370488166809,-0.5477904081344604,0.0,0.0
27.800,-0.9676679372787476,0.4960651993751526,-0.23048555850982666,0.5826840996742249,0.0,0.0,1.6214466094970703,-1.0003403425216675,-0.6758444905281067,-0.5507967472076416,0.0,0.0
27.900,-0.9312839508056641,0.5125632286071777,-0.22342093288898468,0.5056853890419006,0.0,0.0,1.6261216402053833,-0.9922559261322021,-0.6737709641456604,-0.5508171319961548,0.0,0.0
28.000,-0.9251192212104797,0.5172136425971985,-0.22133441269397736,0.49493691325187683,0.0,0.0,1.6214466094970703,-1.0003403425216675,-0.6758444905281067,-0.5507967472076416,0.0,0.0
28.100,-0.9609107971191406,0.5032803416252136,-0.22777029871940613,0.5728111267089844,0.0,0.0,1.6077628135681152,-1.0230762958526611,-0.6806400418281555,-0.5555031895637512,0.0,0.0
28.200,-0.9796116948127747,0.4981051981449127,-0.2297200858592987,0.6164072751998901,0.0,0.0,1.6113851070404053,-1.0269269943237305,-0.6884916424751282,-0.5580518245697021,0.0,0.0
28.300,-0.9793776737319099,0.4979662067360348,-0.22978076173199546,0.6166417731179131,0.0,0.0,1.4273797894517581,-0.9456677271260155,-0.7834649615817599,-0.5933027267456055,0.0,0.0
28.400,-0.9791436526510451,0.4978272153271569,-0.22984143760469225,0.6168762710359361,0.0,0.0,1.243374471863111,-0.8644084599283006,-0.8784382806883918,-0.6285536289215088,0.0,0.0
28.500,-0.9789096315701803,0.497688223918279,-0.229902113477389,0.6171107689539591,0.0,0.0,1.0593691542744637,-0.7831491927305858,-0.9734115997950236,-0.6638045310974121,0.0,0.0
28.600,-0.9786756104893155,0.4975492325094011,-0.2299627893500858,0.6173452668719821,0.0,0.0,0.8753638366858165,-0.7018899255328708,-1.0683849189016554,-0.6990554332733154,0.0,0.0
28.700,-0.9784415894084506,0.49741024110052323,-0.23002346522278255,0.6175797647900052,0.0,0.0,0.6913585190971692,-0.620630658335156,-1.1633582380082872,-0.7343063354492188,0.0,0.0
28.800,-0.9782075683275858,0.4972712496916453,-0.23008414109547934,0.6178142627080282,0.0,0.0,0.507353201508522,-0.539371391137441,-1.258331557114919,-0.7695572376251221,0.0,0.0
28.900,-0.977973547246721,0.4971322582827674,-0.2301448169681761,0.6180487606260512,0.0,0.0,0.3233478839198749,-0.4581121239397261,-1.353304876221551,-0.8048081398010254,0.0,0.0
29.000,-0.9777395261658562,0.4969932668738895,-0.23020549284087288,0.6182832585440742,0.0,0.0,0.13934256633122777,-0.3768528567420112,-1.4482781953281827,-0.8400590419769287,0.0,0.0
29.100,-0.9775055050849915,0.4968542754650116,-0.23026616871356964,0.6185177564620972,0.0,0.0,-0.044662751257419586,-0.29559358954429626,-1.5432515144348145,-0.875309944152832,0.0,0.0
29.200,-1.004317283630371,0.4838142693042755,-0.23431354761123657,0.6755237579345703,0.0,0.0,-0.06611674278974533,-0.2910563349723816,-1.5166665315628052,-0.8804166316986084,0.0,0.0
29.300,-1.001360707812839,0.485003219710456,-0.23395857711633047,0.668966982099745,0.0,0.0,0.11935410896937051,-0.3720273044374254,-1.4227735532654657,-0.8452128767967224,0.0,0.0
29.400,-0.9984041319953071,0.4861921701166365,-0.23360360662142435,0.6624102062649198,0.0,0.0,0.30482496072848636,-0.45299827390246916,-1.328880574968126,-0.8100091218948364,0.0,0.0
29.500,-0.995447556177775,0.48738112052281696,-0.23324863612651825,0.6558534304300944,0.0,0.0,0.49029581248760223,-0.533969243367513,-1.2349875966707866,-0.7748053669929504,0.0,0.0
29.600,-0.9924909803602431,0.48857007092899746,-0.23289366563161215,0.6492966545952691,0.0,0.0,0.675766664246718,-0.6149402128325567,-1.141094618373447,-0.7396016120910645,0.0,0.0
29.700,-0.989534404542711,0.48975902133517796,-0.23253869513670603,0.6427398787604438,0.0,0.0,0.861237516005834,-0.6959111822976007,-1.0472016400761075,-0.7043978571891785,0.0,0.0
29.800,-0.9865778287251791,0.49094797174135846,-0.23218372464179993,0.6361831029256185,0.0,0.0,1.0467083677649498,-0.7768821517626444,-0.9533086617787679,-0.6691941022872925,0.0,0.0
29.900,-0.983621252907647,0.4921369221475389,-0.23182875414689383,0.6296263270907931,0.0,0.0,1.2321792195240657,-0.8578531212276883,-0.8594156834814284,-0.6339903473854065,0.0,0.0
30.000,-0.9806646770901151,0.4933258725537194,-0.2314737836519877,0.6230695512559679,0.0,0.0,1.4176500712831814,-0.938824090692732,-0.7655227051840888,-0.5987865924835205,0.0,0.0
30.100,-0.977708101272583,0.4945148229598999,-0.2311188131570816,0.6165127754211426,0.0,0.0,1.6031209230422974,-1.0197950601577759,-0.6716297268867493,-0.5635828375816345,0.0,0.0
30.200,-0.9345630407333374,0.5115277767181396,-0.22427955269813538,0.5221186876296997,0.0,0.0,1.6271545886993408,-0.9785619974136353,-0.6616396903991699,-0.5641389489173889,0.0,0.0
30.300,-0.9842064380645752,0.4919120967388153,-0.23196808993816376,0.6308700442314148,0.0,0.0,1.615332841873169,-0.9990184903144836,-0.6668504476547241,-0.5642333626747131,0.0,0.0
30.400,-0.984023928642273,0.49424174427986145,-0.23112574219703674,0.6329018473625183,0.0,0.0,1.6255818605422974,-0.9806976914405823,-0.6615168452262878,-0.5696057677268982,0.0,0.0
30.500,-1.0063493251800537,0.4850929081439972,-0.2338392287492752,0.6732807159423828,0.0,0.0,1.6266883611679077,-0.9688008427619934,-0.6517289280891418,-0.5663685202598572,0.0,0.0
30.600,-1.0295259952545166,0.47555482387542725,-0.23628446459770203,0.71604984998703,0.0,0.0,1.6173065900802612,-0.9851061701774597,-0.6559610366821289,-0.5667688250541687,0.0,0.0
30.700,-1.0747087001800537,0.45505066215991974,-0.23922383040189743,0.8169829249382019,0.0,0.0,1.6054286360740662,-1.0006344616413116,-0.6564786434173584,-0.5624023675918579,0.0,0.0
30.800,-1.1198914051055908,0.43454650044441223,-0.24216319620609283,0.9179159998893738,0.0,0.0,1.593550682067871,-1.0161627531051636,-0.6569962501525879,-0.5580359101295471,0.0,0.0
30.900,-1.1119087934494019,0.4375537633895874,-0.24249789118766785,0.8904697299003601,0.0,0.0,1.5900408029556274,-1.0122435092926025,-0.6493228077888489,-0.5552772879600525,0.0,0.0
31.000,-1.1140113936530218,0.43646253148714703,-0.24259908166196612,0.8951054281658597,0.0,0.0,1.4088026049236457,-0.9291707310411665,-0.7494257688522339,-0.5913159979714288,0.0,0.0
31.100,-1.116113993856642,0.4353712995847066,-0.24270027213626438,0.8997411264313592,0.0,0.0,1.227564406891664,-0.8460979527897305,-0.8495287299156189,-0.627354707982805,0.0,0.0
31.200,-1.118216594060262,0.43428006768226624,-0.24280146261056265,0.9043768246968588,0.0,0.0,1.046326208859682,-0.7630251745382945,-0.9496316909790039,-0.6633934179941813,0.0,0.0
31.300,-1.1203191942638822,0.43318883577982586,-0.24290265308486092,0.9090125229623582,0.0,0.0,0.8650880108277004,-0.6799523962868586,-1.049734652042389,-0.6994321280055575,0.0,0.0
31.400,-1.1224217944675021,0.43209760387738544,-0.24300384355915916,0.9136482212278578,0.0,0.0,0.6838498127957184,-0.5968796180354223,-1.149837613105774,-0.7354708380169339,0.0,0.0
31.500,-1.1245243946711223,0.43100637197494507,-0.24310503403345743,0.9182839194933573,0.0,0.0,0.5026116147637367,-0.5138068397839864,-1.249940574169159,-0.7715095480283101,0.0,0.0
31.600,-1.1266269948747423,0.4299151400725047,-0.2432062245077557,0.9229196177588569,0.0,0.0,0.321373416731755,-0.43073406153255034,-1.350043535232544,-0.8075482580396864,0.0,0.0
31.700,-1.1287295950783625,0.42882390817006427,-0.24330741498205397,0.9275553160243564,0.0,0.0,0.1401352186997733,-0.34766128328111445,-1.450146496295929,-0.8435869680510626,0.0,0.0
31.800,-1.1308321952819824,0.4277326762676239,-0.24340860545635223,0.932191014289856,0.0,0.0,-0.04110297933220863,-0.26458850502967834,-1.550249457359314,-0.879625678062439,0.0,0.0
31.900,-1.0855934619903564,0.448154479265213,-0.2416968047618866,0.8298640847206116,0.0,0.0,-0.04973806068301201,-0.2641453146934509,-1.540035605430603,-0.8791349530220032,0.0,0.0
32.000,-1.1123017072677612,0.4419001638889313,-0.24112114310264587,0.8956988453865051,0.0,0.0,-0.058207593858242035,-0.2602718472480774,-1.529305100440979,-0.8852956891059875,0.0,0.0
32.100,-1.0859899520874023,0.4569985866546631,-0.2388489991426468,0.8396371006965637,0.0,0.0,-0.06299876421689987,-0.2572196424007416,-1.5256948471069336,-0.8755042552947998,0.0,0.0
32.200,-1.1021002531051636,0.45066750049591064,-0.23904508352279663,0.8855686187744141,0.0,0.0,-0.07167119532823563,-0.2565840780735016,-1.515702486038208,-0.8745502829551697,0.0,0.0
32.300,-1.1424570083618164,0.436827152967453,-0.23888488113880157,0.9808722138404846,0.0,0.0,-0.0632861778140068,-0.2511488199234009,-1.5265982151031494,-0.8729138970375061,0.0,0.0
32.400,-1.1905263662338257,0.4138493835926056,-0.23848378658294678,1.0978626012802124,0.0,0.0,-0.06328627467155457,-0.2511481046676636,-1.526598572731018,-0.8729141354560852,0.0,0.0
32.500,-1.2400896549224854,0.39065778255462646,-0.23665955662727356,1.2110583782196045,0.0,0.0,-0.0679151639342308,-0.24481526017189026,-1.5226044654846191,-0.8698275685310364,0.0,0.0
32.600,-1.238368272781372,0.3870680034160614,-0.23713622987270355,1.2118878364562988,0.0,0.0,-0.059525493532419205,-0.23942133784294128,-1.5332787036895752,-0.8680033683776855,0.0,0.0
32.700,-1.186896800994873,0.40620797872543335,-0.24114231765270233,1.0811675786972046,0.0,0.0,-0.02922917529940605,-0.2408846765756607,-1.5676077604293823,-0.869540274143219,0.0,0.0
32.800,-1.1861320734024048,0.40424278378486633,-0.2418050915002823,1.077336311340332,0.0,0.0,-0.029229892417788506,-0.2408813089132309,-1.5676101446151733,-0.8695418238639832,0.0,0.0
32.900,-1.235100507736206,0.3856872022151947,-0.2388285994529724,1.1932587623596191,0.0,0.0,-0.03787311911582947,-0.24056027829647064,-1.5577598810195923,-0.8693326115608215,0.0,0.0
33.000,-1.2576873302459717,0.37734436988830566,-0.2368091642856598,1.2471528053283691,0.0,0.0,-0.024909930303692818,-0.24101874232292175,-1.57253897190094,-0.8695746660232544,0.0,0.0
33.100,-1.1817225813865662,0.4160923659801483,-0.2355000376701355,1.1041487455368042,0.0,0.0,-0.014375184546224773,-0.25355497002601624,-1.584620475769043,-0.8453783690929413,0.0,0.0
33.200,-1.1057578325271606,0.45484036207199097,-0.2341909110546112,0.9611446857452393,0.0,0.0,-0.003840438788756728,-0.2660911977291107,-1.596701979637146,-0.8211820721626282,0.0,0.0
33.300,-1.0550329685211182,0.41064385573069256,-0.09100154538949332,0.8444795608520508,0.0,0.0,-0.0024093759517806275,-0.26727468768755597,-1.5982104142506917,-0.8188073833783468,0.0,0.0
33.400,-1.0043081045150757,0.36644734938939416,0.052187820275624575,0.7278144359588623,0.0,0.0,-0.0009783131148045263,-0.26845817764600116,-1.5997188488642375,-0.8164326945940653,0.0,0.0
33.500,-0.9535832405090332,0.3222508430480957,0.1953771859407425,0.6111493110656738,0.0,0.0,0.00045274972217157483,-0.2696416676044464,-1.6012272834777832,-0.8140580058097839,0.0,0.0
33.600,-0.9305903315544128,0.35830575227737427,0.21023987233638763,0.5982145667076111,0.0,0.0,-0.038778211921453476,-0.2779545187950134,-1.5596897602081299,-0.810210108757019,0.0,0.0
33.700,-0.8705615997314453,0.37682776153087616,0.2241983339190483,0.4901297092437744,0.0,0.0,-0.060732973739504814,-0.28119605779647827,-1.5368886590003967,-0.806182473897934,0.0,0.0
33.800,-0.8105328679084778,0.39534977078437805,0.23815679550170898,0.38204485177993774,0.0,0.0,-0.08268773555755615,-0.2844375967979431,-1.5140875577926636,-0.8021548390388489,0.0,0.0
33.900,-0.6949800252914429,0.4380633533000946,0.2847292721271515,0.20631279051303864,0.0,0.0,-0.13633669912815094,-0.282431036233902,-1.4629656076431274,-0.7851600050926208,0.0,0.0
34.000,-0.6662324070930481,0.4845220446586609,0.32008644938468933,0.21475371718406677,0.0,0.0,-0.20475421845912933,-0.28075093030929565,-1.3730242252349854,-0.7526397109031677,0.0,0.0
34.100,-0.6649324127605983,0.4806619031088693,0.3377853419099535,0.21363321798188345,0.0,0.0,-0.027801671198436212,-0.38636449405125206,-1.2807627064841134,-0.7117249071598053,0.0,0.0
34.200,-0.6636324184281486,0.47680176155907766,0.3554842344352177,0.21251271877970015,0.0,0.0,0.1491508760622569,-0.4919780577932085,-1.1885011877332414,-0.6708101034164429,0.0,0.0
34.300,-0.6623324240956988,0.4729416200092861,0.3731831269604819,0.21139221957751683,0.0,0.0,0.32610342332295006,-0.5975916215351649,-1.0962396689823697,-0.6298952996730804,0.0,0.0
34.400,-0.6610324297632489,0.46908147845949444,0.3908820194857461,0.2102717203753335,0.0,0.0,0.5030559705836432,-0.7032051852771214,-1.0039781502314977,-0.588980495929718,0.0,0.0
34.500,-0.6597324354307992,0.46522133690970285,0.4085809120110103,0.2091512211731502,0.0,0.0,0.6800085178443364,-0.8088187490190779,-0.9117166314806258,-0.5480656921863556,0.0,0.0
34.600,-0.6584324410983494,0.4613611953599112,0.4262798045362745,0.2080307219709669,0.0,0.0,0.8569610651050295,-0.9144323127610342,-0.8194551127297538,-0.5071508884429932,0.0,0.0
34.700,-0.6571324467658997,0.45750105381011963,0.4439786970615387,0.20691022276878357,0.0,0.0,1.0339136123657227,-1.0200458765029907,-0.7271935939788818,-0.46623608469963074,0.0,0.0
34.800,-0.5928812623023987,0.4600902497768402,0.49010129272937775,0.10143310623243451,0.0,0.0,1.0003264844417572,-1.0638442635536194,-0.7037049233913422,-0.44608063995838165,0.0,0.0
34.900,-0.5286300778388977,0.4626794457435608,0.5362238883972168,-0.004044010303914547,0.0,0.0,0.9667393565177917,-1.107642650604248,-0.6802162528038025,-0.42592519521713257,0.0,0.0
35.000,-0.4475116431713104,0.49620798230171204,0.6036503314971924,-0.06812013685703278,0.0,0.0,0.9205189943313599,-1.1668840646743774,-0.6526673436164856,-0.3972950279712677,0.0,0.0
35.100,-0.44593488425016403,0.6398646049201488,0.40935639292001724,-0.05839637038297951,0.0,0.0,0.8775604814291,-1.1489666253328323,-0.6541632860898972,-0.3971155099570751,0.0,0.0
35.200,-0.44435812532901764,0.7835212275385857,0.2150624543428421,-0.04867260390892625,0.0,0.0,0.8346019685268402,-1.1310491859912872,-0.6556592285633087,-0.39693599194288254,0.0,0.0
35.300,-0.44278136640787125,0.9271778501570225,0.02076851576566696,-0.038948837434872985,0.0,0.0,0.7916434556245804,-1.1131317466497421,-0.6571551710367203,-0.39675647392868996,0.0,0.0
35.400,-0.44120460748672485,1.0708344727754593,-0.17352542281150818,-0.02922507096081972,0.0,0.0,0.7486849427223206,-1.095214307308197,-0.6586511135101318,-0.3965769559144974,0.0,0.0
35.500,-0.43962784856557846,1.214491095393896,-0.3678193613886833,-0.019501304486766458,0.0,0.0,0.7057264298200607,-1.077296867966652,-0.6601470559835434,-0.3963974379003048,0.0,0.0
35.600,-0.43805108964443207,1.358147718012333,-0.5621132999658585,-0.009777538012713194,0.0,0.0,0.6627679169178009,-1.0593794286251068,-0.661642998456955,-0.3962179198861122,0.0,0.0
35.700,-0.4364743307232857,1.5018043406307697,-0.7564072385430336,-5.377153865993023e-05,0.0,0.0,0.6198094040155411,-1.0414619892835617,-0.6631389409303665,-0.39603840187191963,0.0,0.0
35.800,-0.4348975718021393,1.6454609632492065,-0.9507011771202087,0.009669994935393333,0.0,0.0,0.5768508911132812,-1.0235445499420166,-0.6646348834037781,-0.39585888385772705,0.0,0.0
35.900,-0.2415367386170796,1.6689988204411097,-0.7785632397447314,0.008652710721694998,0.0,0.0,0.5690732428005764,-1.0286634734698705,-0.6580251838479724,-0.3924448554004942,0.0,0.0
36.000,-0.04817590543201994,1.692536677633013,-0.6064253023692541,0.007635426507996661,0.0,0.0,0.5612955944878715,-1.0337823969977242,-0.6514154842921666,-0.3890308269432613,0.0,0.0
36.100,0.1451849277530397,1.7160745348249162,-0.4342873649937766,0.006618142294298326,0.0,0.0,0.5535179461751666,-1.0389013205255782,-0.6448057847363609,-0.3856167984860284,0.0,0.0
36.200,0.3385457609380994,1.7396123920168196,-0.2621494276182993,0.00560085808059999,0.0,0.0,0.5457402978624616,-1.0440202440534319,-0.638196085180555,-0.3822027700287955,0.0,0.0
36.300,0.5319065941231591,1.7631502492087228,-0.09001149024282185,0.004583573866901653,0.0,0.0,0.5379626495497567,-1.0491391675812858,-0.6315863856247493,-0.3787887415715626,0.0,0.0
36.400,0.7252674273082187,1.786688106400626,0.08212644713265549,0.0035662896532033172,0.0,0.0,0.5301850012370518,-1.0542580911091395,-0.6249766860689435,-0.37537471311432974,0.0,0.0
36.500,0.9186282604932785,1.8102259635925293,0.25426438450813293,0.002549005439504981,0.0,0.0,0.5224073529243469,-1.0593770146369934,-0.6183669865131378,-0.37196068465709686,0.0,0.0
36.600,1.111989093678338,1.8337638207844325,0.42640232188361016,0.0015317212258066457,0.0,0.0,0.514629704611642,-1.0644959381648473,-0.6117572869573321,-0.368546656199864,0.0,0.0
36.700,1.305349926863398,1.8573016779763358,0.5985402592590878,0.0005144370121083087,0.0,0.0,0.5068520562989371,-1.069614861692701,-0.6051475874015263,-0.3651326277426311,0.0,0.0
36.800,1.4987107600484575,1.880839535168239,0.770678196634565,-0.0005028472015900266,0.0,0.0,0.4990744079862322,-1.074733785220555,-0.5985378878457206,-0.3617185992853982,0.0,0.0
36.900,1.6920715932335173,1.9043773923601424,0.9428161340100425,-0.0015201314152883637,0.0,0.0,0.4912967596735273,-1.0798527087484087,-0.5919281882899148,-0.35830457082816536,0.0,0.0
37.000,1.8854324264185767,1.9279152495520455,1.1149540713855197,-0.002537415628986699,0.0,0.0,0.48351911136082243,-1.0849716322762626,-0.5853184887341091,-0.3548905423709324,0.0,0.0
37.100,2.0787932596036365,1.9514531067439487,1.2870920087609972,-0.003554699842685036,0.0,0.0,0.4757414630481175,-1.0900905558041163,-0.5787087891783033,-0.35147651391369955,0.0,0.0
37.200,2.2721540927886963,1.974990963935852,1.4592299461364746,-0.004571984056383371,0.0,0.0,0.4679638147354126,-1.0952094793319702,-0.5720990896224976,-0.3480624854564667,0.0,0.0
37.300,2.3618907928466797,1.8741297721862793,1.3834168910980225,-0.10516729205846786,0.0,0.0,0.3434772789478302,-1.1639200448989868,-0.4626659154891968,-0.2953256070613861,0.0,0.0
37.400,2.1691936194896697,1.8808796644210815,1.1876288771629333,-0.10918579287827015,0.0,0.0,0.33811927363276484,-1.1663818061351776,-0.4579432651400566,-0.29336047321558,0.0,0.0
37.500,1.97649644613266,1.8876295566558838,0.9918408632278441,-0.11320429369807243,0.0,0.0,0.3327612683176994,-1.1688435673713684,-0.45322061479091647,-0.29139533936977385,0.0,0.0
37.600,1.7837992727756502,1.894379448890686,0.7960528492927551,-0.11722279451787472,0.0,0.0,0.32740326300263406,-1.1713053286075592,-0.44849796444177625,-0.28943020552396775,0.0,0.0
37.700,1.5911020994186402,1.9011293411254884,0.600264835357666,-0.121241295337677,0.0,0.0,0.32204525768756864,-1.17376708984375,-0.4437753140926361,-0.2874650716781616,0.0,0.0
37.800,1.3984049260616302,1.9078792333602905,0.4044768214225769,-0.1252597961574793,0.0,0.0,0.3166872523725033,-1.1762288510799408,-0.43905266374349594,-0.2854999378323555,0.0,0.0
37.900,1.2057077527046205,1.9146291255950927,0.20868880748748775,-0.12927829697728158,0.0,0.0,0.3113292470574379,-1.1786906123161316,-0.4343300133943558,-0.2835348039865494,0.0,0.0
38.000,1.0130105793476105,1.921379017829895,0.012900793552398815,-0.13329679779708387,0.0,0.0,0.3059712417423725,-1.1811523735523224,-0.42960736304521563,-0.28156967014074324,0.0,0.0
38.100,0.8203134059906005,1.9281289100646972,-0.18288722038269056,-0.13731529861688613,0.0,0.0,0.30061323642730714,-1.1836141347885132,-0.4248847126960754,-0.27960453629493714,0.0,0.0
38.200,0.6276162326335906,1.9348788022994996,-0.3786752343177795,-0.14133379943668842,0.0,0.0,0.2952552311122417,-1.186075896024704,-0.42016206234693526,-0.277639402449131,0.0,0.0
38.300,0.4349190592765808,1.9416286945343018,-0.5744632482528687,-0.1453523002564907,0.0,0.0,0.28989722579717636,-1.1885376572608948,-0.4154394119977951,-0.2756742686033249,0.0,0.0
38.400,0.24222188591957083,1.948378586769104,-0.770251262187958,-0.149370801076293,0.0,0.0,0.284539220482111,-1.1909994184970856,-0.41071676164865495,-0.2737091347575188,0.0,0.0
38.500,0.0495247125625613,1.9551284790039063,-0.966039276123047,-0.1533893018960953,0.0,0.0,0.2791812151670456,-1.1934611797332764,-0.4059941112995148,-0.27174400091171264,0.0,0.0
38.600,-0.14317246079444912,1.9618783712387085,-1.161827290058136,-0.15740780271589755,0.0,0.0,0.2738232098519802,-1.1959229409694672,-0.4012714609503746,-0.26977886706590654,0.0,0.0
38.700,-0.33586963415145865,1.9686282634735108,-1.3576153039932248,-0.16142630353569984,0.0,0.0,0.2684652045369148,-1.198384702205658,-0.3965488106012344,-0.2678137332201004,0.0,0.0
38.800,-0.5285668075084686,1.975378155708313,-1.5534033179283142,-0.16544480435550213,0.0,0.0,0.26310719922184944,-1.2008464634418488,-0.39182616025209427,-0.2658485993742943,0.0,0.0
38.900,-0.7212639808654786,1.9821280479431151,-1.7491913318634036,-0.16946330517530442,0.0,0.0,0.2577491939067841,-1.2033082246780396,-0.3871035099029541,-0.2638834655284882,0.0,0.0
39.000,-0.9139611542224881,1.9888779401779175,-1.9449793457984925,-0.1734818059951067,0.0,0.0,0.25239118859171866,-1.2057699859142303,-0.38238085955381396,-0.261918331682682,0.0,0.0
39.100,-1.1066583275794986,1.9956278324127197,-2.1407673597335815,-0.17750030681490897,0.0,0.0,0.2470331832766533,-1.2082317471504211,-0.37765820920467374,-0.2599531978368759,0.0,0.0
39.200,-1.299355500936508,2.002377724647522,-2.3365553736686704,-0.18151880763471126,0.0,0.0,0.2416751779615879,-1.210693508386612,-0.3729355588555336,-0.25798806399106977,0.0,0.0
39.300,-1.492052674293518,2.009127616882324,-2.5323433876037598,-0.18553730845451355,0.0,0.0,0.23631717264652252,-1.2131552696228027,-0.36821290850639343,-0.25602293014526367,0.0,0.0
39.400,-1.4254807829856873,2.0346895456314087,-2.521640419960022,-0.19585619121789932,0.0,0.0,0.1094057708978653,-1.1829607486724854,-0.30880381911993027,-0.21910951286554337,0.0,0.0
39.500,-1.3589088916778564,2.060251474380493,-2.510937452316284,-0.2061750739812851,0.0,0.0,-0.01750563085079193,-1.152766227722168,-0.2493947297334671,-0.18219609558582306,0.0,0.0
39.600,-1.2919754873961211,1.9760232761502265,-2.3195565938949585,-0.21937993988394738,0.0,0.0,-0.02663938105106354,-1.1511672139167786,-0.24358506202697755,-0.17830797098577023,0.0,0.0
39.700,-1.2250420831143856,1.89179507791996,-2.128175735473633,-0.23258480578660964,0.0,0.0,-0.03577313125133515,-1.1495682001113892,-0.23777539432048797,-0.1744198463857174,0.0,0.0
39.800,-1.1581086788326502,1.8075668796896935,-1.9367948770523071,-0.24578967168927193,0.0,0.0,-0.04490688145160675,-1.1479691863059998,-0.23196572661399842,-0.17053172178566456,0.0,0.0
39.900,-1.0911752745509147,1.723338681459427,-1.7454140186309814,-0.2589945375919342,0.0,0.0,-0.054040631651878356,-1.1463701725006104,-0.22615605890750884,-0.16664359718561172,0.0,0.0
40.000,-1.0242418702691793,1.6391104832291603,-1.5540331602096558,-0.2721994034945965,0.0,0.0,-0.06317438185214996,-1.144771158695221,-0.2203463912010193,-0.1627554725855589,0.0,0.0
40.100,-0.957308465987444,1.554882284998894,-1.36265230178833,-0.28540426939725877,0.0,0.0,-0.07230813205242156,-1.1431721448898315,-0.21453672349452974,-0.15886734798550606,0.0,0.0
40.200,-0.8903750617057085,1.470654086768627,-1.1712714433670044,-0.29860913529992106,0.0,0.0,-0.08144188225269318,-1.1415731310844421,-0.20872705578804016,-0.15497922338545322,0.0,0.0
40.300,-0.823441657423973,1.3864258885383607,-0.9798905849456787,-0.3118140012025833,0.0,0.0,-0.09057563245296478,-1.1399741172790527,-0.2029173880815506,-0.1510910987854004,0.0,0.0
40.400,-0.7565082531422377,1.3021976903080938,-0.788509726524353,-0.3250188671052456,0.0,0.0,-0.0997093826532364,-1.1383751034736633,-0.19710772037506102,-0.14720297418534756,0.0,0.0
40.500,-0.6895748488605022,1.2179694920778275,-0.5971288681030273,-0.33822373300790787,0.0,0.0,-0.108843132853508,-1.136776089668274,-0.19129805266857147,-0.14331484958529472,0.0,0.0
40.600,-0.6226414445787668,1.1337412938475608,-0.40574800968170166,-0.35142859891057016,0.0,0.0,-0.11797688305377961,-1.1351770758628845,-0.18548838496208192,-0.1394267249852419,0.0,0.0
40.700,-0.5557080402970315,1.0495130956172944,-0.21436715126037598,-0.36463346481323244,0.0,0.0,-0.1271106332540512,-1.1335780620574951,-0.17967871725559237,-0.13553860038518906,0.0,0.0
40.800,-0.4887746360152959,0.9652848973870276,-0.022986292839050293,-0.3778383307158947,0.0,0.0,-0.13624438345432283,-1.1319790482521057,-0.17386904954910276,-0.13165047578513622,0.0,0.0
40.900,-0.4218412317335606,0.8810566991567612,0.1683945655822754,-0.39104319661855697,0.0,0.0,-0.14537813365459443,-1.1303800344467163,-0.1680593818426132,-0.1277623511850834,0.0,0.0
41.000,-0.35490782745182514,0.7968285009264946,0.3597754240036011,-0.40424806252121925,0.0,0.0,-0.15451188385486603,-1.128781020641327,-0.16224971413612366,-0.12387422658503056,0.0,0.0
41.100,-0.2879744231700896,0.712600302696228,0.5511562824249268,-0.41745292842388154,0.0,0.0,-0.16364563405513763,-1.1271820068359375,-0.1564400464296341,-0.11998610198497772,0.0,0.0
41.200,-0.22104101888835426,0.6283721044659616,0.7425371408462524,-0.43065779432654383,0.0,0.0,-0.17277938425540923,-1.125582993030548,-0.15063037872314455,-0.11609797738492489,0.0,0.0
41.300,-0.15410761460661893,0.5441439062356948,0.9339179992675781,-0.44386266022920606,0.0,0.0,-0.18191313445568086,-1.1239839792251587,-0.14482071101665495,-0.11220985278487206,0.0,0.0
41.400,-0.0871742103248836,0.45991570800542836,1.1252988576889038,-0.45706752613186835,0.0,0.0,-0.19104688465595246,-1.1223849654197693,-0.1390110433101654,-0.10832172818481922,0.0,0.0
41.500,-0.02024080604314804,0.37568750977516174,1.3166797161102295,-0.47027239203453064,0.0,0.0,-0.20018063485622406,-1.1207859516143799,-0.13320137560367584,-0.10443360358476639,0.0,0.0
41.600,0.057810600847005844,0.3617118299007416,1.418912649154663,-0.49184879660606384,0.0,0.0,-0.3869877755641937,-1.07083261013031,-0.015466121025383472,0.019127430394291878,0.0,0.0
41.700,0.1886412470291058,0.388552005092303,1.3597232898076375,-0.4663226256767909,0.0,0.0,-0.4944596240917841,-0.9044960116346678,-0.19094451532388726,0.021297271363437176,0.0,0.0
41.800,0.3194718932112058,0.4153921802838643,1.300533930460612,-0.4407964547475179,0.0,0.0,-0.6019314726193745,-0.7381594131390254,-0.36642290962239105,0.023467112332582474,0.0,0.0
41.900,0.4503025393933058,0.4422323554754257,1.2413445711135864,-0.41527028381824493,0.0,0.0,-0.709403321146965,-0.571822814643383,-0.5419013039208949,0.025636953301727772,0.0,0.0
42.000,0.5811331855754057,0.46907253066698706,1.1821552117665608,-0.389744112888972,0.0,0.0,-0.8168751696745554,-0.4054862161477407,-0.7173796982193986,0.02780679427087307,0.0,0.0
42.100,0.7119638317575058,0.4959127058585485,1.1229658524195352,-0.364217941959699,0.0,0.0,-0.9243470182021459,-0.2391496176520983,-0.8928580925179025,0.029976635240018368,0.0,0.0
42.200,0.8427944779396057,0.5227528810501099,1.0637764930725098,-0.338691771030426,0.0,0.0,-1.0318188667297363,-0.072813019156456,-1.0683364868164062,0.032146476209163666,0.0,0.0
42.300,1.0236508051554363,0.6363511085510254,0.9162845611572266,-0.3006435036659241,0.0,0.0,-1.0519075393676758,-0.07795002063115437,-1.0687553882598877,0.09163736303647359,0.0,0.0
42.400,1.2045071323712666,0.7499493360519409,0.7687926292419434,-0.2625952363014221,0.0,0.0,-1.0719962120056152,-0.08308702210585277,-1.0691742897033691,0.1511282498637835,0.0,0.0
42.500,1.3853634595870972,0.8635475635528564,0.6213006973266602,-0.22454696893692017,0.0,0.0,-1.0920848846435547,-0.08822402358055115,-1.0695931911468506,0.21061913669109344,0.0,0.0
42.600,1.4136029481887817,0.7885662913322449,0.612797200679779,-0.20379312336444855,0.0,0.0,-1.1341723203659058,-0.09990044683218002,-1.0672434568405151,0.327826589345932,0.0,0.0
42.700,1.4325761795043945,0.7328909039497375,0.6070194244384766,-0.18256932497024536,0.0,0.0,-1.148917555809021,-0.08091210573911667,-1.0582835674285889,0.3252839148044586,0.0,0.0
42.800,1.4906115531921387,0.7518202066421509,0.5221179127693176,-0.14277803897857666,0.0,0.0,-1.161229133605957,-0.06166702136397362,-1.0508307218551636,0.32572850584983826,0.0,0.0
42.900,1.4828377962112427,0.7399093508720398,0.5080661177635193,-0.13935060799121857,0.0,0.0,-1.1989924907684326,-0.06856309622526169,-1.0483533143997192,0.41910320520401,0.0,0.0
43.000,1.3419540623823802,0.6475096816817919,0.6908836265405018,-0.16105742504199347,0.0,0.0,-1.1990586320559184,-0.06185329891741276,-1.0464707811673482,0.41010842720667523,0.0,0.0
43.100,1.2010703285535178,0.5551100124915441,0.8737011353174845,-0.18276424209276834,0.0,0.0,-1.199124773343404,-0.05514350160956383,-1.0445882479349773,0.4011136492093404,0.0,0.0
43.200,1.0601865947246552,0.46271034330129623,1.0565186440944672,-0.20447105914354324,0.0,0.0,-1.19919091463089,-0.0484337043017149,-1.0427057147026062,0.3921188712120056,0.0,0.0
43.300,0.9193028608957927,0.3703106741110484,1.2393361528714497,-0.22617787619431812,0.0,0.0,-1.1992570559183757,-0.04172390699386597,-1.0408231814702351,0.38312409321467084,0.0,0.0
43.400,0.7784191270669301,0.2779110049208005,1.4221536616484325,-0.24788469324509305,0.0,0.0,-1.1993231972058613,-0.035014109686017036,-1.0389406482378643,0.374129315217336,0.0,0.0
43.500,0.6375353932380676,0.18551133573055267,1.604971170425415,-0.2695915102958679,0.0,0.0,-1.1993893384933472,-0.028304312378168106,-1.0370581150054932,0.3651345372200012,0.0,0.0
43.600,0.6391453668475151,0.18432869762182236,1.6062608510255814,-0.2636440396308899,0.0,0.0,-1.1664609983563423,-0.13439636630937457,-0.8518652878701687,0.3689729906618595,0.0,0.0
43.700,0.6407553404569626,0.18314605951309204,1.6075505316257477,-0.25769656896591187,0.0,0.0,-1.1335326582193375,-0.24048842024058104,-0.6666724607348442,0.3728114441037178,0.0,0.0
43.800,0.6423653140664101,0.18196342140436172,1.608840212225914,-0.25174909830093384,0.0,0.0,-1.1006043180823326,-0.3465804741717875,-0.48147963359951973,0.3766498975455761,0.0,0.0
43.900,0.6439752876758575,0.1807807832956314,1.6101298928260803,-0.2458016276359558,0.0,0.0,-1.0676759779453278,-0.45267252810299397,-0.29628680646419525,0.3804883509874344,0.0,0.0
44.000,0.645585261285305,0.1795981451869011,1.6114195734262466,-0.23985415697097778,0.0,0.0,-1.034747637808323,-0.5587645820342004,-0.11109397932887077,0.3843268044292927,0.0,0.0
44.100,0.6471952348947525,0.17841550707817078,1.612709254026413,-0.23390668630599976,0.0,0.0,-1.001819297671318,-0.6648566359654069,0.0740988478064537,0.38816525787115097,0.0,0.0
44.200,0.6488052085042,0.17723286896944046,1.6139989346265793,-0.22795921564102173,0.0,0.0,-0.9688909575343132,-0.7709486898966134,0.2592916749417782,0.39200371131300926,0.0,0.0
44.300,0.6504151821136475,0.17605023086071014,1.6152886152267456,-0.2220117449760437,0.0,0.0,-0.9359626173973083,-0.8770407438278198,0.44448450207710266,0.39584216475486755,0.0,0.0
44.400,0.6670255064964294,0.16764572262763977,1.6293023824691772,-0.1839408576488495,0.0,0.0,-1.0077012777328491,-0.8171461820602417,0.47232505679130554,0.49920740723609924,0.0,0.0
44.500,0.6724042892456055,0.16292862594127655,1.6341049671173096,-0.14205320179462433,0.0,0.0,-1.0543171167373657,-0.7797508835792542,0.49451592564582825,0.5602777004241943,0.0,0.0
44.600,0.7277389168739319,0.15111492574214935,1.6006468534469604,-0.09802933037281036,0.0,0.0,-1.0501655340194702,-0.7793585658073425,0.493341326713562,0.5180546641349792,0.0,0.0
44.700,0.7081800699234009,0.14268413186073303,1.6059515476226807,-0.11257551610469818,0.0,0.0,-1.1483430862426758,-0.6958027482032776,0.5234482288360596,0.7091077566146851,0.0,0.0
44.800,0.7323668301105499,0.14009613543748856,1.5854749083518982,-0.09295177459716797,0.0,0.0,-1.2176986932754517,-0.6359818875789642,0.5380882918834686,0.870985746383667,0.0,0.0
44.900,0.756553590297699,0.13750813901424408,1.5649982690811157,-0.07332803308963776,0.0,0.0,-1.2870543003082275,-0.5761610269546509,0.5527283549308777,1.032863736152649,0.0,0.0
