maximpopov11/Real-Steel/ros_ws/second-bowen.csv
timestamp,left_shoulder_pitch_joint,left_shoulder_roll_joint,left_shoulder_yaw_joint,left_elbow_joint,left_wrist_roll_joint,left_wrist_pitch_joint,right_shoulder_pitch_joint,right_shoulder_roll_joint,right_shoulder_yaw_joint,right_elbow_joint,right_wrist_roll_joint,right_wrist_pitch_joint
0.000,1.4165987968444824,0.8556451201438904,0.6883419752120972,-0.15094207227230072,0.0,0.0,1.030828595161438,-0.28065457940101624,-1.0630519390106201,-0.05053166672587395,0.0,0.0
0.100,1.252680730819702,0.7034365445375442,0.8641830444335937,-0.16662442088127136,0.0,0.0,0.9343599915504456,-0.2472781866788864,-1.0586262464523315,-0.11209503710269927,0.0,0.0
0.200,1.0887626647949218,0.5512279689311981,1.0400241136550903,-0.182306769490242,0.0,0.0,0.8378913879394532,-0.21390179395675657,-1.0542005538940429,-0.1736584074795246,0.0,0.0
0.300,0.9248445987701417,0.39901939332485203,1.2158651828765867,-0.19798911809921266,0.0,0.0,0.7414227843284606,-0.1805254012346268,-1.0497748613357545,-0.23522177785634993,0.0,0.0
0.400,0.7609265327453613,0.24681081771850577,1.3917062520980834,-0.2136714667081833,0.0,0.0,0.6449541807174682,-0.14714900851249693,-1.0453491687774659,-0.29678514823317526,0.0,0.0
0.500,0.597008466720581,0.09460224211215973,1.56754732131958,-0.22935381531715393,0.0,0.0,0.5484855771064758,-0.11377261579036713,-1.0409234762191772,-0.3583485186100006,0.0,0.0
0.600,0.6168937153286405,0.08771201512879795,1.5154834191004436,-0.21239536586734983,0.0,0.0,0.5920290615823534,-0.20998815695444742,-0.8495202528105842,-0.2885056601630317,0.0,0.0
0.700,0.6367789639366997,0.08082178814543618,1.463419516881307,-0.19543691641754574,0.0,0.0,0.6355725460582309,-0.3062036981185277,-0.6581170294019911,-0.21866280171606275,0.0,0.0
0.800,0.6566642125447592,0.07393156116207442,1.4113556146621704,-0.17847846696774167,0.0,0.0,0.6791160305341084,-0.40241923928260803,-0.46671380599339807,-0.14881994326909384,0.0,0.0
0.900,0.6765494611528184,0.06704133417871264,1.359291712443034,-0.16152001751793754,0.0,0.0,0.722659515009986,-0.4986347804466883,-0.275310582584805,-0.0789770848221249,0.0,0.0
1.000,0.6964347097608778,0.060151107195350856,1.3072278102238972,-0.14456156806813347,0.0,0.0,0.7662029994858636,-0.5948503216107687,-0.08390735917621184,-0.009134226375155985,0.0,0.0
1.100,0.7163199583689371,0.05326088021198909,1.2551639080047607,-0.12760311861832938,0.0,0.0,0.8097464839617411,-0.6910658627748489,0.10749586423238111,0.06070863207181293,0.0,0.0
1.200,0.7362052069769965,0.04637065322862731,1.2031000057856243,-0.11064466916852526,0.0,0.0,0.8532899684376187,-0.7872814039389292,0.2988990876409743,0.1305514905187819,0.0,0.0
1.300,0.7560904555850558,0.03948042624526554,1.1510361035664878,-0.09368621971872118,0.0,0.0,0.8968334529134963,-0.8834969451030095,0.49030231104956723,0.2003943489657508,0.0,0.0
1.400,0.7759757041931152,0.03259019926190376,1.098972201347351,-0.07672777026891708,0.0,0.0,0.9403769373893738,-0.9797124862670898,0.6817055344581604,0.2702372074127197,0.0,0.0
1.500,0.781999409198761,0.11425946652889252,0.9225297510623932,-0.06104200563859194,0.0,0.0,0.9405579566955566,-0.8769492745399475,0.5717767626047134,0.21753924805670977,0.0,0.0
1.600,0.7880231142044067,0.19592873379588127,0.7460873007774353,-0.0453562410082668,0.0,0.0,0.9407389760017395,-0.7741860628128052,0.4618479907512665,0.1648412887006998,0.0,0.0
1.700,0.7940468192100525,0.27759800106287,0.5696448504924775,-0.029670476377941672,0.0,0.0,0.9409199953079224,-0.6714228510856628,0.3519192188978195,0.11214332934468985,0.0,0.0
1.800,0.8000705242156982,0.3592672683298588,0.3932024002075195,-0.013984711747616521,0.0,0.0,0.9411010146141052,-0.5686596393585205,0.24199044704437256,0.059445369988679886,0.0,0.0
1.900,0.806094229221344,0.44093653559684753,0.21675994992256165,0.001701052882708609,0.0,0.0,0.9412820339202881,-0.4658964276313782,0.1320616751909256,0.006747410632669926,0.0,0.0
2.000,0.8855498234430949,0.3949129680792491,0.07512796918551129,0.1624762190040201,0.0,0.0,0.9002021749814352,-0.4141169985135396,0.14289367695649466,0.08149860861400762,0.0,0.0
2.100,0.9650054176648457,0.34888940056165063,-0.06650401155153907,0.3232513851253316,0.0,0.0,0.8591223160425822,-0.3623375693957011,0.1537256787220637,0.15624980659534532,0.0,0.0
2.200,1.0444610118865967,0.3028658330440521,-0.20813599228858948,0.48402655124664307,0.0,0.0,0.8180424571037292,-0.31055814027786255,0.16455768048763275,0.23100100457668304,0.0,0.0
2.300,0.9178700099388759,0.3990932653347651,-0.3994143853584925,0.44991861283779144,0.0,0.0,0.822874516248703,-0.28840674708286923,0.16514349480470022,0.2437584176659584,0.0,0.0
2.400,0.791279007991155,0.4953206976254781,-0.5906927784283955,0.4158106744289398,0.0,0.0,0.8277065753936768,-0.26625535388787586,0.16572930912176767,0.25651583075523376,0.0,0.0
2.500,0.6646880060434341,0.5915481299161911,-0.7819711714982986,0.3817027360200882,0.0,0.0,0.8325386345386505,-0.24410396069288254,0.16631512343883514,0.2692732438445091,0.0,0.0
2.600,0.5380970040957134,0.6877755622069041,-0.9732495645682017,0.3475947976112366,0.0,0.0,0.8373706936836243,-0.22195256749788922,0.16690093775590262,0.2820306569337845,0.0,0.0
2.700,0.4115060021479924,0.7840029944976171,-1.164527957638105,0.31348685920238495,0.0,0.0,0.842202752828598,-0.19980117430289585,0.16748675207297006,0.29478807002305984,0.0,0.0
2.800,0.2849150002002716,0.8802304267883301,-1.3558063507080078,0.2793789207935333,0.0,0.0,0.8470348119735718,-0.17764978110790253,0.16807256639003754,0.3075454831123352,0.0,0.0
2.900,0.35307767391204836,0.7914377868175506,-1.2143444299697876,0.29247501492500305,0.0,0.0,0.764302933216095,-0.2681924939155579,0.33385629653930665,0.3112050235271454,0.0,0.0
3.000,0.4212403476238251,0.7026451468467713,-1.0728825092315675,0.3055711090564728,0.0,0.0,0.6815710544586182,-0.35873520672321324,0.49964002668857577,0.31486456394195556,0.0,0.0
3.100,0.48940302133560176,0.6138525068759919,-0.9314205884933472,0.3186672031879425,0.0,0.0,0.5988391757011413,-0.44927791953086854,0.6654237568378448,0.31852410435676576,0.0,0.0
3.200,0.5575656950473786,0.5250598669052124,-0.7899586677551269,0.33176329731941223,0.0,0.0,0.5161072969436645,-0.539820632338524,0.831207486987114,0.3221836447715759,0.0,0.0
3.300,0.6257283687591553,0.436267226934433,-0.6484967470169067,0.34485939145088196,0.0,0.0,0.43337541818618774,-0.6303633451461792,0.9969912171363831,0.3258431851863861,0.0,0.0
3.400,0.7077615261077881,0.3302600085735321,-0.608880341053009,0.4081304669380188,0.0,0.0,0.5808267593383789,-0.4691822826862335,0.8910483121871948,0.46512848138809204,0.0,0.0
3.500,0.6397766868273417,0.4122746388117472,-0.7673450708389282,0.3920497198899587,0.0,0.0,0.5670259197552999,-0.4605463147163391,0.8955657879511515,0.46755032738049823,0.0,0.0
3.600,0.5717918475468954,0.49428926904996234,-0.9258098006248474,0.3759689728418986,0.0,0.0,0.5532250801722208,-0.4519103467464447,0.9000832637151083,0.4699721733729045,0.0,0.0
3.700,0.503807008266449,0.5763038992881775,-1.0842745304107666,0.3598882257938385,0.0,0.0,0.5394242405891418,-0.4432743787765503,0.9046007394790649,0.47239401936531067,0.0,0.0
3.800,0.5684488614400228,0.5072823166847229,-0.9284799893697103,0.37156854073206586,0.0,0.0,0.5407294631004333,-0.45135865608851117,0.9048643310864767,0.4583605130513509,0.0,0.0
3.900,0.6330907146135966,0.4382607340812683,-0.772685448328654,0.38324885567029315,0.0,0.0,0.5420346856117249,-0.459442933400472,0.9051279226938883,0.4443270067373912,0.0,0.0
4.000,0.6977325677871704,0.3692391514778137,-0.6168909072875977,0.3949291706085205,0.0,0.0,0.5433399081230164,-0.46752721071243286,0.9053915143013,0.4302935004234314,0.0,0.0
4.100,0.7844310998916626,0.3132273256778717,-0.4234924614429474,0.46983832120895386,0.0,0.0,0.5824174880981445,-0.5303581357002258,0.9017283916473389,0.49240168929100037,0.0,0.0
4.200,0.8282209932804108,0.2180861011147499,-0.2516556903719902,0.41881920397281647,0.0,0.0,0.5441998541355133,-0.612980306148529,0.9356347620487213,0.4139288514852524,0.0,0.0
4.300,0.8720108866691589,0.12294487655162811,-0.07981891930103302,0.3678000867366791,0.0,0.0,0.5059822201728821,-0.6956024765968323,0.9695411324501038,0.3354560136795044,0.0,0.0
4.400,0.8983725547790528,0.14650276005268098,-0.08690427243709564,0.3761238157749176,0.0,0.0,0.5549997925758362,-0.6202596724033356,0.8041987359523773,0.2886882916092873,0.0,0.0
4.500,0.9247342228889466,0.17006064355373382,-0.09398962557315826,0.38444754481315613,0.0,0.0,0.6040173649787903,-0.5449168682098389,0.6388563394546509,0.24192056953907012,0.0,0.0
4.600,0.9510958909988403,0.19361852705478666,-0.10107497870922089,0.39277127385139465,0.0,0.0,0.6530349373817443,-0.46957406401634216,0.47351394295692445,0.195152847468853,0.0,0.0
4.700,0.9774575591087341,0.21717641055583953,-0.10816033184528351,0.4010950028896332,0.0,0.0,0.7020525097846985,-0.39423125982284546,0.308171546459198,0.14838512539863585,0.0,0.0
4.800,1.003819227218628,0.2407342940568924,-0.11524568498134613,0.4094187319278717,0.0,0.0,0.7510700821876526,-0.31888845562934875,0.14282914996147156,0.10161740332841873,0.0,0.0
4.900,0.9981764554977417,0.33718596895535785,-0.11478212475776672,0.374004602432251,0.0,0.0,0.7822877168655396,-0.2282695422569911,-0.026317209005355835,0.020706196626027434,0.0,0.0
5.000,0.9925336837768555,0.4336376438538233,-0.11431856453418732,0.33859047293663025,0.0,0.0,0.8135053515434265,-0.1376506288846334,-0.19546356797218323,-0.06020501007636386,0.0,0.0
5.100,0.9868909120559692,0.5300893187522888,-0.11385500431060791,0.3031763434410095,0.0,0.0,0.8447229862213135,-0.047031715512275696,-0.3646099269390106,-0.1411162167787552,0.0,0.0
5.200,0.951659195125103,0.46475501626264304,0.0353412926197052,0.27115541137754917,0.0,0.0,0.7965451367199421,-0.2035250272601843,-0.17568253353238106,-0.09291324578225613,0.0,0.0
5.300,0.9164274781942368,0.39942071377299726,0.1845375895500183,0.23913447931408882,0.0,0.0,0.7483672872185707,-0.3600183390080929,0.013244859874248505,-0.044710274785757065,0.0,0.0
5.400,0.8811957612633705,0.3340864112833515,0.3337338864803314,0.20711354725062847,0.0,0.0,0.7001894377171993,-0.5165116507560015,0.20217225328087807,0.0034926962107419968,0.0,0.0
5.500,0.8459640443325043,0.2687521087937057,0.48293018341064453,0.17509261518716812,0.0,0.0,0.6520115882158279,-0.6730049625039101,0.39109964668750763,0.05169566720724106,0.0,0.0
5.600,0.810732327401638,0.20341780630405992,0.6321264803409576,0.14307168312370777,0.0,0.0,0.6038337387144566,-0.8294982742518187,0.5800270400941372,0.09989863820374012,0.0,0.0
5.700,0.7755006104707718,0.13808350381441414,0.7813227772712708,0.11105075106024742,0.0,0.0,0.5556558892130852,-0.9859915859997272,0.7689544335007668,0.14810160920023918,0.0,0.0
5.800,0.7402688935399055,0.07274920132476836,0.9305190742015839,0.07902981899678707,0.0,0.0,0.5074780397117138,-1.1424848977476358,0.9578818269073963,0.19630458019673824,0.0,0.0
5.900,0.7050371766090393,0.007414898835122585,1.079715371131897,0.04700888693332672,0.0,0.0,0.4593001902103424,-1.2989782094955444,1.1468092203140259,0.2445075511932373,0.0,0.0
6.000,0.6727806457451412,0.009221667423844337,1.1275545869554793,0.017052316239901954,0.0,0.0,0.5703536697796413,-1.2048078690256392,0.9533807997192656,0.2183394958930356,0.0,0.0
6.100,0.6405241148812431,0.01102843601256609,1.1753938027790614,-0.012904254453522813,0.0,0.0,0.6814071493489402,-1.110637528555734,0.7599523791245052,0.19217144059283392,0.0,0.0
6.200,0.6082675840173449,0.012835204601287842,1.2232330186026437,-0.042860825146947584,0.0,0.0,0.792460628918239,-1.0164671880858285,0.5665239585297449,0.16600338529263226,0.0,0.0
6.300,0.5760110531534468,0.014641973190009594,1.271072234426226,-0.07281739584037235,0.0,0.0,0.9035141084875379,-0.9222968476159232,0.3730955379349845,0.13983532999243056,0.0,0.0
6.400,0.5437545222895486,0.016448741778731346,1.3189114502498083,-0.10277396653379714,0.0,0.0,1.0145675880568368,-0.8281265071460179,0.17966711734022411,0.11366727469222887,0.0,0.0
6.500,0.5114979914256504,0.0182555103674531,1.3667506660733904,-0.1327305372272219,0.0,0.0,1.1256210676261356,-0.7339561666761126,-0.013761303254536061,0.08749921939202718,0.0,0.0
6.600,0.4792414605617523,0.02006227895617485,1.4145898818969727,-0.16268710792064667,0.0,0.0,1.2366745471954346,-0.6397858262062073,-0.20718972384929657,0.061331164091825485,0.0,0.0
6.700,0.5962058067321777,0.06984241902828217,1.3664047718048096,-0.09595425128936767,0.0,0.0,1.2030068635940552,-0.5534649282693863,-0.3828971743583679,0.05619361251592636,0.0,0.0
6.800,0.7131701529026031,0.11962255910038949,1.3182196617126465,-0.02922139465808868,0.0,0.0,1.1693391799926758,-0.4671440303325653,-0.5586046248674392,0.05105606094002724,0.0,0.0
6.900,0.8301344990730286,0.16940269917249678,1.2700345516204834,0.0375114619731903,0.0,0.0,1.1356714963912964,-0.38082313239574433,-0.7343120753765106,0.04591850936412811,0.0,0.0
7.000,0.947098845243454,0.21918283924460413,1.2218494415283203,0.10424431860446931,0.0,0.0,1.102003812789917,-0.2945022344589233,-0.910019525885582,0.04078095778822899,0.0,0.0
7.100,1.0640631914138794,0.2689629793167114,1.1736643314361572,0.1709771752357483,0.0,0.0,1.0683361291885376,-0.20818133652210236,-1.0857269763946533,0.035643406212329865,0.0,0.0
7.200,1.1507821679115295,0.3807038366794586,1.0211024433374405,0.16211186721920967,0.0,0.0,1.1590451896190643,-0.3289068304002285,-0.9202581271529198,0.01009921170771122,0.0,0.0
7.300,1.2375011444091797,0.4924446940422058,0.8685405552387238,0.15324655920267105,0.0,0.0,1.249754250049591,-0.44963232427835464,-0.7547892779111862,-0.015444982796907425,0.0,0.0
7.400,1.3242201209068298,0.604185551404953,0.715978667140007,0.14438125118613243,0.0,0.0,1.3404633104801178,-0.5703578181564808,-0.5893204286694527,-0.04098917730152607,0.0,0.0
7.500,1.41093909740448,0.7159264087677002,0.5634167790412903,0.1355159431695938,0.0,0.0,1.4311723709106445,-0.6910833120346069,-0.4238515794277191,-0.06653337180614471,0.0,0.0
7.600,1.4516770839691162,0.7637208998203278,0.5874639451503754,0.04650220461189747,0.0,0.0,1.487268328666687,-0.6927374303340912,-0.39694546163082123,0.06001540273427963,0.0,0.0
7.700,1.4924150705337524,0.8115153908729553,0.6115111112594604,-0.042511533945798874,0.0,0.0,1.5433642864227295,-0.6943915486335754,-0.37003934383392334,0.18656417727470398,0.0,0.0
7.800,1.3143980825940769,0.7736238771014743,0.7145123349295722,-0.079627878136105,0.0,0.0,1.5481940375434027,-0.697442028257582,-0.37404897146754795,0.18314066032568613,0.0,0.0
7.900,1.1363810946544013,0.7357323633299934,0.817513558599684,-0.11674422232641114,0.0,0.0,1.553023788664076,-0.7004925078815885,-0.37805859910117257,0.1797171433766683,0.0,0.0
8.000,0.9583641067147255,0.6978408495585123,0.9205147822697957,-0.15386056651671726,0.0,0.0,1.5578535397847493,-0.7035429875055949,-0.3820682267347972,0.17629362642765045,0.0,0.0
8.100,0.7803471187750499,0.6599493357870314,1.0235160059399075,-0.1909769107070234,0.0,0.0,1.5626832909054227,-0.7065934671296014,-0.3860778543684218,0.1728701094786326,0.0,0.0
8.200,0.6023301308353741,0.6220578220155504,1.1265172296100192,-0.22809325489732954,0.0,0.0,1.5675130420260959,-0.7096439467536079,-0.39008748200204635,0.16944659252961478,0.0,0.0
8.300,0.42431314289569855,0.5841663082440695,1.2295184532801309,-0.26520959908763564,0.0,0.0,1.5723427931467693,-0.7126944263776144,-0.39409710963567096,0.16602307558059692,0.0,0.0
8.400,0.24629615495602297,0.5462747944725884,1.3325196769502428,-0.3023259432779418,0.0,0.0,1.5771725442674425,-0.7157449060016208,-0.3981067372692956,0.16259955863157907,0.0,0.0
8.500,0.0682791670163474,0.5083832807011075,1.4355209006203546,-0.33944228746824795,0.0,0.0,1.5820022953881159,-0.7187953856256273,-0.4021163649029202,0.15917604168256125,0.0,0.0
8.600,-0.1097378209233284,0.47049176692962646,1.5385221242904663,-0.3765586316585541,0.0,0.0,1.586832046508789,-0.7218458652496338,-0.4061259925365448,0.1557525247335434,0.0,0.0
8.700,0.07962772343307734,0.4993818551301956,1.4564600586891174,-0.3436008617281914,0.0,0.0,1.5857535749673843,-0.7175454422831535,-0.426411185413599,0.13084969716146588,0.0,0.0
8.800,0.26899326778948307,0.5282719433307648,1.3743979930877686,-0.3106430917978287,0.0,0.0,1.5846751034259796,-0.7132450193166733,-0.44669637829065323,0.10594686958938837,0.0,0.0
8.900,0.4583588121458888,0.5571620315313339,1.2923359274864197,-0.277685321867466,0.0,0.0,1.583596631884575,-0.708944596350193,-0.46698157116770744,0.08104404201731086,0.0,0.0
9.000,0.6477243565022945,0.5860521197319031,1.2102738618850708,-0.24472755193710327,0.0,0.0,1.5825181603431702,-0.7046441733837128,-0.48726676404476166,0.056141214445233345,0.0,0.0
9.100,0.8370899008587003,0.6149422079324722,1.128211796283722,-0.21176978200674057,0.0,0.0,1.5814396888017654,-0.7003437504172325,-0.5075519569218159,0.031238386873155832,0.0,0.0
9.200,1.026455445215106,0.6438322961330414,1.046149730682373,-0.17881201207637787,0.0,0.0,1.5803612172603607,-0.6960433274507523,-0.5278371497988701,0.0063355593010783195,0.0,0.0
9.300,1.2158209895715117,0.6727223843336105,0.9640876650810242,-0.14585424214601517,0.0,0.0,1.579282745718956,-0.691742904484272,-0.5481223426759243,-0.018567268270999193,0.0,0.0
9.400,1.4051865339279175,0.7016124725341797,0.8820255994796753,-0.11289647221565247,0.0,0.0,1.5782042741775513,-0.6874424815177917,-0.5684075355529785,-0.043470095843076706,0.0,0.0
9.500,1.3989129066467285,0.7368809410503933,0.8551457609449115,-0.11621774733066559,0.0,0.0,1.4028638686452592,-0.6140405642134803,-0.7310241631099156,-0.09175991692713328,0.0,0.0
9.600,1.3926392793655396,0.7721494095666068,0.8282659224101475,-0.11953902244567871,0.0,0.0,1.2275234631129675,-0.5406386469091689,-0.8936407906668526,-0.14004973801118986,0.0,0.0
9.700,1.3863656520843506,0.8074178780828203,0.8013860838753837,-0.12286029756069183,0.0,0.0,1.0521830575806754,-0.4672367296048573,-1.0562574182237898,-0.18833955909524644,0.0,0.0
9.800,1.3800920248031616,0.8426863465990339,0.7745062453406197,-0.12618157267570496,0.0,0.0,0.8768426520483835,-0.39383481230054584,-1.2188740457807268,-0.23662938017930302,0.0,0.0
9.900,1.3738183975219727,0.8779548151152474,0.7476264068058559,-0.12950284779071808,0.0,0.0,0.7015022465160915,-0.32043289499623434,-1.381490673337664,-0.2849192012633596,0.0,0.0
10.000,1.3675447702407837,0.913223283631461,0.7207465682710921,-0.1328241229057312,0.0,0.0,0.5261618409837996,-0.2470309776919229,-1.544107300894601,-0.3332090223474162,0.0,0.0
10.100,1.3612711429595947,0.9484917521476746,0.6938667297363281,-0.13614539802074432,0.0,0.0,0.35082143545150757,-0.1736290603876114,-1.706723928451538,-0.3814988434314728,0.0,0.0
10.200,1.1681938879191875,0.8746863380074501,0.7984584271907806,-0.15964584611356258,0.0,0.0,0.33889300748705864,-0.1650417847558856,-1.673470914363861,-0.38602863624691963,0.0,0.0
10.300,0.9751166328787804,0.8008809238672256,0.9030501246452332,-0.18314629420638084,0.0,0.0,0.3269645795226097,-0.1564545091241598,-1.640217900276184,-0.3905584290623665,0.0,0.0
10.400,0.7820393778383732,0.7270755097270012,1.0076418220996857,-0.2066467422991991,0.0,0.0,0.3150361515581608,-0.14786723349243402,-1.606964886188507,-0.39508822187781334,0.0,0.0
10.500,0.588962122797966,0.6532700955867767,1.1122335195541382,-0.23014719039201736,0.0,0.0,0.30310772359371185,-0.13927995786070824,-1.57371187210083,-0.3996180146932602,0.0,0.0
10.600,0.3958848677575588,0.5794646814465523,1.2168252170085907,-0.2536476384848356,0.0,0.0,0.2911792956292629,-0.13069268222898245,-1.540458858013153,-0.40414780750870705,0.0,0.0
10.700,0.20280761271715164,0.5056592673063278,1.3214169144630432,-0.2771480865776539,0.0,0.0,0.279250867664814,-0.12210540659725666,-1.507205843925476,-0.4086776003241539,0.0,0.0
10.800,0.009730357676744461,0.43185385316610336,1.4260086119174957,-0.30064853467047215,0.0,0.0,0.26732243970036507,-0.11351813096553087,-1.473952829837799,-0.41320739313960075,0.0,0.0
10.900,-0.18334689736366272,0.3580484390258789,1.5306003093719482,-0.3241489827632904,0.0,0.0,0.25539401173591614,-0.10493085533380508,-1.440699815750122,-0.4177371859550476,0.0,0.0
11.000,-0.07892190558569773,0.33024199306964874,1.5297681774411882,-0.30751289640154156,0.0,0.0,0.3988715835980007,-0.18328725227287837,-1.2660416194370816,-0.35003690102270674,0.0,0.0
11.100,0.025503086192267266,0.3024355471134186,1.5289360455104284,-0.29087681003979277,0.0,0.0,0.5423491554600852,-0.26164364921195166,-1.091383423124041,-0.28233661609036587,0.0,0.0
11.200,0.12992807797023226,0.2746291011571884,1.5281039135796683,-0.2742407236780439,0.0,0.0,0.6858267273221696,-0.34000004615102497,-0.9167252268110003,-0.21463633115802494,0.0,0.0
11.300,0.23435306974819725,0.24682265520095825,1.5272717816489083,-0.25760463731629507,0.0,0.0,0.8293042991842542,-0.41835644309009823,-0.7420670304979597,-0.14693604622568407,0.0,0.0
11.400,0.3387780615261623,0.2190162092447281,1.5264396497181483,-0.24096855095454625,0.0,0.0,0.9727818710463387,-0.49671284002917154,-0.567408834184919,-0.07923576129334314,0.0,0.0
11.500,0.44320305330412724,0.19120976328849792,1.5256075177873885,-0.22433246459279743,0.0,0.0,1.1162594429084232,-0.5750692369682449,-0.3927506378718786,-0.011535476361002273,0.0,0.0
11.600,0.5476280450820923,0.16340331733226776,1.5247753858566284,-0.20769637823104858,0.0,0.0,1.2597370147705078,-0.6534256339073181,-0.2180924415588379,0.056164808571338654,0.0,0.0
11.700,0.5176865607500076,0.134884150698781,1.4836052060127258,-0.23171014338731766,0.0,0.0,1.0995239466428757,-0.7758721262216568,-0.06764484941959381,0.052058156579732895,0.0,0.0
11.800,0.487745076417923,0.10636498406529427,1.4424350261688232,-0.25572390854358673,0.0,0.0,0.9393108785152435,-0.8983186185359955,0.08280274271965027,0.047951504588127136,0.0,0.0
11.900,0.4578035920858383,0.07784581743180752,1.4012648463249207,-0.2797376736998558,0.0,0.0,0.7790978103876114,-1.0207651108503342,0.23325033485889435,0.04384485259652138,0.0,0.0
12.000,0.42786210775375366,0.04932665079832077,1.360094666481018,-0.3037514388561249,0.0,0.0,0.6188847422599792,-1.1432116031646729,0.3836979269981384,0.03973820060491562,0.0,0.0
12.100,0.4928747653961182,0.04277606420218945,1.3052769899368286,-0.25375538393855096,0.0,0.0,0.5871636867523193,-0.9581231832504272,0.22278048396110534,0.011307519674301145,0.0,0.0
12.200,0.5578874230384827,0.03622547760605812,1.2504593133926392,-0.20375932902097701,0.0,0.0,0.5554426312446594,-0.7730347633361816,0.06186304092407224,-0.01712316125631333,0.0,0.0
12.300,0.6229000806808471,0.029674891009926797,1.1956416368484497,-0.1537632741034031,0.0,0.0,0.5237215757369995,-0.5879463434219361,-0.0990544021129608,-0.04555384218692779,0.0,0.0
12.400,0.6879127383232118,0.02312430441379547,1.1408239603042603,-0.10376721918582915,0.0,0.0,0.4920005202293396,-0.40285792350769034,-0.25997184514999394,-0.07398452311754228,0.0,0.0
12.500,0.7529253959655762,0.016573717817664146,1.0860062837600708,-0.053771164268255234,0.0,0.0,0.4602794647216797,-0.21776950359344482,-0.420889288187027,-0.10241520404815674,0.0,0.0
12.600,0.7756446480751038,0.09870109409093858,0.9161262452602387,-0.03980089388787746,0.0,0.0,0.43941208720207214,-0.26858075261116027,-0.3181871026754379,-0.06975124403834343,0.0,0.0
12.700,0.7983639001846313,0.180828470364213,0.7462462067604065,-0.025830623507499692,0.0,0.0,0.4185447096824646,-0.3193920016288757,-0.21548491716384888,-0.03708728402853012,0.0,0.0
12.800,0.821083152294159,0.2629558466374874,0.5763661682605744,-0.011860353127121928,0.0,0.0,0.39767733216285706,-0.3702032506465912,-0.11278273165225983,-0.004423324018716812,0.0,0.0
12.900,0.8438024044036865,0.3450832229107619,0.40648612976074217,0.0021099172532558497,0.0,0.0,0.3768099546432495,-0.42101449966430665,-0.010080546140670776,0.028240635991096497,0.0,0.0
13.000,0.8665216565132141,0.42721059918403625,0.23660609126091003,0.016080187633633614,0.0,0.0,0.35594257712364197,-0.4718257486820221,0.09262163937091827,0.060904596000909805,0.0,0.0
13.100,0.9191649357477824,0.44160428643226624,0.11160582800706229,0.14435227836171785,0.0,0.0,0.5025593241055806,-0.43971170981725055,0.10672091444333394,0.05452912673354149,0.0,0.0
13.200,0.9718082149823507,0.4559979736804962,-0.013394435246785463,0.2726243690898021,0.0,0.0,0.6491760710875193,-0.40759767095247906,0.1208201895157496,0.04815365746617317,0.0,0.0
13.300,1.024451494216919,0.4703916609287262,-0.13839469850063324,0.40089645981788635,0.0,0.0,0.795792818069458,-0.3754836320877075,0.13491946458816528,0.041778188198804855,0.0,0.0
13.400,0.9478119015693665,0.3321841061115265,-0.05179141089320183,0.30566930770874023,0.0,0.0,0.8453102111816406,-0.27234214544296265,0.16075338423252106,0.08777986466884613,0.0,0.0
13.500,0.9545446336269379,0.32393622398376465,-0.17404027841985226,0.41036662459373474,0.0,0.0,0.8115810751914978,-0.22216533869504929,0.1630176603794098,0.11717002838850021,0.0,0.0
13.600,0.9612773656845093,0.3156883418560028,-0.2962891459465027,0.5150639414787292,0.0,0.0,0.777851939201355,-0.17198853194713593,0.16528193652629852,0.1465601921081543,0.0,0.0
13.700,0.9050559997558594,0.1466059386730194,-0.10756155848503113,0.3981180489063263,0.0,0.0,0.8058622479438782,-0.10385990887880325,0.17386095225811005,0.15490186214447021,0.0,0.0
13.800,0.9018068313598633,0.12971661612391472,-0.12842143699526787,0.47170811146497726,0.0,0.0,0.7462868988513947,-0.23898289166390896,0.3666628934442997,0.18703977018594742,0.0,0.0
13.900,0.8985576629638672,0.11282729357481003,-0.1492813155055046,0.5452981740236282,0.0,0.0,0.6867115497589111,-0.37410587444901466,0.5594648346304893,0.21917767822742462,0.0,0.0
14.000,0.8953084945678711,0.09593797102570534,-0.17014119401574135,0.6188882365822792,0.0,0.0,0.6271362006664276,-0.5092288572341204,0.752266775816679,0.2513155862689018,0.0,0.0
14.100,0.892059326171875,0.07904864847660065,-0.1910010725259781,0.6924782991409302,0.0,0.0,0.5675608515739441,-0.6443518400192261,0.9450687170028687,0.28345349431037903,0.0,0.0
14.200,0.8008900880813599,0.19589164853096008,-0.31431618332862854,0.7330834865570068,0.0,0.0,0.5683950781822205,-0.5962560772895813,0.9456942081451416,0.2969529926776886,0.0,0.0
14.300,0.7261753082275391,0.29510360956192017,-0.4685392528772354,0.6056011766195297,0.0,0.0,0.564925879240036,-0.5919881463050842,0.9459894299507141,0.3080171048641205,0.0,0.0
14.400,0.6514605283737183,0.39431557059288025,-0.6227623224258423,0.4781188666820526,0.0,0.0,0.5614566802978516,-0.5877202153205872,0.9462846517562866,0.31908121705055237,0.0,0.0
14.500,0.6307648420333862,0.40658190846443176,-0.6351982355117798,0.4532161056995392,0.0,0.0,0.5223426222801208,-0.5619635581970215,0.8975913524627686,0.25115612149238586,0.0,0.0
14.600,0.7106720209121704,0.30768852680921555,-0.4964800924062729,0.5178104788064957,0.0,0.0,0.5358836054801941,-0.5748231112957001,0.9272192120552063,0.2608451545238495,0.0,0.0
14.700,0.7905791997909546,0.20879514515399933,-0.357761949300766,0.5824048519134521,0.0,0.0,0.5494245886802673,-0.5876826643943787,0.956847071647644,0.2705341875553131,0.0,0.0
14.800,0.7379367053508759,0.3009422793984413,-0.4844330698251724,0.5248794704675674,0.0,0.0,0.5611708760261536,-0.560820460319519,0.9450508952140808,0.32902437448501587,0.0,0.0
14.900,0.6852942109107971,0.3930894136428833,-0.6111041903495789,0.46735408902168274,0.0,0.0,0.5729171633720398,-0.5339582562446594,0.9332547187805176,0.38751456141471863,0.0,0.0
15.000,0.6819202303886414,0.40428125858306885,-0.6176456212997437,0.44534099102020264,0.0,0.0,0.5625497698783875,-0.5332036018371582,0.9006336331367493,0.30468282103538513,0.0,0.0
15.100,0.6804666519165039,0.4456450045108795,-0.625526487827301,0.44048789143562317,0.0,0.0,0.558673620223999,-0.5294480919837952,0.9014589190483093,0.31588104367256165,0.0,0.0
15.200,0.7502900958061218,0.3580022305250168,-0.5044984817504883,0.5110122412443161,0.0,0.0,0.5506677031517029,-0.5544429421424866,0.9295755326747894,0.30416254699230194,0.0,0.0
15.300,0.8201135396957397,0.27035945653915405,-0.38347047567367554,0.581536591053009,0.0,0.0,0.5426617860794067,-0.579437792301178,0.9576921463012695,0.29244405031204224,0.0,0.0
15.400,0.8492107391357422,0.15736019983887672,-0.2308165729045868,0.5403995662927628,0.0,0.0,0.5658821165561676,-0.5794934034347534,0.9470046758651733,0.3005792647600174,0.0,0.0
15.500,0.8783079385757446,0.044360943138599396,-0.07816267013549805,0.4992625415325165,0.0,0.0,0.5891024470329285,-0.5795490145683289,0.9363172054290771,0.30871447920799255,0.0,0.0
15.600,0.8502987325191498,0.007475953549146652,0.00497189536690712,0.39690636098384857,0.0,0.0,0.5447932481765747,-0.6242179572582245,0.9547964632511139,0.28203970193862915,0.0,0.0
15.700,0.8222895264625549,-0.02940903604030609,0.08810646086931229,0.29455018043518066,0.0,0.0,0.500484049320221,-0.6688868999481201,0.9732757210731506,0.25536492466926575,0.0,0.0
15.800,0.8471575856208802,0.030216616392135624,0.02528091669082641,0.3318582534790039,0.0,0.0,0.5470187067985535,-0.5796607345342636,0.8097248345613479,0.22606966495513917,0.0,0.0
15.900,0.8720256447792053,0.08984226882457734,-0.037544627487659465,0.36916632652282716,0.0,0.0,0.593553364276886,-0.49043456912040706,0.6461739480495452,0.19677440524101258,0.0,0.0
16.000,0.8968937039375305,0.14946792125701905,-0.10037017166614531,0.4064743995666504,0.0,0.0,0.6400880217552185,-0.4012084037065506,0.48262306153774265,0.16747914552688598,0.0,0.0
16.100,0.9217617630958557,0.20909357368946077,-0.16319571584463122,0.44378247261047366,0.0,0.0,0.686622679233551,-0.31198223829269406,0.3190721750259399,0.1381838858127594,0.0,0.0
16.200,0.9466298222541809,0.26871922612190247,-0.22602126002311707,0.4810905456542969,0.0,0.0,0.7331573367118835,-0.22275607287883759,0.15552128851413727,0.10888862609863281,0.0,0.0
16.300,0.9927670359611511,0.4158321022987366,-0.1681378036737442,0.4585210978984833,0.0,0.0,0.8833398818969727,-0.37336453795433044,0.14926165342330933,0.05972807854413986,0.0,0.0
16.400,1.0073044300079346,0.46804465850194293,-0.14904766778151193,0.42856817444165546,0.0,0.0,0.8584030667940775,-0.2657812349498272,-0.01410542925198871,-0.028483758370081574,0.0,0.0
16.500,1.021841824054718,0.5202572147051493,-0.1299575318892797,0.3986152509848277,0.0,0.0,0.8334662516911825,-0.15819793194532394,-0.17747251192728675,-0.11669559528430301,0.0,0.0
16.600,1.0363792181015015,0.5724697709083557,-0.11086739599704742,0.3686623275279999,0.0,0.0,0.8085294365882874,-0.050614628940820694,-0.34083959460258484,-0.20490743219852448,0.0,0.0
16.700,1.0780334949493409,0.5447766661643982,0.07453910112380982,0.36978405714035034,0.0,0.0,0.8462071776390075,-0.0710163414478302,-0.46677019596099856,-0.19271951019763947,0.0,0.0
16.800,1.1196877717971803,0.5170835614204407,0.25994559824466706,0.3709057867527008,0.0,0.0,0.8838849186897277,-0.0914180539548397,-0.5927007973194123,-0.18053158819675447,0.0,0.0
16.900,1.1613420486450194,0.4893904566764832,0.4453520953655242,0.37202751636505127,0.0,0.0,0.921562659740448,-0.11181976646184921,-0.7186313986778259,-0.16834366619586943,0.0,0.0
17.000,1.2029963254928588,0.46169735193252565,0.6307585924863816,0.37314924597740173,0.0,0.0,0.9592404007911682,-0.13222147896885872,-0.8445620000362396,-0.15615574419498443,0.0,0.0
17.100,1.2446506023406982,0.4340042471885681,0.8161650896072388,0.3742709755897522,0.0,0.0,0.9969181418418884,-0.15262319147586823,-0.9704926013946533,-0.14396782219409943,0.0,0.0
17.200,1.2695567607879639,0.4953890085220337,0.7725847244262696,0.285311259329319,0.0,0.0,0.7974865961848991,-0.14129161536693574,-1.0582003593444824,-0.19846035838127135,0.0,0.0
17.300,1.2944629192352295,0.5567737698554993,0.7290043592453003,0.1963515430688858,0.0,0.0,0.5980550505279097,-0.12996003925800323,-1.1459081172943115,-0.2529528945684433,0.0,0.0
17.400,1.3193690776824951,0.6181585311889648,0.6854239940643311,0.1073918268084526,0.0,0.0,0.39862350487092046,-0.11862846314907075,-1.2336158752441406,-0.30744543075561526,0.0,0.0
17.500,1.3442752361297607,0.6795432925224304,0.6418436288833618,0.01843211054801941,0.0,0.0,0.19919195921393107,-0.10729688704013823,-1.3213236331939697,-0.3619379669427872,0.0,0.0
17.600,1.3691813945770264,0.740928053855896,0.5982632637023926,-0.07052760571241379,0.0,0.0,-0.00023958644305821508,-0.09596531093120575,-1.4090313911437988,-0.4164305031299591,0.0,0.0
17.700,1.3832830667495728,0.7252548933029175,0.6023670434951782,-0.0028580844402313205,0.0,0.0,0.19942521603079513,-0.13275659084320068,-1.3339611530303954,-0.3461277797818184,0.0,0.0
17.800,1.3973847389221192,0.709581732749939,0.6064708232879639,0.06481143683195115,0.0,0.0,0.3990900185046485,-0.16954787075519562,-1.2588909149169922,-0.27582505643367766,0.0,0.0
17.900,1.4114864110946654,0.6939085721969604,0.6105746030807495,0.1324809581041336,0.0,0.0,0.5987548209785017,-0.20633915066719055,-1.1838206768035888,-0.20552233308553697,0.0,0.0
18.000,1.4255880832672119,0.6782354116439819,0.6146783828735352,0.20015047937631608,0.0,0.0,0.7984196234523552,-0.24313043057918549,-1.1087504386901856,-0.13521960973739622,0.0,0.0
18.100,1.4396897554397583,0.6625622510910034,0.6187821626663208,0.26782000064849854,0.0,0.0,0.9980844259262085,-0.2799217104911804,-1.0336802005767822,-0.06491688638925552,0.0,0.0
18.200,1.4365955193837483,0.6896672149499258,0.6306933065255483,0.20464872072140378,0.0,0.0,0.8102402513225874,-0.2715992107987404,-1.1210651397705078,-0.12275925402839978,0.0,0.0
18.300,1.4335012833277385,0.716772178808848,0.6426044503847758,0.141477440794309,0.0,0.0,0.6223960767189662,-0.26327671110630035,-1.2084500789642334,-0.18060162166754404,0.0,0.0
18.400,1.4304070472717285,0.7438771426677704,0.6545155942440033,0.0783061608672142,0.0,0.0,0.434551902115345,-0.2549542114138603,-1.295835018157959,-0.2384439893066883,0.0,0.0
18.500,1.4273128112157185,0.7709821065266927,0.6664267381032308,0.015134880940119444,0.0,0.0,0.24670772751172387,-0.2466317117214203,-1.3832199573516846,-0.29628635694583255,0.0,0.0
18.600,1.4242185751597087,0.7980870703856151,0.6783378819624583,-0.04803639898697537,0.0,0.0,0.058863552908102634,-0.23830921202898026,-1.4706048965454102,-0.35412872458497685,0.0,0.0
18.700,1.4211243391036987,0.8251920342445374,0.6902490258216858,-0.11120767891407013,0.0,0.0,-0.1289806216955185,-0.22998671233654022,-1.5579898357391357,-0.4119710922241211,0.0,0.0
18.800,1.4360944543566023,0.8173031636646816,0.6830454468727112,-0.09785070908921106,0.0,0.0,0.04595320139612469,-0.24007933480398996,-1.4970169067382812,-0.34986354729958946,0.0,0.0
18.900,1.4510645696095057,0.8094142930848258,0.6758418679237366,-0.08449373926435198,0.0,0.0,0.22088702448776787,-0.2501719572714397,-1.4360439777374268,-0.2877560023750578,0.0,0.0
19.000,1.4660346848624093,0.80152542250497,0.668638288974762,-0.0711367694394929,0.0,0.0,0.39582084757941105,-0.26026457973888945,-1.3750710487365723,-0.2256484574505261,0.0,0.0
19.100,1.4810048001153129,0.7936365519251142,0.6614347100257874,-0.05777979961463384,0.0,0.0,0.5707546706710542,-0.27035720220633913,-1.3140981197357178,-0.16354091252599445,0.0,0.0
19.200,1.4959749153682165,0.7857476813452584,0.6542311310768127,-0.044422829789774756,0.0,0.0,0.7456884937626975,-0.2804498246737889,-1.2531251907348633,-0.10143336760146276,0.0,0.0
19.300,1.5109450306211198,0.7778588107654026,0.6470275521278381,-0.03106585996491569,0.0,0.0,0.9206223168543406,-0.2905424471412386,-1.1921522617340088,-0.03932582267693113,0.0,0.0
19.400,1.5259151458740234,0.7699699401855469,0.6398239731788635,-0.01770889014005661,0.0,0.0,1.0955561399459839,-0.30063506960868835,-1.1311793327331543,0.022781722247600555,0.0,0.0
19.500,1.506798654794693,0.7831521779298782,0.6592357456684113,-0.04228145815432072,0.0,0.0,1.1939611434936523,-0.39002563804388046,-0.9779755026102066,0.0383773036301136,0.0,0.0
19.600,1.4876821637153625,0.7963344156742096,0.678647518157959,-0.06685402616858482,0.0,0.0,1.2923661470413208,-0.47941620647907257,-0.8247716724872589,0.05397288501262665,0.0,0.0
19.700,1.468565672636032,0.809516653418541,0.6980592906475067,-0.09142659418284893,0.0,0.0,1.3907711505889893,-0.5688067749142647,-0.6715678423643112,0.0695684663951397,0.0,0.0
19.800,1.4494491815567017,0.8226988911628723,0.7174710631370544,-0.11599916219711304,0.0,0.0,1.4891761541366577,-0.6581973433494568,-0.5183640122413635,0.08516404777765274,0.0,0.0
19.900,1.5443395376205444,0.8096165060997009,0.6636174321174622,-0.05327940732240677,0.0,0.0,1.496392011642456,-0.761197566986084,-0.5412089228630066,-0.036239057779312134,0.0,0.0
20.000,1.5696452856063843,0.7736126184463501,0.6733117699623108,-0.053783711045980453,0.0,0.0,1.5184186697006226,-0.7359566688537598,-0.5508613586425781,-0.021763363853096962,0.0,0.0
20.100,1.3696781396865845,0.7959960699081421,0.8527289628982544,-0.19330957531929016,0.0,0.0,1.5421600341796875,-0.6673587560653687,-0.5535665154457092,0.05111844837665558,0.0,0.0
20.200,1.3665037155151367,0.7855368852615356,0.845352053642273,-0.1859743595123291,0.0,0.0,1.5933350324630737,-0.7246552109718323,-0.4231773614883423,0.15952517092227936,0.0,0.0
20.300,1.3663998246192932,0.7922879457473755,0.8452101945877075,-0.19686909019947052,0.0,0.0,1.5120596289634705,-0.6352638900279999,-0.5999344885349274,0.12207412719726562,0.0,0.0
20.400,1.3662959337234497,0.7990390062332153,0.8450683355331421,-0.20776382088661194,0.0,0.0,1.4307842254638672,-0.5458725690841675,-0.7766916155815125,0.08462308347225189,0.0,0.0
20.500,1.1683307861288388,0.7951605419317881,0.9891544580459595,-0.2649951030810674,0.0,0.0,1.4315358797709148,-0.5725699563821157,-0.729714239637057,0.08251799270510674,0.0,0.0
20.600,0.9703656385342281,0.791282077630361,1.1332405805587769,-0.32222638527552283,0.0,0.0,1.4322875340779622,-0.5992673436800638,-0.6827368636926016,0.08041290193796158,0.0,0.0
20.700,0.7724004909396172,0.7874036133289337,1.2773267030715942,-0.37945766746997833,0.0,0.0,1.4330391883850098,-0.6259647309780121,-0.6357594877481461,0.07830781117081642,0.0,0.0
20.800,0.5744353433450063,0.7835251490275065,1.4214128255844116,-0.4366889496644338,0.0,0.0,1.4337908426920574,-0.6526621182759603,-0.5887821118036907,0.07620272040367126,0.0,0.0
20.900,0.3764701957503954,0.7796466847260793,1.565498948097229,-0.4939202318588893,0.0,0.0,1.4345424969991047,-0.6793595055739086,-0.541804735859235,0.07409762963652611,0.0,0.0
21.000,0.1785050481557846,0.7757682204246521,1.7095850706100464,-0.5511515140533447,0.0,0.0,1.4352941513061523,-0.7060568928718567,-0.49482735991477966,0.07199253886938095,0.0,0.0
21.100,0.22667110711336136,0.7850178380807241,1.7659918268521626,-0.5363730639219284,0.0,0.0,1.2631397595008214,-0.6154152204593023,-0.6890973995129267,0.023436055829127632,0.0,0.0
21.200,0.2748371660709381,0.794267455736796,1.822398583094279,-0.5215946137905121,0.0,0.0,1.0909853676954906,-0.5247735480467479,-0.8833674391110737,-0.025120427211125687,0.0,0.0
21.300,0.32300322502851486,0.803517073392868,1.8788053393363953,-0.5068161636590958,0.0,0.0,0.9188309758901596,-0.4341318756341934,-1.0776374787092209,-0.07367691025137901,0.0,0.0
21.400,0.3711692839860916,0.8127666910489401,1.9352120955785115,-0.49203771352767944,0.0,0.0,0.7466765840848287,-0.34349020322163903,-1.2719075183073678,-0.12223339329163233,0.0,0.0
21.500,0.41933534294366837,0.822016308705012,1.991618851820628,-0.4772592633962631,0.0,0.0,0.5745221922794977,-0.25284853080908454,-1.4661775579055152,-0.17078987633188566,0.0,0.0
21.600,0.4675014019012451,0.831265926361084,2.048025608062744,-0.4624808132648468,0.0,0.0,0.40236780047416687,-0.16220685839653015,-1.660447597503662,-0.21934635937213898,0.0,0.0
21.700,0.4987460732460022,0.8425996661186218,2.0464239597320555,-0.45734040141105653,0.0,0.0,0.5199307918548584,-0.2187722861766815,-1.464784359931946,-0.19530701339244844,0.0,0.0
21.800,0.5299907445907592,0.8539334058761596,2.0448223114013673,-0.45219998955726626,0.0,0.0,0.63749378323555,-0.2753377139568329,-1.2691211223602294,-0.17126766741275787,0.0,0.0
21.900,0.5612354159355164,0.8652671456336976,2.0432206630706786,-0.44705957770347593,0.0,0.0,0.7550567746162414,-0.3319031417369842,-1.0734578847885132,-0.14722832143306733,0.0,0.0
22.000,0.5924800872802735,0.8766008853912354,2.0416190147399904,-0.44191916584968566,0.0,0.0,0.872619765996933,-0.3884685695171356,-0.8777946472167968,-0.12318897545337676,0.0,0.0
22.100,0.6237247586250305,0.8879346251487732,2.0400173664093018,-0.4367787539958954,0.0,0.0,0.9901827573776245,-0.445033997297287,-0.6821314096450806,-0.09914962947368622,0.0,0.0
22.200,0.7834260612726212,0.862360343337059,1.9895404875278473,-0.4431978687644005,0.0,0.0,0.9662734866142273,-0.4325980618596077,-0.6719507873058319,-0.049349699169397354,0.0,0.0
22.300,0.9431273639202118,0.8367860615253448,1.9390636086463928,-0.4496169835329056,0.0,0.0,0.9423642158508301,-0.4201621264219284,-0.6617701649665833,0.00045023113489151,0.0,0.0
22.400,1.1028286665678024,0.8112117797136307,1.8885867297649384,-0.4560360983014107,0.0,0.0,0.9184549450874329,-0.4077261909842491,-0.6515895426273346,0.050250161439180374,0.0,0.0
22.500,1.262529969215393,0.7856374979019165,1.8381098508834839,-0.46245521306991577,0.0,0.0,0.8945456743240356,-0.3952902555465698,-0.6414089202880859,0.10005009174346924,0.0,0.0
22.600,1.4147966504096985,0.6923257559537888,1.7697421610355377,-0.4588754177093506,0.0,0.0,0.8959163278341293,-0.4890482723712921,-0.47066683787852526,0.13864021748304367,0.0,0.0
22.700,1.567063331604004,0.599014014005661,1.7013744711875916,-0.4552956223487854,0.0,0.0,0.897286981344223,-0.5828062891960144,-0.2999247554689646,0.1772303432226181,0.0,0.0
22.800,1.7193300127983093,0.5057022720575333,1.6330067813396454,-0.4517158269882202,0.0,0.0,0.8986576348543167,-0.6765643060207367,-0.1291826730594039,0.21582046896219254,0.0,0.0
22.900,1.8715966939926147,0.4123905301094055,1.5646390914916992,-0.44813603162765503,0.0,0.0,0.9000282883644104,-0.770322322845459,0.041559409350156784,0.25441059470176697,0.0,0.0
23.000,1.8707034587860107,0.3911839574575424,1.5724448760350545,-0.4447438716888428,0.0,0.0,0.8072763780752817,-0.6255198493599892,-0.1465019987275203,0.21114359213970602,0.0,0.0
23.100,1.8698102235794067,0.3699773848056793,1.58025066057841,-0.4413517117500305,0.0,0.0,0.7145244677861532,-0.48071737587451935,-0.33456340680519736,0.16787658957764506,0.0,0.0
23.200,1.8689169883728027,0.3487708121538162,1.5880564451217651,-0.43795955181121826,0.0,0.0,0.6217725574970245,-0.33591490238904953,-0.5226248148828745,0.12460958701558411,0.0,0.0
23.300,1.8680237531661987,0.3275642395019531,1.5958622296651204,-0.434567391872406,0.0,0.0,0.529020647207896,-0.1911124289035797,-0.7106862229605515,0.08134258445352316,0.0,0.0
23.400,1.8671305179595947,0.30635766685009,1.6036680142084758,-0.43117523193359375,0.0,0.0,0.4362687369187673,-0.046309955418109894,-0.8987476310382287,0.03807558189146221,0.0,0.0
23.500,1.8662372827529907,0.28515109419822693,1.611473798751831,-0.4277830719947815,0.0,0.0,0.34351682662963867,0.09849251806735992,-1.0868090391159058,-0.005191420670598745,0.0,0.0
23.600,1.8654961784680684,0.2757889951268832,1.6162757873535156,-0.4255504906177521,0.0,0.0,0.4339263637860616,0.001520000398159027,-0.896734490369757,0.06890739570371807,0.0,0.0
23.700,1.8647550741831462,0.26642689605553943,1.6210777759552002,-0.42331790924072266,0.0,0.0,0.5243359009424845,-0.09545251727104187,-0.7066599416236083,0.14300621207803488,0.0,0.0
23.800,1.8640139698982239,0.2570647969841957,1.6258797645568848,-0.42108532786369324,0.0,0.0,0.6147454380989075,-0.19242503494024277,-0.5165853928774595,0.2171050284523517,0.0,0.0
23.900,1.8632728656133015,0.247702697912852,1.6306817531585693,-0.4188527464866638,0.0,0.0,0.7051549752553303,-0.28939755260944366,-0.3265108441313108,0.2912038448266685,0.0,0.0
24.000,1.8625317613283794,0.2383405988415082,1.635483741760254,-0.4166201651096344,0.0,0.0,0.7955645124117534,-0.38637007027864456,-0.136436295385162,0.3653026612009853,0.0,0.0
24.100,1.861790657043457,0.2289784997701645,1.6402857303619385,-0.414387583732605,0.0,0.0,0.8859740495681763,-0.48334258794784546,0.05363825336098671,0.4394014775753021,0.0,0.0
24.200,1.712903618812561,0.29989714423815406,1.805243968963623,-0.41421053806940716,0.0,0.0,0.8559266130129496,-0.49660633007685345,0.07878906279802322,0.43097681800524396,0.0,0.0
24.300,1.564016580581665,0.3708157887061437,1.9702022075653076,-0.4140334924062093,0.0,0.0,0.825879176457723,-0.5098700722058614,0.10393987223505974,0.42255215843518573,0.0,0.0
24.400,1.415129542350769,0.4417344331741333,2.135160446166992,-0.4138564467430115,0.0,0.0,0.7958317399024963,-0.5231338143348694,0.12909068167209625,0.41412749886512756,0.0,0.0
24.500,1.567744493484497,0.3559694091478984,1.9724525610605876,-0.4038158853848775,0.0,0.0,0.8150132695833842,-0.47894368569056195,0.09672004232803981,0.4647381901741028,0.0,0.0
24.600,1.720359444618225,0.27020438512166345,1.809744675954183,-0.3937753240267436,0.0,0.0,0.8341947992642721,-0.4347535570462545,0.06434940298398337,0.515348881483078,0.0,0.0
24.700,1.8729743957519531,0.18443936109542847,1.6470367908477783,-0.3837347626686096,0.0,0.0,0.8533763289451599,-0.390563428401947,0.03197876363992691,0.5659595727920532,0.0,0.0
24.800,1.7144010066986084,0.2212786078453064,1.8169382214546204,-0.3282686620950699,0.0,0.0,0.7952798008918762,-0.48195797204971313,0.11267619207501411,0.48288170993328094,0.0,0.0
24.900,1.5558276176452637,0.2581178545951843,1.9868396520614624,-0.27280256152153015,0.0,0.0,0.7371832728385925,-0.5733525156974792,0.19337362051010132,0.39980384707450867,0.0,0.0
25.000,1.4696354866027832,0.4373074571291605,1.977658987045288,-0.36895744005839026,0.0,0.0,0.7895366152127584,-0.5599434773127238,0.1627356136838595,0.38133566578229267,0.0,0.0
25.100,1.3834433555603027,0.6164970596631367,1.9684783220291138,-0.46511231859525043,0.0,0.0,0.8418899575869242,-0.5465344389279684,0.1320976068576177,0.3628674844900767,0.0,0.0
25.200,1.2972512245178223,0.795686662197113,1.9592976570129395,-0.5612671971321106,0.0,0.0,0.8942432999610901,-0.5331254005432129,0.10145960003137589,0.3443993031978607,0.0,0.0
25.300,1.4650344053904216,0.6402525901794434,1.7984758218129475,-0.5235367814699808,0.0,0.0,0.8846551577250162,-0.5885423620541891,0.07603602918485801,0.33249454696973163,0.0,0.0
25.400,1.6328175862630208,0.4848185181617737,1.6376539866129558,-0.4858063658078512,0.0,0.0,0.8750670154889425,-0.6439593235651652,0.050612458338340126,0.3205897907416026,0.0,0.0
25.500,1.8006007671356201,0.329384446144104,1.4768321514129639,-0.44807595014572144,0.0,0.0,0.8654788732528687,-0.6993762850761414,0.025188887491822243,0.3086850345134735,0.0,0.0
25.600,1.6207810640335083,0.40155029296875,1.560520955494472,-0.464226382119315,0.0,0.0,0.8614869798932757,-0.6631029673985073,-0.0682337928031172,0.27286663385374205,0.0,0.0
25.700,1.4409613609313965,0.473716139793396,1.64420975957598,-0.48037681409290856,0.0,0.0,0.8574950865336827,-0.6268296497208732,-0.16165647309805664,0.23704823319401058,0.0,0.0
25.800,1.2611416578292847,0.545881986618042,1.7278985636574882,-0.49652724606650217,0.0,0.0,0.8535031931740897,-0.5905563320432391,-0.2550791533929961,0.20122983253427915,0.0,0.0
25.900,1.0813219547271729,0.618047833442688,1.8115873677389962,-0.5126776780400957,0.0,0.0,0.8495112998144967,-0.554283014365605,-0.3485018336879355,0.16541143187454768,0.0,0.0
26.000,0.901502251625061,0.690213680267334,1.8952761718205045,-0.5288281100136893,0.0,0.0,0.8455194064549038,-0.5180096966879708,-0.441924513982875,0.12959303121481622,0.0,0.0
26.100,0.7216825485229492,0.76237952709198,1.9789649759020125,-0.5449785419872829,0.0,0.0,0.8415275130953107,-0.4817363790103367,-0.5353471942778144,0.09377463055508478,0.0,0.0
26.200,0.5418628454208374,0.834545373916626,2.0626537799835205,-0.5611289739608765,0.0,0.0,0.8375356197357178,-0.44546306133270264,-0.6287698745727539,0.05795622989535332,0.0,0.0
26.300,0.4903153359889984,0.813852846622467,2.0263280153274534,-0.5765007853507995,0.0,0.0,0.715778061747551,-0.38722500801086424,-0.815561032295227,-0.011774989962577823,0.0,0.0
26.400,0.4387678265571594,0.7931603193283081,1.9900022506713868,-0.5918725967407227,0.0,0.0,0.5940205037593842,-0.3289869546890259,-1.0023521900177002,-0.08150620982050896,0.0,0.0
26.500,0.38722031712532046,0.7724677920341492,1.9536764860153197,-0.6072444081306457,0.0,0.0,0.47226294577121736,-0.27074890136718754,-1.1891433477401732,-0.1512374296784401,0.0,0.0
26.600,0.3356728076934814,0.7517752647399902,1.9173507213592529,-0.6226162195205689,0.0,0.0,0.3505053877830505,-0.21251084804534912,-1.3759345054626464,-0.22096864953637124,0.0,0.0
26.700,0.28412529826164246,0.7310827374458313,1.881024956703186,-0.6379880309104919,0.0,0.0,0.22874782979488373,-0.15427279472351074,-1.5627256631851196,-0.29069986939430237,0.0,0.0
26.800,0.27372576722076963,0.7163569927215576,1.815367613519941,-0.6253199747630528,0.0,0.0,0.41917797923088074,-0.2386447957583836,-1.3966495479856218,-0.22410890885761808,0.0,0.0
26.900,0.26332623617989676,0.7016312479972839,1.749710270336696,-0.6126519186156136,0.0,0.0,0.6096081286668777,-0.32301679679325646,-1.2305734327861242,-0.15751794832093377,0.0,0.0
27.000,0.25292670513902393,0.6869055032730103,1.6840529271534512,-0.5999838624681745,0.0,0.0,0.8000382781028748,-0.40738879782812937,-1.0644973175866264,-0.09092698778424946,0.0,0.0
27.100,0.24252717409815108,0.6721797585487366,1.6183955839702062,-0.5873158063207354,0.0,0.0,0.9904684275388718,-0.4917607988630022,-0.8984212023871286,-0.024336027247565173,0.0,0.0
27.200,0.23212764305727823,0.6574540138244629,1.5527382407869612,-0.5746477501732963,0.0,0.0,1.1808985769748688,-0.5761327998978751,-0.7323450871876308,0.04225493328911917,0.0,0.0
27.300,0.22172811201640538,0.6427282691001892,1.4870808976037162,-0.5619796940258571,0.0,0.0,1.3713287264108658,-0.660504800932748,-0.5662689719881331,0.10884589382580345,0.0,0.0
27.400,0.21132858097553253,0.6280025243759155,1.4214235544204712,-0.549311637878418,0.0,0.0,1.5617588758468628,-0.7448768019676208,-0.40019285678863525,0.1754368543624878,0.0,0.0
27.500,0.31645396910607815,0.5820531584322453,1.3884413242340088,-0.46367003954946995,0.0,0.0,1.4999161660671234,-0.7000577673316002,-0.5756220817565918,0.1343840006738901,0.0,0.0
27.600,0.42157935723662376,0.536103792488575,1.3554590940475464,-0.3780284412205219,0.0,0.0,1.438073456287384,-0.6552387326955795,-0.7510513067245483,0.09333114698529243,0.0,0.0
27.700,0.5267047453671694,0.4901544265449047,1.322476863861084,-0.2923868428915739,0.0,0.0,1.3762307465076447,-0.6104196980595589,-0.9264805316925049,0.052278293296694756,0.0,0.0
27.800,0.631830133497715,0.44420506060123444,1.2894946336746216,-0.20674524456262589,0.0,0.0,1.3143880367279053,-0.5656006634235382,-1.1019097566604614,0.011225439608097076,0.0,0.0
27.900,0.7369555216282606,0.39825569465756416,1.2565124034881592,-0.12110364623367786,0.0,0.0,1.252545326948166,-0.5207816287875175,-1.277338981628418,-0.029827414080500603,0.0,0.0
28.000,0.8420809097588062,0.3523063287138939,1.2235301733016968,-0.03546204790472984,0.0,0.0,1.1907026171684265,-0.4759625941514969,-1.4527682065963745,-0.07088026776909828,0.0,0.0
28.100,0.9472062978893518,0.3063569627702236,1.1905479431152344,0.05017955042421818,0.0,0.0,1.1288599073886871,-0.4311435595154762,-1.628197431564331,-0.11193312145769596,0.0,0.0
28.200,1.0523316860198975,0.26040759682655334,1.157565712928772,0.1358211487531662,0.0,0.0,1.0670171976089478,-0.38632452487945557,-1.8036266565322876,-0.15298597514629364,0.0,0.0
28.300,1.0159211039543152,0.3056095361709595,1.3100169897079468,0.09813409894704819,0.0,0.0,1.0541995525360108,-0.42214763164520264,-1.6048417448997498,-0.15323348939418793,0.0,0.0
28.400,0.9795105218887329,0.3508114755153656,1.4624682664871216,0.06044704914093017,0.0,0.0,1.0413819074630737,-0.4579707384109497,-1.4060568332672119,-0.15348100364208223,0.0,0.0
28.500,0.9430999398231507,0.3960134148597717,1.6149195432662964,0.022759999334812167,0.0,0.0,1.0285642623901368,-0.4937938451766968,-1.2072719216346741,-0.1537285178899765,0.0,0.0
28.600,0.9066893577575683,0.4412153542041779,1.7673708200454712,-0.014927050471305853,0.0,0.0,1.0157466173171996,-0.5296169519424438,-1.0084870100021361,-0.15397603213787078,0.0,0.0
28.700,0.8702787756919861,0.486417293548584,1.919822096824646,-0.05261410027742386,0.0,0.0,1.0029289722442627,-0.5654400587081909,-0.8097020983695984,-0.15422354638576508,0.0,0.0
28.800,0.7045176357030869,0.5610000252723694,1.8510679721832275,-0.1495518743991852,0.0,0.0,0.8717060804367065,-0.4746223285794258,-0.9760408639907837,-0.1707666277885437,0.0,0.0
28.900,0.5387564957141876,0.6355827569961547,1.782313847541809,-0.2464896485209465,0.0,0.0,0.7404831886291503,-0.38380459845066073,-1.142379629611969,-0.18730970919132234,0.0,0.0
29.000,0.3729953557252884,0.7101654887199402,1.7135597229003907,-0.3434274226427078,0.0,0.0,0.6092602968215943,-0.29298686832189563,-1.3087183952331543,-0.20385279059410094,0.0,0.0
29.100,0.20723421573638912,0.7847482204437256,1.6448055982589722,-0.44036519676446917,0.0,0.0,0.478037405014038,-0.20216913819313048,-1.4750571608543397,-0.2203958719968796,0.0,0.0
29.200,0.04147307574748993,0.859330952167511,1.5760514736175537,-0.5373029708862305,0.0,0.0,0.34681451320648193,-0.11135140806436539,-1.641395926475525,-0.2369389533996582,0.0,0.0
29.300,0.10547258257865906,0.8677575349807739,1.6508001565933228,-0.5310676217079162,0.0,0.0,0.4752458214759827,-0.15966688990592956,-1.441752278804779,-0.19169874526560307,0.0,0.0
29.400,0.1694720894098282,0.8761841177940368,1.7255488395690919,-0.5248322725296021,0.0,0.0,0.6036771297454835,-0.20798237174749373,-1.2421086311340332,-0.14645853713154794,0.0,0.0
29.500,0.2334715962409973,0.8846107006072998,1.8002975225448608,-0.5185969233512878,0.0,0.0,0.732108438014984,-0.2562978535890579,-1.0424649834632875,-0.1012183289974928,0.0,0.0
29.600,0.29747110307216645,0.8930372834205628,1.8750462055206298,-0.5123615741729737,0.0,0.0,0.8605397462844849,-0.3046133354306221,-0.8428213357925415,-0.05597812086343765,0.0,0.0
29.700,0.36147060990333557,0.9014638662338257,1.949794888496399,-0.5061262249946594,0.0,0.0,0.9889710545539856,-0.3529288172721863,-0.6431776881217957,-0.010737912729382515,0.0,0.0
29.800,0.40617152452468874,0.9095128536224365,1.9583689451217652,-0.48833906650543213,0.0,0.0,0.9370864629745483,-0.4677505254745483,-0.47228904664516447,0.018568752706050875,0.0,0.0
29.900,0.45087243914604186,0.9175618410110473,1.9669430017471314,-0.47055190801620483,0.0,0.0,0.8852018713951111,-0.5825722336769104,-0.3014004051685333,0.047875418141484265,0.0,0.0
30.000,0.495573353767395,0.9256108283996582,1.9755170583724975,-0.45276474952697754,0.0,0.0,0.8333172798156738,-0.6973939418792725,-0.1305117636919022,0.07718208357691765,0.0,0.0
30.100,0.5402742683887481,0.9336598157882691,1.9840911149978637,-0.43497759103775024,0.0,0.0,0.7814326882362366,-0.8122156500816345,0.04037687778472909,0.10648874901235104,0.0,0.0
30.200,0.5849751830101013,0.9417088031768799,1.99266517162323,-0.41719043254852295,0.0,0.0,0.7295480966567993,-0.9270373582839966,0.21126551926136017,0.13579541444778442,0.0,0.0
30.300,0.7680237293243408,0.897521368094853,1.9315508774348669,-0.41651254892349243,0.0,0.0,0.7551564233643668,-0.8843998483249119,0.1948290765285492,0.1440609778676714,0.0,0.0
30.400,0.9510722756385803,0.8533339330128261,1.8704365832465035,-0.4158346652984619,0.0,0.0,0.7807647500719342,-0.8417623383658273,0.17839263379573822,0.1523265412875584,0.0,0.0
30.500,1.1341208219528198,0.8091464979307992,1.8093222890581404,-0.4151567816734314,0.0,0.0,0.8063730767795018,-0.7991248284067427,0.16195619106292725,0.16059210470744542,0.0,0.0
30.600,1.3171693682670593,0.7649590628487724,1.748207994869777,-0.4144788980484009,0.0,0.0,0.8319814034870693,-0.756487318447658,0.14551974833011627,0.1688576681273324,0.0,0.0
30.700,1.5002179145812988,0.7207716277667454,1.687093700681414,-0.41380101442337036,0.0,0.0,0.8575897301946367,-0.7138498084885734,0.1290833055973053,0.17712323154721943,0.0,0.0
30.800,1.6832664608955383,0.6765841926847185,1.6259794064930508,-0.41312313079833984,0.0,0.0,0.8831980569022042,-0.6712122985294887,0.11264686286449432,0.18538879496710642,0.0,0.0
30.900,1.8663150072097778,0.6323967576026917,1.5648651123046875,-0.4124452471733093,0.0,0.0,0.9088063836097717,-0.628574788570404,0.09621042013168335,0.1936543583869934,0.0,0.0
31.000,1.8678848346074421,0.5756573379039764,1.5701679786046345,-0.3940016229947408,0.0,0.0,0.9038950006167094,-0.4691442449887594,-0.03794818123181659,0.22976369659105936,0.0,0.0
31.100,1.8694546620051067,0.5189179182052612,1.5754708449045818,-0.3755579988161723,0.0,0.0,0.8989836176236471,-0.3097137014071147,-0.17210678259531653,0.2658730347951253,0.0,0.0
31.200,1.871024489402771,0.462178498506546,1.5807737112045288,-0.35711437463760376,0.0,0.0,0.8940722346305847,-0.15028315782546997,-0.30626538395881653,0.3019823729991913,0.0,0.0
31.300,1.7375255823135376,0.5892505049705505,1.7493976354599,-0.46042922139167786,0.0,0.0,0.7103933095932007,-0.01611834391951561,-0.4091983735561371,0.24698638916015625,0.0,0.0
31.400,1.770408829053243,0.5247011880079905,1.7192088762919109,-0.4338915745417277,0.0,0.0,0.705335001150767,-0.1373043730854988,-0.21456641455491385,0.2952863971392314,0.0,0.0
31.500,1.8032920757929485,0.46015187104543054,1.6890201171239216,-0.40735392769177753,0.0,0.0,0.7002766927083334,-0.258490402251482,-0.01993445555369061,0.34358640511830646,0.0,0.0
31.600,1.8361753225326538,0.3956025540828705,1.6588313579559326,-0.3808162808418274,0.0,0.0,0.6952183842658997,-0.3796764314174652,0.17469750344753265,0.3918864130973816,0.0,0.0
31.700,1.856637994448344,0.3685399691263835,1.6254526376724243,-0.3446182111899058,0.0,0.0,0.7208143075307211,-0.25592273753136396,0.0192136863867442,0.4142989118893941,0.0,0.0
31.800,1.877100666364034,0.3414773841698964,1.592073917388916,-0.30842014153798425,0.0,0.0,0.7464102307955424,-0.13216904364526272,-0.13627013067404425,0.4367114106814067,0.0,0.0
31.900,1.8975633382797241,0.3144147992134094,1.5586951971054077,-0.2722220718860626,0.0,0.0,0.7720061540603638,-0.008415349759161472,-0.29175394773483276,0.4591239094734192,0.0,0.0
32.000,1.8965744972229004,0.319714476664861,1.5651466449101765,-0.28572648763656616,0.0,0.0,0.7736940979957581,-0.12477009060482183,-0.10937671860059103,0.48788533608118695,0.0,0.0
32.100,1.8955856561660767,0.3250141541163127,1.5715980927149455,-0.2992309033870697,0.0,0.0,0.7753820419311523,-0.2411248314504822,0.0730005105336507,0.5166467626889547,0.0,0.0
32.200,1.894596815109253,0.3303138315677643,1.5780495405197144,-0.31273531913757324,0.0,0.0,0.7770699858665466,-0.3574795722961426,0.25537773966789246,0.5454081892967224,0.0,0.0
32.300,1.7289421955744426,0.454715371131897,1.7139918406804402,-0.3553972939650218,0.0,0.0,0.7591591874758402,-0.3605768382549286,0.2315929134686788,0.4982672433058421,0.0,0.0
32.400,1.5632875760396323,0.5791169106960297,1.849934140841166,-0.3980592687924703,0.0,0.0,0.7412483890851339,-0.3636741042137146,0.20780808726946515,0.4511262973149618,0.0,0.0
32.500,1.3976329565048218,0.7035184502601624,1.985876441001892,-0.4407212436199188,0.0,0.0,0.7233375906944275,-0.3667713701725006,0.18402326107025146,0.4039853513240814,0.0,0.0
32.600,1.5210420687993367,0.6461944580078125,1.8924934069315593,-0.45731934905052185,0.0,0.0,0.6757503151893616,-0.23826760550340018,0.005101184050242125,0.3530776600042979,0.0,0.0
32.700,1.6444511810938518,0.5888704657554626,1.7991103728612263,-0.4739174544811249,0.0,0.0,0.6281630396842957,-0.10976384083429974,-0.17382089296976722,0.3021699686845144,0.0,0.0
32.800,1.7678602933883667,0.5315464735031128,1.7057273387908936,-0.4905155599117279,0.0,0.0,0.5805757641792297,0.01873992383480072,-0.3527429699897766,0.25126227736473083,0.0,0.0
32.900,1.5967065493265789,0.6695478161176045,1.724126656850179,-0.4841791292031606,0.0,0.0,0.6217830578486124,-0.11467339595158893,-0.17317655682563782,0.3081875244776408,0.0,0.0
33.000,1.425552805264791,0.8075491587320963,1.7425259749094646,-0.4778426984945933,0.0,0.0,0.6629903515179952,-0.24808671573797858,0.0063898563385009766,0.3651127715905507,0.0,0.0
33.100,1.254399061203003,0.9455505013465881,1.76092529296875,-0.471506267786026,0.0,0.0,0.7041976451873779,-0.3815000355243683,0.18595626950263977,0.4220380187034607,0.0,0.0
33.200,1.423357407251994,0.7834966480731964,1.6513014634450276,-0.43244755268096924,0.0,0.0,0.7047072251637777,-0.24848748308916888,-0.011360337336858095,0.37840866049130756,0.0,0.0
33.300,1.5923157533009846,0.6214427947998047,1.5416776339213054,-0.3933888375759125,0.0,0.0,0.7052168051401774,-0.11547493065396947,-0.20867694417635596,0.3347793022791545,0.0,0.0
33.400,1.7612740993499756,0.45938894152641296,1.432053804397583,-0.3543301224708557,0.0,0.0,0.7057263851165771,0.017537621781229973,-0.4059935510158539,0.29114994406700134,0.0,0.0
33.500,1.8908899625142415,0.6584820946057637,1.3582355578740437,-0.3994419078032176,0.0,0.0,0.6332314511140188,-0.0011615529656410217,-0.381930152575175,0.24916756649812064,0.0,0.0
33.600,2.0205058256785073,0.8575752476851145,1.2844173113505046,-0.4445536931355794,0.0,0.0,0.5607365171114604,-0.019860727712512016,-0.35786675413449603,0.20718518892923993,0.0,0.0
33.700,2.1501216888427734,1.0566684007644653,1.2105990648269653,-0.4896654784679413,0.0,0.0,0.488241583108902,-0.03855990245938301,-0.33380335569381714,0.1652028113603592,0.0,0.0
33.800,1.9627621504995558,0.9937847687138451,1.2420867019229465,-0.4985022081269158,0.0,0.0,0.48275158802668255,-0.0810756418440077,-0.28601397573947906,0.16834896802902222,0.0,0.0
33.900,1.7754026121563382,0.9309011366632249,1.2735743390189276,-0.5073389377858903,0.0,0.0,0.4772615929444631,-0.12359138122863239,-0.238224595785141,0.17149512469768524,0.0,0.0
34.000,1.5880430738131206,0.8680175046126049,1.305061976114909,-0.5161756674448649,0.0,0.0,0.47177159786224365,-0.16610712061325708,-0.19043521583080292,0.17464128136634827,0.0,0.0
34.100,1.400683535469903,0.8051338725619845,1.33654961321089,-0.5250123971038394,0.0,0.0,0.46628160278002423,-0.20862285999788177,-0.14264583587646484,0.1777874380350113,0.0,0.0
34.200,1.2133239971266851,0.7422502405113645,1.3680372503068712,-0.533849126762814,0.0,0.0,0.46079160769780475,-0.2511385993825065,-0.09485645592212677,0.18093359470367432,0.0,0.0
34.300,1.0259644587834678,0.6793666084607443,1.3995248874028523,-0.5426858564217886,0.0,0.0,0.4553016126155853,-0.29365433876713115,-0.047067075967788696,0.18407975137233734,0.0,0.0
34.400,0.8386049204402499,0.6164829764101241,1.4310125244988336,-0.5515225860807631,0.0,0.0,0.4498116175333659,-0.33617007815175587,0.0007223039865493774,0.18722590804100037,0.0,0.0
34.500,0.6512453820970323,0.5535993443595039,1.4625001615948148,-0.5603593157397376,0.0,0.0,0.4443216224511464,-0.37868581753638053,0.04851168394088745,0.1903720647096634,0.0,0.0
34.600,0.4638858437538147,0.49071571230888367,1.493987798690796,-0.5691960453987122,0.0,0.0,0.438831627368927,-0.42120155692100525,0.09630106389522552,0.19351822137832642,0.0,0.0
34.700,0.4721653461456299,0.4658494194348653,1.4014948606491089,-0.5386087795098623,0.0,0.0,0.5436667203903198,-0.27993199143869185,-0.052354355653127016,0.14259522159894308,0.0,0.0
34.800,0.48044484853744507,0.440983126560847,1.3090019226074219,-0.5080215136210123,0.0,0.0,0.6485018134117126,-0.1386624259563784,-0.20100977520147956,0.09167222181955974,0.0,0.0
34.900,0.48872435092926025,0.4161168336868286,1.2165089845657349,-0.4774342477321625,0.0,0.0,0.7533369064331055,0.002607139525935054,-0.34966519474983215,0.04074922204017639,0.0,0.0
35.000,0.6363676190376282,0.3456409126520157,1.141481801867485,-0.29600536450743675,0.0,0.0,0.7026363164186478,-0.015237832383718342,-0.34432172775268555,0.033526267390698195,0.0,0.0
35.100,0.7840108871459961,0.27516499161720276,1.0664546191692352,-0.11457648128271103,0.0,0.0,0.6519357264041901,-0.03308280429337174,-0.33897826075553894,0.026303312741219997,0.0,0.0
35.200,0.931654155254364,0.20468907058238983,0.9914274364709854,0.0668524019420147,0.0,0.0,0.6012351363897324,-0.05092777620302513,-0.33363479375839233,0.0190803580917418,0.0,0.0
35.300,1.079297423362732,0.1342131495475769,0.9164002537727356,0.24828128516674042,0.0,0.0,0.5505345463752747,-0.06877274811267853,-0.3282913267612457,0.011857403442263603,0.0,0.0
35.400,1.0489890575408936,0.13140266637007395,0.7535412112871807,0.33362069725990295,0.0,0.0,0.5553427537282308,-0.053512052322427436,-0.31797810395558673,0.005558339723696312,0.0,0.0
35.500,1.0186806917190552,0.128592183192571,0.5906821688016256,0.4189601093530655,0.0,0.0,0.5601509610811869,-0.03825135653217634,-0.3076648811499278,-0.0007407239948709794,0.0,0.0
35.600,0.9883723258972168,0.12578170001506805,0.42782312631607056,0.504299521446228,0.0,0.0,0.5649591684341431,-0.02299066074192524,-0.2973516583442688,-0.0070397877134382725,0.0,0.0
35.700,0.9719956119855245,0.11211041857798894,0.2376249134540558,0.5513271689414978,0.0,0.0,0.6749896804491679,-0.10390027488271394,-0.1371561884880066,0.09136904124170542,0.0,0.0
35.800,0.9556188980738322,0.09843913714090984,0.047426700592041016,0.5983548164367676,0.0,0.0,0.7850201924641926,-0.18480988902350265,0.023039281368255615,0.1897778701968491,0.0,0.0
35.900,0.9392421841621399,0.08476785570383072,-0.14277151226997375,0.6453824639320374,0.0,0.0,0.8950507044792175,-0.2657195031642914,0.18323475122451782,0.2881866991519928,0.0,0.0
36.000,0.8915530741214752,0.14346124790608883,-0.20940044522285461,0.6789128929376602,0.0,0.0,0.8001707196235657,-0.35808946937322617,0.3742073029279709,0.33723141998052597,0.0,0.0
36.100,0.8438639640808105,0.20215464010834694,-0.2760293781757355,0.7124433219432831,0.0,0.0,0.7052907347679138,-0.45045943558216095,0.565179854631424,0.38627614080905914,0.0,0.0
36.200,0.7961748540401459,0.26084803231060505,-0.34265831112861633,0.745973750948906,0.0,0.0,0.610410749912262,-0.5428294017910957,0.756152406334877,0.4353208616375923,0.0,0.0
36.300,0.7484857439994812,0.31954142451286316,-0.4092872440814972,0.7795041799545288,0.0,0.0,0.5155307650566101,-0.6351993680000305,0.9471249580383301,0.4843655824661255,0.0,0.0
36.400,0.7941712737083435,0.19546449184417725,-0.32574278116226196,0.6943954229354858,0.0,0.0,0.4706989824771881,-0.5398616194725037,0.9452617764472961,0.617950975894928,0.0,0.0
36.500,0.7830667694409689,0.23030352592468262,-0.3689662317434947,0.7079739173253378,0.0,0.0,0.5554186701774597,-0.44948118925094604,0.7737660308678945,0.6625866293907166,0.0,0.0
36.600,0.7719622651735941,0.265142560005188,-0.41218968232472736,0.7215524117151896,0.0,0.0,0.6401383578777313,-0.3591007590293884,0.6022702852884929,0.7072222828865051,0.0,0.0
36.700,0.7608577609062195,0.29998159408569336,-0.4554131329059601,0.7351309061050415,0.0,0.0,0.7248580455780029,-0.2687203288078308,0.4307745397090912,0.7518579363822937,0.0,0.0
36.800,0.8149236440658569,0.17840170860290527,-0.31583938002586365,0.6511378884315491,0.0,0.0,0.7291260361671448,-0.25990748405456543,0.47712811827659607,0.6311079263687134,0.0,0.0
36.900,0.8122075001398722,0.1922570914030075,-0.3327404161294301,0.6128948132197062,0.0,0.0,0.6610474387804667,-0.3485689163208008,0.6339197357495625,0.5677686432997385,0.0,0.0
37.000,0.8094913562138876,0.20611247420310974,-0.34964145223299664,0.5746517380078634,0.0,0.0,0.5929688413937887,-0.43723034858703613,0.7907113532225291,0.5044293602307638,0.0,0.0
37.100,0.8067752122879028,0.21996785700321198,-0.3665424883365631,0.5364086627960205,0.0,0.0,0.5248902440071106,-0.5258917808532715,0.9475029706954956,0.44109007716178894,0.0,0.0
37.200,0.7870560884475708,0.25040295720100403,-0.3919110894203186,0.49598929286003113,0.0,0.0,0.5072118639945984,-0.5293594002723694,0.9083712697029114,0.3711903393268585,0.0,0.0
37.300,0.7115307450294495,0.36175042390823364,-0.5204536318778992,0.43244317173957825,0.0,0.0,0.48050278425216675,-0.5756765305995941,0.9487156867980957,0.3027072474360466,0.0,0.0
37.400,0.6360054016113281,0.47309789061546326,-0.6489961743354797,0.36889705061912537,0.0,0.0,0.4537937045097351,-0.6219936609268188,0.98906010389328,0.23422415554523468,0.0,0.0
37.500,0.474409881234169,0.5308425903320313,-0.7708848476409912,0.3649970471858978,0.0,0.0,0.31454119086265564,-0.6446451425552369,1.0808222532272338,0.23773016333580016,0.0,0.0
37.600,0.31281436085700987,0.5885872900485992,-0.8927735209465026,0.36109704375267027,0.0,0.0,0.17528867721557617,-0.6672966241836548,1.1725844025611878,0.24123617112636567,0.0,0.0
37.700,0.1512188404798508,0.6463319897651673,-1.0146621942520142,0.35719704031944277,0.0,0.0,0.036036163568496704,-0.6899481058120728,1.2643465518951416,0.24474217891693115,0.0,0.0
37.800,-0.010376679897308394,0.7040766894817352,-1.1365508675575255,0.3532970368862152,0.0,0.0,-0.10321635007858276,-0.7125995874404907,1.3561087012290955,0.24824818670749665,0.0,0.0
37.900,-0.17197220027446747,0.7618213891983032,-1.258439540863037,0.34939703345298767,0.0,0.0,-0.24246886372566223,-0.7352510690689087,1.4478708505630493,0.25175419449806213,0.0,0.0
38.000,-0.21873436570167543,0.7637589931488037,-1.2240830183029174,0.3552635908126831,0.0,0.0,-0.1761368528008461,-0.675308746099472,1.252863484621048,0.23217991590499878,0.0,0.0
38.100,-0.2654965311288834,0.7656965970993042,-1.1897264957427978,0.36113014817237854,0.0,0.0,-0.10980484187602996,-0.6153664231300354,1.0578561186790467,0.21260563731193544,0.0,0.0
38.200,-0.3122586965560913,0.7676342010498047,-1.1553699731826783,0.366996705532074,0.0,0.0,-0.04347283095121385,-0.5554241001605987,0.8628487527370453,0.19303135871887206,0.0,0.0
38.300,-0.3590208619832993,0.7695718050003052,-1.1210134506225586,0.3728632628917694,0.0,0.0,0.022859179973602317,-0.4954817771911621,0.6678413867950439,0.1734570801258087,0.0,0.0
38.400,-0.4057830274105072,0.7715094089508057,-1.086656928062439,0.37872982025146484,0.0,0.0,0.08919119089841843,-0.43553945422172546,0.4728340208530426,0.15388280153274536,0.0,0.0
38.500,-0.2154124312930637,0.8150257534450955,-1.0369183752271864,0.2652328875329759,0.0,0.0,0.11347759432262844,-0.5089660353130765,0.5194711751408048,0.04631929265128243,0.0,0.0
38.600,-0.025041835175620197,0.8585420979393853,-0.9871798223919339,0.15173595481448704,0.0,0.0,0.13776399774683845,-0.5823926164044274,0.5661083294285668,-0.061244216230180504,0.0,0.0
38.700,0.16532876094182325,0.9020584424336751,-0.9374412695566814,0.038239022095998165,0.0,0.0,0.16205040117104846,-0.6558191974957783,0.6127454837163289,-0.16880772511164344,0.0,0.0
38.800,0.3556993570592668,0.9455747869279649,-0.8877027167214288,-0.07525791062249076,0.0,0.0,0.18633680459525848,-0.7292457785871294,0.659382638004091,-0.27637123399310637,0.0,0.0
38.900,0.5460699531767104,0.9890911314222548,-0.8379641638861762,-0.1887548433409797,0.0,0.0,0.21062320801946854,-0.8026723596784804,0.7060197922918532,-0.3839347428745694,0.0,0.0
39.000,0.7364405492941537,1.0326074759165444,-0.7882256110509237,-0.3022517760594685,0.0,0.0,0.23490961144367853,-0.8760989407698313,0.7526569465796152,-0.49149825175603223,0.0,0.0
39.100,0.9268111454115975,1.0761238204108343,-0.7384870582156711,-0.41574870877795755,0.0,0.0,0.25919601486788857,-0.9495255218611823,0.7992941008673774,-0.5990617606374953,0.0,0.0
39.200,1.1171817415290408,1.1196401649051242,-0.6887485053804185,-0.5292456414964464,0.0,0.0,0.2834824182920985,-1.0229521029525332,0.8459312551551394,-0.7066252695189581,0.0,0.0
39.300,1.3075523376464844,1.163156509399414,-0.639009952545166,-0.6427425742149353,0.0,0.0,0.3077688217163086,-1.0963786840438843,0.8925684094429016,-0.8141887784004211,0.0,0.0
39.400,1.1219715680927038,1.2011841088533401,-0.6726773753762245,-0.6623401194810867,0.0,0.0,0.28542206063866615,-1.0675918236374855,0.8399133570492268,-0.8216090202331543,0.0,0.0
39.500,0.9363907985389233,1.2392117083072662,-0.706344798207283,-0.6819376647472382,0.0,0.0,0.2630752995610237,-1.0388049632310867,0.7872583046555519,-0.8290292620658875,0.0,0.0
39.600,0.7508100289851427,1.2772393077611923,-0.7400122210383415,-0.7015352100133896,0.0,0.0,0.24072853848338127,-1.010018102824688,0.7346032522618771,-0.8364495038986206,0.0,0.0
39.700,0.5652292594313622,1.3152669072151184,-0.7736796438694,-0.721132755279541,0.0,0.0,0.21838177740573883,-0.9812312424182892,0.6819481998682022,-0.8438697457313538,0.0,0.0
39.800,0.3796484898775816,1.3532945066690445,-0.8073470667004585,-0.7407303005456924,0.0,0.0,0.1960350163280964,-0.9524443820118904,0.6292931474745274,-0.8512899875640869,0.0,0.0
39.900,0.19406772032380104,1.3913221061229706,-0.841014489531517,-0.7603278458118439,0.0,0.0,0.17368825525045395,-0.9236575216054916,0.5766380950808525,-0.8587102293968201,0.0,0.0
40.000,0.008486950770020485,1.4293497055768967,-0.8746819123625755,-0.7799253910779953,0.0,0.0,0.1513414941728115,-0.8948706611990929,0.5239830426871777,-0.8661304712295532,0.0,0.0
40.100,-0.17709381878376007,1.4673773050308228,-0.908349335193634,-0.7995229363441467,0.0,0.0,0.12899473309516907,-0.8660838007926941,0.4713279902935028,-0.8735507130622864,0.0,0.0
40.200,0.0035404086112976185,1.5993746280670167,-0.7497755438089371,-0.8206206083297729,0.0,0.0,-0.04171695709228518,-0.852543568611145,0.4740238130092621,-0.7255997955799103,0.0,0.0
40.300,0.1841746360063553,1.7313719511032104,-0.5912017524242401,-0.8417182803153992,0.0,0.0,-0.21242864727973942,-0.8390033364295959,0.47671963572502135,-0.5776488780975342,0.0,0.0
40.400,0.36480886340141294,1.8633692741394043,-0.43262796103954315,-0.8628159523010254,0.0,0.0,-0.38314033746719356,-0.8254631042480469,0.47941545844078065,-0.4296979606151581,0.0,0.0
40.500,0.5454430907964707,1.995366597175598,-0.2740541696548462,-0.8839136242866517,0.0,0.0,-0.5538520276546479,-0.8119228720664978,0.4821112811565399,-0.281747043132782,0.0,0.0
40.600,0.7260773181915283,2.127363920211792,-0.11548037827014923,-0.9050112962722778,0.0,0.0,-0.724563717842102,-0.7983826398849487,0.4848071038722992,-0.13379612565040588,0.0,0.0
40.700,0.8876575708389283,2.087728726863861,0.06938065737485888,-0.9097861886024475,0.0,0.0,-0.7189503967761993,-0.7481685310602189,0.41631360799074174,-0.18733436167240142,0.0,0.0
40.800,1.0492378234863282,2.0480935335159303,0.254241693019867,-0.9145610809326172,0.0,0.0,-0.7133370757102966,-0.6979544222354889,0.3478201121091843,-0.24087259769439698,0.0,0.0
40.900,1.210818076133728,2.008458340167999,0.439102728664875,-0.9193359732627868,0.0,0.0,-0.707723754644394,-0.647740313410759,0.2793266162276268,-0.29441083371639254,0.0,0.0
41.000,1.372398328781128,1.9688231468200683,0.6239637643098832,-0.9241108655929565,0.0,0.0,-0.7021104335784912,-0.597526204586029,0.21083312034606932,-0.3479490697383881,0.0,0.0
41.100,1.5339785814285278,1.9291879534721375,0.8088247999548912,-0.9288857579231262,0.0,0.0,-0.6964971125125885,-0.5473120957612991,0.14233962446451187,-0.4014873057603836,0.0,0.0
41.200,1.6955588340759276,1.8895527601242066,0.9936858355998992,-0.9336606502532959,0.0,0.0,-0.6908837914466858,-0.4970979869365692,0.07384612858295442,-0.45502554178237914,0.0,0.0
41.300,1.8571390867233275,1.8499175667762757,1.1785468712449072,-0.9384355425834656,0.0,0.0,-0.685270470380783,-0.4468838781118393,0.005352632701396964,-0.5085637778043747,0.0,0.0
41.400,2.018719339370728,1.8102823734283446,1.3634079068899156,-0.9432104349136352,0.0,0.0,-0.6796571493148804,-0.39666976928710934,-0.06314086318016054,-0.5621020138263703,0.0,0.0
41.500,2.1802995920181276,1.7706471800804138,1.5482689425349236,-0.9479853272438049,0.0,0.0,-0.6740438282489777,-0.34645566046237947,-0.13163435906171805,-0.6156402498483657,0.0,0.0
41.600,2.3418798446655273,1.731011986732483,1.7331299781799316,-0.9527602195739746,0.0,0.0,-0.668430507183075,-0.29624155163764954,-0.20012785494327545,-0.6691784858703613,0.0,0.0
41.700,2.148452109524182,1.6586182500634874,1.6582211979797907,-0.9509654002530235,0.0,0.0,-0.5686840500150409,-0.4359028616121837,-0.22677775898150035,-0.6784976380211967,0.0,0.0
41.800,1.9550243743828366,1.586224513394492,1.58331241777965,-0.9491705809320722,0.0,0.0,-0.46893759284700665,-0.5755641715867179,-0.25342766301972525,-0.6878167901720319,0.0,0.0
41.900,1.7615966392414912,1.5138307767254966,1.5084036375795091,-0.947375761611121,0.0,0.0,-0.36919113567897255,-0.715225481561252,-0.28007756705795017,-0.6971359423228672,0.0,0.0
42.000,1.5681689041001456,1.441437040056501,1.4334948573793684,-0.9455809422901699,0.0,0.0,-0.2694446785109384,-0.8548867915357862,-0.30672747109617504,-0.7064550944737026,0.0,0.0
42.100,1.3747411689588,1.3690433033875058,1.3585860771792275,-0.9437861229692187,0.0,0.0,-0.16969822134290424,-0.9945481015103204,-0.33337737513439997,-0.7157742466245379,0.0,0.0
42.200,1.181313433817455,1.2966495667185103,1.2836772969790868,-0.9419913036482674,0.0,0.0,-0.06995176417487015,-1.1342094114848544,-0.3600272791726249,-0.7250933987753732,0.0,0.0
42.300,0.9878856986761093,1.2242558300495148,1.208768516778946,-0.9401964843273163,0.0,0.0,0.029794692993164062,-1.2738707214593887,-0.38667718321084976,-0.7344125509262085,0.0,0.0
42.400,0.794457963534764,1.1518620933805193,1.1338597365788052,-0.9384016650063651,0.0,0.0,0.12954115016119816,-1.4135320314339228,-0.41332708724907463,-0.7437317030770438,0.0,0.0
42.500,0.6010302283934184,1.0794683567115237,1.058950956378664,-0.9366068456854139,0.0,0.0,0.22928760732923237,-1.553193341408457,-0.4399769912872996,-0.7530508552278792,0.0,0.0
42.600,0.407602493252073,1.0070746200425285,0.9840421761785234,-0.9348120263644627,0.0,0.0,0.32903406449726647,-1.6928546513829912,-0.4666268953255245,-0.7623700073787144,0.0,0.0
42.700,0.21417475811072784,0.934680883373533,0.9091333959783827,-0.9330172070435115,0.0,0.0,0.4287805216653007,-1.8325159613575255,-0.49327679936374935,-0.7716891595295498,0.0,0.0
42.800,0.020747022969382467,0.8622871467045375,0.8342246157782419,-0.9312223877225604,0.0,0.0,0.5285269788333347,-1.9721772713320596,-0.5199267034019743,-0.781008311680385,0.0,0.0
42.900,-0.17268071217196335,0.789893410035542,0.759315835578101,-0.9294275684016091,0.0,0.0,0.6282734360013689,-2.1118385813065936,-0.5465766074401992,-0.7903274638312203,0.0,0.0
43.000,-0.3661084473133087,0.7174996733665466,0.6844070553779602,-0.927632749080658,0.0,0.0,0.7280198931694031,-2.251499891281128,-0.5732265114784241,-0.7996466159820557,0.0,0.0
43.100,-0.17814653925597668,0.7647570706903934,0.7872492037713528,-0.9343992955982685,0.0,0.0,0.802217822521925,-2.2354774326086044,-0.6691781245172024,-0.8085844814777374,0.0,0.0
43.200,0.009815368801355362,0.8120144680142403,0.8900913521647453,-0.9411658421158791,0.0,0.0,0.8764157518744469,-2.219454973936081,-0.7651297375559807,-0.8175223469734192,0.0,0.0
43.300,0.1977772768586874,0.8592718653380871,0.9929335005581379,-0.9479323886334896,0.0,0.0,0.9506136812269688,-2.2034325152635574,-0.861081350594759,-0.826460212469101,0.0,0.0
43.400,0.38573918491601944,0.9065292626619339,1.0957756489515305,-0.9546989351511002,0.0,0.0,1.0248116105794907,-2.187410056591034,-0.9570329636335373,-0.8353980779647827,0.0,0.0
43.500,0.5737010929733515,0.9537866599857807,1.198617797344923,-0.9614654816687107,0.0,0.0,1.0990095399320126,-2.1713875979185104,-1.0529845766723156,-0.8443359434604645,0.0,0.0
43.600,0.7616630010306835,1.0010440573096275,1.3014599457383156,-0.9682320281863213,0.0,0.0,1.1732074692845345,-2.155365139245987,-1.148936189711094,-0.8532738089561462,0.0,0.0
43.700,0.9496249090880156,1.0483014546334743,1.4043020941317081,-0.9749985747039318,0.0,0.0,1.2474053986370564,-2.1393426805734634,-1.2448878027498722,-0.862211674451828,0.0,0.0
43.800,1.1375868171453476,1.0955588519573212,1.5071442425251007,-0.9817651212215424,0.0,0.0,1.3216033279895782,-2.12332022190094,-1.3408394157886505,-0.8711495399475098,0.0,0.0
43.900,1.3255487252026796,1.142816249281168,1.6099863909184933,-0.9885316677391529,0.0,0.0,1.3958012573421001,-2.1072977632284164,-1.4367910288274288,-0.8800874054431915,0.0,0.0
44.000,1.5135106332600117,1.1900736466050148,1.7128285393118858,-0.9952982142567635,0.0,0.0,1.469999186694622,-2.091275304555893,-1.5327426418662071,-0.8890252709388733,0.0,0.0
44.100,1.7014725413173437,1.2373310439288616,1.8156706877052784,-1.002064760774374,0.0,0.0,1.544197116047144,-2.0752528458833694,-1.6286942549049854,-0.897963136434555,0.0,0.0
44.200,1.8894344493746758,1.2845884412527084,1.918512836098671,-1.0088313072919846,0.0,0.0,1.6183950453996658,-2.059230387210846,-1.7246458679437637,-0.9069010019302368,0.0,0.0
44.300,2.077396357432008,1.3318458385765553,2.0213549844920635,-1.015597853809595,0.0,0.0,1.6925929747521877,-2.0432079285383224,-1.820597480982542,-0.9158388674259186,0.0,0.0
44.400,2.26535826548934,1.379103235900402,2.124197132885456,-1.0223644003272057,0.0,0.0,1.7667909041047096,-2.027185469865799,-1.9165490940213203,-0.9247767329216003,0.0,0.0
44.500,2.453320173546672,1.4263606332242489,2.2270392812788486,-1.0291309468448162,0.0,0.0,1.8409888334572315,-2.0111630111932755,-2.0125007070600986,-0.9337145984172821,0.0,0.0
44.600,2.641282081604004,1.4736180305480957,2.329881429672241,-1.0358974933624268,0.0,0.0,1.9151867628097534,-1.995140552520752,-2.108452320098877,-0.9426524639129639,0.0,0.0
44.700,2.4430715949447066,1.4580114196847986,2.334529408702144,-1.0363161034054227,0.0,0.0,1.9177926911248102,-2.0005592946653015,-2.107653529555709,-0.9387720823287964,0.0,0.0
44.800,2.2448611082854093,1.4424048088215016,2.3391773877320468,-1.0367347134484186,0.0,0.0,1.9203986194398668,-2.0059780368098505,-2.1068547390125416,-0.9348917007446289,0.0,0.0
44.900,2.046650621626112,1.4267981979582045,2.3438253667619495,-1.0371533234914143,0.0,0.0,1.9230045477549236,-2.0113967789544,-2.1060559484693737,-0.9310113191604614,0.0,0.0
45.000,1.8484401349668151,1.4111915870949074,2.348473345791852,-1.0375719335344102,0.0,0.0,1.9256104760699801,-2.016815521098949,-2.1052571579262063,-0.927130937576294,0.0,0.0
45.100,1.6502296483075178,1.3955849762316104,2.3531213248217546,-1.0379905435774062,0.0,0.0,1.928216404385037,-2.0222342632434986,-2.1044583673830384,-0.9232505559921265,0.0,0.0
45.200,1.4520191616482205,1.3799783653683133,2.3577693038516574,-1.038409153620402,0.0,0.0,1.9308223327000935,-2.027653005388048,-2.103659576839871,-0.919370174407959,0.0,0.0
45.300,1.2538086749889232,1.3643717545050162,2.36241728288156,-1.0388277636633978,0.0,0.0,1.9334282610151503,-2.0330717475325972,-2.102860786296703,-0.9154897928237915,0.0,0.0
45.400,1.0555981883296262,1.3487651436417192,2.367065261911463,-1.0392463737063937,0.0,0.0,1.9360341893302069,-2.0384904896771467,-2.1020619957535356,-0.911609411239624,0.0,0.0
45.500,0.8573877016703289,1.3331585327784221,2.3717132409413657,-1.0396649837493896,0.0,0.0,1.9386401176452637,-2.043909231821696,-2.1012632052103677,-0.9077290296554565,0.0,0.0
45.600,0.6591772150110315,1.317551921915125,2.3763612199712685,-1.0400835937923856,0.0,0.0,1.9412460459603205,-2.0493279739662453,-2.1004644146672002,-0.9038486480712891,0.0,0.0
45.700,0.46096672835173447,1.301945311051828,2.381009199001171,-1.0405022038353815,0.0,0.0,1.943851974275377,-2.054746716110795,-2.0996656241240323,-0.8999682664871216,0.0,0.0
45.800,0.26275624169243716,1.286338700188531,2.3856571780310736,-1.0409208138783772,0.0,0.0,1.9464579025904338,-2.060165458255344,-2.098866833580865,-0.8960878849029541,0.0,0.0
45.900,0.06454575503313986,1.2707320893252338,2.3903051570609763,-1.0413394239213731,0.0,0.0,1.9490638309054904,-2.0655842003998934,-2.098068043037697,-0.8922075033187866,0.0,0.0
46.000,-0.13366473162615744,1.2551254784619368,2.394953136090879,-1.041758033964369,0.0,0.0,1.9516697592205472,-2.0710029425444425,-2.0972692524945296,-0.8883271217346191,0.0,0.0
46.100,-0.33187521828545474,1.2395188675986395,2.399601115120782,-1.042176644007365,0.0,0.0,1.9542756875356038,-2.076421684688992,-2.0964704619513617,-0.8844467401504517,0.0,0.0
46.200,-0.5300857049447516,1.2239122567353427,2.4042490941506847,-1.0425952540503607,0.0,0.0,1.9568816158506606,-2.081840426833541,-2.095671671408194,-0.8805663585662842,0.0,0.0
46.300,-0.7282961916040493,1.2083056458720454,2.4088970731805874,-1.0430138640933566,0.0,0.0,1.9594875441657171,-2.0872591689780906,-2.0948728808650263,-0.8766859769821167,0.0,0.0
46.400,-0.9265066782633462,1.1926990350087485,2.4135450522104898,-1.0434324741363525,0.0,0.0,1.962093472480774,-2.09267791112264,-2.094074090321859,-0.8728055953979492,0.0,0.0
46.500,-1.1247171649226435,1.1770924241454512,2.4181930312403925,-1.0438510841793485,0.0,0.0,1.9646994007958307,-2.098096653267189,-2.093275299778691,-0.8689252138137817,0.0,0.0
46.600,-1.3229276515819408,1.1614858132821542,2.4228410102702953,-1.0442696942223444,0.0,0.0,1.9673053291108873,-2.1035153954117387,-2.0924765092355235,-0.8650448322296143,0.0,0.0
46.700,-1.5211381382412386,1.145879202418857,2.427488989300198,-1.04468830426534,0.0,0.0,1.969911257425944,-2.108934137556288,-2.0916777186923556,-0.8611644506454468,0.0,0.0
46.800,-1.719348624900535,1.13027259155556,2.432136968330101,-1.045106914308336,0.0,0.0,1.9725171857410007,-2.1143528797008373,-2.090878928149188,-0.8572840690612793,0.0,0.0
46.900,-1.9175591115598323,1.114665980692263,2.4367849473600036,-1.045525524351332,0.0,0.0,1.9751231140560574,-2.119771621845387,-2.0900801376060203,-0.8534036874771118,0.0,0.0
47.000,-2.1157695982191296,1.099059369828966,2.441432926389906,-1.0459441343943279,0.0,0.0,1.977729042371114,-2.125190363989936,-2.089281347062853,-0.8495233058929443,0.0,0.0
47.100,-2.313980084878427,1.0834527589656688,2.4460809054198087,-1.0463627444373236,0.0,0.0,1.9803349706861708,-2.1306091061344854,-2.088482556519685,-0.8456429243087769,0.0,0.0
47.200,-2.512190571537724,1.0678461481023718,2.4507288844497115,-1.0467813544803195,0.0,0.0,1.9829408990012274,-2.1360278482790345,-2.0876837659765175,-0.8417625427246094,0.0,0.0
47.300,-2.7104010581970215,1.0522395372390747,2.4553768634796143,-1.0471999645233154,0.0,0.0,1.9855468273162842,-2.141446590423584,-2.0868849754333496,-0.8378821611404419,0.0,0.0
47.400,-2.5176491829065175,1.0831984052291284,2.4304783252569346,-1.0433710034076984,0.0,0.0,1.8854271884147937,-2.094893237719169,-1.9960269905053651,-0.8297425646048325,0.0,0.0
47.500,-2.3248973076160135,1.114157273219182,2.405579787034255,-1.0395420422920814,0.0,0.0,1.7853075495133033,-2.0483398850147543,-1.905169005577381,-0.8216029680692233,0.0,0.0
47.600,-2.13214543232551,1.1451161412092357,2.380681248811575,-1.0357130811764643,0.0,0.0,1.6851879106118128,-2.001786532310339,-1.8143110206493964,-0.8134633715336139,0.0,0.0
47.700,-1.939393557035006,1.176075009199289,2.3557827105888953,-1.0318841200608473,0.0,0.0,1.5850682717103224,-1.9552331796059241,-1.7234530357214122,-0.8053237749980047,0.0,0.0
47.800,-1.746641681744502,1.2070338771893427,2.3308841723662157,-1.0280551589452303,0.0,0.0,1.4849486328088322,-1.9086798269015093,-1.6325950507934277,-0.7971841784623953,0.0,0.0
47.900,-1.553889806453998,1.2379927451793964,2.305985634143536,-1.0242261978296132,0.0,0.0,1.3848289939073415,-1.8621264741970942,-1.5417370658654432,-0.789044581926786,0.0,0.0
48.000,-1.3611379311634946,1.26895161316945,2.281087095920856,-1.0203972367139964,0.0,0.0,1.2847093550058513,-1.8155731214926794,-1.450879080937459,-0.7809049853911767,0.0,0.0
48.100,-1.1683860558729904,1.2999104811595037,2.2561885576981764,-1.0165682755983794,0.0,0.0,1.1845897161043606,-1.7690197687882643,-1.3600210960094745,-0.7727653888555673,0.0,0.0
48.200,-0.9756341805824866,1.3308693491495571,2.2312900194754968,-1.0127393144827623,0.0,0.0,1.0844700772028704,-1.7224664160838494,-1.26916311108149,-0.764625792319958,0.0,0.0
48.300,-0.7828823052919827,1.3618282171396108,2.206391481252817,-1.0089103533671453,0.0,0.0,0.9843504383013799,-1.6759130633794344,-1.1783051261535058,-0.7564861957843487,0.0,0.0
48.400,-0.5901304300014791,1.3927870851296644,2.181492943030137,-1.0050813922515283,0.0,0.0,0.8842307993998895,-1.6293597106750195,-1.0874471412255216,-0.7483465992487394,0.0,0.0
48.500,-0.3973785547109747,1.423745953119718,2.1565944048074575,-1.0012524311359112,0.0,0.0,0.784111160498399,-1.5828063579706044,-0.9965891562975369,-0.7402070027131301,0.0,0.0
48.600,-0.2046266794204712,1.4547048211097717,2.131695866584778,-0.9974234700202942,0.0,0.0,0.6839915215969086,-1.5362530052661896,-0.9057311713695526,-0.7320674061775208,0.0,0.0
48.700,-0.011874804129967664,1.4856636890998254,2.106797328362098,-0.9935945089046772,0.0,0.0,0.5838718826954181,-1.4896996525617747,-0.8148731864415684,-0.7239278096419114,0.0,0.0
48.800,0.1808770711605363,1.516622557089879,2.0818987901394186,-0.9897655477890601,0.0,0.0,0.4837522437939279,-1.4431462998573599,-0.7240152015135839,-0.7157882131063021,0.0,0.0
48.900,0.3736289464510407,1.5475814250799327,2.0570002519167385,-0.9859365866734431,0.0,0.0,0.3836326048924372,-1.3965929471529446,-0.6331572165855994,-0.7076486165706928,0.0,0.0
49.000,0.5663808217415442,1.5785402930699863,2.032101713694059,-0.9821076255578262,0.0,0.0,0.2835129659909468,-1.3500395944485297,-0.542299231657615,-0.6995090200350835,0.0,0.0
49.100,0.7591326970320482,1.6094991610600398,2.0072031754713793,-0.9782786644422091,0.0,0.0,0.18339332708945655,-1.3034862417441149,-0.4514412467296307,-0.6913694234994742,0.0,0.0
49.200,0.9518845723225517,1.6404580290500934,1.9823046372486994,-0.9744497033265921,0.0,0.0,0.0832736881879661,-1.2569328890397,-0.36058326180164646,-0.6832298269638648,0.0,0.0
49.300,1.1446364476130562,1.671416897040147,1.9574060990260198,-0.970620742210975,0.0,0.0,-0.01684595071352435,-1.2103795363352847,-0.26972527687366177,-0.6750902304282556,0.0,0.0
49.400,1.3373883229035597,1.7023757650302007,1.93250756080334,-0.966791781095358,0.0,0.0,-0.11696558961501502,-1.1638261836308699,-0.17886729194567752,-0.6669506338926462,0.0,0.0
49.500,1.5301401981940632,1.7333346330202541,1.9076090225806603,-0.962962819979741,0.0,0.0,-0.21708522851650525,-1.117272830926455,-0.08800930701769327,-0.6588110373570368,0.0,0.0
49.600,1.7228920734845676,1.7642935010103078,1.8827104843579807,-0.9591338588641241,0.0,0.0,-0.3172048674179955,-1.0707194782220402,0.0028486779102911974,-0.6506714408214276,0.0,0.0
49.700,1.915643948775072,1.7952523690003614,1.8578119461353009,-0.955304897748507,0.0,0.0,-0.41732450631948614,-1.024166125517625,0.09370666283827589,-0.6425318442858182,0.0,0.0
49.800,2.1083958240655756,1.826211236990415,1.832913407912621,-0.95147593663289,0.0,0.0,-0.5174441452209768,-0.97761277281321,0.18456464776626014,-0.6343922477502089,0.0,0.0
49.900,2.301147699356079,1.8571701049804688,1.8080148696899414,-0.947646975517273,0.0,0.0,-0.617563784122467,-0.9310594201087952,0.2754226326942444,-0.6262526512145996,0.0,0.0
50.000,2.1156444336686815,1.8343312229428972,1.619019776582718,-0.9430314387593951,0.0,0.0,-0.6068469285964966,-0.9084208948271615,0.27490875337805065,-0.6066860173429761,0.0,0.0
50.100,1.930141167981284,1.8114923409053258,1.4300246834754944,-0.9384159020015171,0.0,0.0,-0.5961300730705261,-0.8857823695455279,0.274394874061857,-0.5871193834713527,0.0,0.0
50.200,1.7446379022938865,1.7886534588677543,1.2410295903682709,-0.9338003652436393,0.0,0.0,-0.5854132175445557,-0.8631438442638942,0.27388099474566324,-0.5675527495997292,0.0,0.0
50.300,1.559134636606489,1.7658145768301827,1.0520344972610474,-0.9291848284857613,0.0,0.0,-0.5746963620185852,-0.8405053189822606,0.2733671154294695,-0.5479861157281058,0.0,0.0
50.400,1.3736313709190915,1.7429756947926112,0.8630394041538239,-0.9245692917278835,0.0,0.0,-0.5639795064926147,-0.8178667937006269,0.2728532361132758,-0.5284194818564824,0.0,0.0
50.500,1.1881281052316939,1.7201368127550398,0.6740443110466003,-0.9199537549700055,0.0,0.0,-0.5532626509666443,-0.7952282684189933,0.2723393567970821,-0.508852847984859,0.0,0.0
50.600,1.0026248395442963,1.6972979307174683,0.48504921793937683,-0.9153382182121277,0.0,0.0,-0.5425457954406738,-0.7725897431373596,0.27182547748088837,-0.4892862141132355,0.0,0.0
50.700,0.8171215738568989,1.6744590486798967,0.2960541248321533,-0.9107226814542498,0.0,0.0,-0.5318289399147034,-0.7499512178557259,0.27131159816469463,-0.46971958024161203,0.0,0.0
50.800,0.631618308169501,1.6516201666423251,0.10705903172492959,-0.9061071446963719,0.0,0.0,-0.5211120843887329,-0.7273126925740923,0.27079771884850096,-0.4501529463699886,0.0,0.0
50.900,0.44611504248210365,1.6287812846047538,-0.0819360613822937,-0.901491607938494,0.0,0.0,-0.5103952288627625,-0.7046741672924587,0.2702838395323072,-0.4305863124983651,0.0,0.0
51.000,0.26061177679470626,1.6059424025671822,-0.2709311544895172,-0.8968760711806161,0.0,0.0,-0.499678373336792,-0.682035642010825,0.2697699602161135,-0.4110196786267417,0.0,0.0
51.100,0.07510851110730865,1.583103520529611,-0.4599262475967407,-0.8922605344227382,0.0,0.0,-0.48896151781082153,-0.6593971167291914,0.26925608089991976,-0.3914530447551182,0.0,0.0
51.200,-0.11039475458008896,1.5602646384920393,-0.6489213407039642,-0.8876449976648603,0.0,0.0,-0.4782446622848511,-0.6367585914475578,0.2687422015837261,-0.3718864108834948,0.0,0.0
51.300,-0.2958980202674866,1.5374257564544678,-0.8379164338111877,-0.8830294609069824,0.0,0.0,-0.4675278067588806,-0.6141200661659241,0.26822832226753235,-0.35231977701187134,0.0,0.0
51.400,-0.21445111837238073,1.5105858147144318,-0.9111035019159317,-0.8963195532560349,0.0,0.0,-0.2871464341878891,-0.6628583669662476,0.3491724953055382,-0.4685235470533371,0.0,0.0
51.500,-0.1330042164772749,1.4837458729743958,-0.9842905700206757,-0.9096096456050873,0.0,0.0,-0.10676506161689758,-0.711596667766571,0.430116668343544,-0.5847273170948029,0.0,0.0
51.600,-0.051557314582169056,1.4569059312343597,-1.0574776381254196,-0.9228997379541397,0.0,0.0,0.07361631095409393,-0.7603349685668945,0.5110608413815498,-0.7009310871362686,0.0,0.0
51.700,0.029889587312936783,1.4300659894943237,-1.1306647062301636,-0.9361898303031921,0.0,0.0,0.25399768352508545,-0.809073269367218,0.5920050144195557,-0.8171348571777344,0.0,0.0
51.800,0.006472724889005934,1.3502493160111564,-1.1159036329814367,-0.8031930311449936,0.0,0.0,0.0912824273109436,-0.797893226146698,0.7736132144927979,-0.6584637633391789,0.0,0.0
51.900,-0.016944137534924915,1.270432642527989,-1.1011425597327096,-0.6701962319867951,0.0,0.0,-0.07143282890319824,-0.786713182926178,0.95522141456604,-0.49979266950062345,0.0,0.0
52.000,-0.04036099995885577,1.1906159690448217,-1.0863814864839827,-0.5371994328285967,0.0,0.0,-0.2341480851173401,-0.775533139705658,1.1368296146392822,-0.34112157566206797,0.0,0.0
52.100,-0.06377786238278661,1.1107992955616544,-1.0716204132352556,-0.4042026336703982,0.0,0.0,-0.39686334133148193,-0.7643530964851379,1.3184378147125244,-0.18245048182351253,0.0,0.0
52.200,-0.08719472480671747,1.0309826220784868,-1.0568593399865287,-0.2712058345121997,0.0,0.0,-0.5595785975456238,-0.7531730532646179,1.5000460147857666,-0.023779387984957046,0.0,0.0
52.300,-0.11061158723064832,0.9511659485953194,-1.0420982667378016,-0.1382090353540012,0.0,0.0,-0.7222938537597656,-0.7419930100440979,1.6816542148590088,0.13489170585359844,0.0,0.0
52.400,-0.13402844965457916,0.8713492751121521,-1.0273371934890747,-0.005212236195802689,0.0,0.0,-0.8850091099739075,-0.7308129668235779,1.863262414932251,0.29356279969215393,0.0,0.0
52.500,-0.14530480901400247,0.843982477982839,-1.104825536410014,0.08749236414829889,0.0,0.0,-0.7246710161368053,-0.7056127190589905,1.7121022939682007,0.3199545244375865,0.0,0.0
52.600,-0.1565811683734258,0.8166156808535258,-1.1823138793309529,0.18019696449240047,0.0,0.0,-0.564332922299703,-0.6804124712944031,1.5609421730041504,0.346346249183019,0.0,0.0
52.700,-0.16785752773284912,0.7892488837242126,-1.259802222251892,0.2729015648365021,0.0,0.0,-0.4039948284626007,-0.6552122235298157,1.4097820520401,0.37273797392845154,0.0,0.0
52.800,0.022664278745651245,0.7145427763462067,-1.1102813929319382,0.27975401282310486,0.0,0.0,-0.3247244991362095,-0.685048907995224,1.440985083580017,0.30574177019298077,0.0,0.0
52.900,0.2131860852241516,0.6398366689682007,-0.9607605636119843,0.28660646080970764,0.0,0.0,-0.24545416980981827,-0.7148855924606323,1.472188115119934,0.23874556645751,0.0,0.0
53.000,0.403707891702652,0.5651305615901947,-0.8112397342920303,0.2934589087963104,0.0,0.0,-0.16618384048342705,-0.7447222769260406,1.503391146659851,0.17174936272203922,0.0,0.0
53.100,0.5942296981811523,0.4904244542121887,-0.6617189049720764,0.3003113567829132,0.0,0.0,-0.08691351115703583,-0.774558961391449,1.534594178199768,0.10475315898656845,0.0,0.0
53.200,0.644889622926712,0.42090804502367973,-0.5913650691509247,0.3379248157143593,0.0,0.0,0.05838409438729286,-0.7232229709625244,1.3740896582603455,0.13393287174403667,0.0,0.0
53.300,0.6955495476722717,0.35139163583517075,-0.521011233329773,0.37553827464580536,0.0,0.0,0.20368169993162155,-0.6718869805335999,1.2135851383209229,0.1631125845015049,0.0,0.0
53.400,0.7462094724178314,0.28187522664666176,-0.4506573975086212,0.41315173357725143,0.0,0.0,0.34897930547595024,-0.6205509901046753,1.0530806183815002,0.19229229725897312,0.0,0.0
53.500,0.7968693971633911,0.21235881745815277,-0.3803035616874695,0.4507651925086975,0.0,0.0,0.49427691102027893,-0.5692149996757507,0.8925760984420776,0.22147201001644135,0.0,0.0
53.600,0.8344678282737732,0.16404081881046295,-0.3374209403991699,0.4964693486690521,0.0,0.0,0.5207909345626831,-0.528159499168396,0.9534469246864319,0.41706734895706177,0.0,0.0
53.700,0.8126069456338882,0.21425626054406166,-0.41114942729473114,0.5086443647742271,0.0,0.0,0.5836707651615143,-0.4361981339752674,0.7977667152881622,0.497781366109848,0.0,0.0
53.800,0.7907460629940033,0.26447170227766037,-0.48487791419029236,0.5208193808794022,0.0,0.0,0.6465505957603455,-0.3442367687821388,0.6420865058898926,0.5784953832626343,0.0,0.0
53.900,0.7688851803541183,0.3146871440112591,-0.5586064010858536,0.5329943969845772,0.0,0.0,0.7094304263591766,-0.25227540358901024,0.4864062964916229,0.6592094004154205,0.0,0.0
54.000,0.7470242977142334,0.3649025857448578,-0.6323348879814148,0.5451694130897522,0.0,0.0,0.7723102569580078,-0.16031403839588165,0.33072608709335327,0.7399234175682068,0.0,0.0
54.100,0.5683450847864151,0.5166506916284561,-0.7753308713436127,0.44576989114284515,0.0,0.0,0.7541871666908264,-0.13217518478631973,0.2405150979757309,0.540391743183136,0.0,0.0
54.200,0.3896658718585968,0.6683987975120544,-0.9183268547058105,0.3463703691959381,0.0,0.0,0.736064076423645,-0.10403633117675781,0.15030410885810852,0.3408600687980652,0.0,0.0
54.300,0.5251665934920311,0.5454993583261967,-0.7207396514713764,0.4075918570160866,0.0,0.0,0.7545845806598663,-0.14344889670610428,0.1556721292436123,0.33597689867019653,0.0,0.0
54.400,0.6606673151254654,0.4225999191403389,-0.5231524482369423,0.46881334483623505,0.0,0.0,0.7731050848960876,-0.18286146223545074,0.16104014962911606,0.3310937285423279,0.0,0.0
54.500,0.7961680367588997,0.2997004799544811,-0.32556524500250816,0.5300348326563835,0.0,0.0,0.791625589132309,-0.2222740277647972,0.16640817001461983,0.32621055841445923,0.0,0.0
54.600,0.931668758392334,0.17680104076862335,-0.12797804176807404,0.591256320476532,0.0,0.0,0.8101460933685303,-0.2616865932941437,0.1717761904001236,0.3213273882865906,0.0,0.0
54.700,0.9458835323651632,0.1966977541645368,-0.03864455968141556,0.5522616704305013,0.0,0.0,0.7431520769993464,-0.41793211797873175,0.3393080160021782,0.32693174481391907,0.0,0.0
54.800,0.9600983063379923,0.21659446756045023,0.05068892240524292,0.5132670203844706,0.0,0.0,0.6761580606301626,-0.5741776426633198,0.5068398416042328,0.33253610134124756,0.0,0.0
54.900,0.9743130803108215,0.23649118095636368,0.1400224044919014,0.47427237033843994,0.0,0.0,0.6091640442609787,-0.730423167347908,0.6743716672062874,0.33814045786857605,0.0,0.0
55.000,0.9885278542836508,0.2563878943522771,0.22935588657855988,0.4352777202924093,0.0,0.0,0.5421700278917949,-0.8866686920324961,0.841903492808342,0.34374481439590454,0.0,0.0
55.100,1.00274262825648,0.2762846077481906,0.31868936866521835,0.39628307024637854,0.0,0.0,0.47517601152261096,-1.0429142167170844,1.0094353184103966,0.34934917092323303,0.0,0.0
